;FLAVOR:RepRap
;TIME:2158
;Filament used: 0.87798m
;Layer height: 0.06
;Generated with Cura_SteamEngine 3.1.0
T0
M190 S60
M104 S210
M109 S210
M82 ; absolute extrusion mode
;Sliced at: Thu 22-02-2018 19:04:52
G21 ;metric values
G90 ;absolute positioning
M82 ;set extruder to absolute mode
M107 ;start with the fan off
G28 X0 Y0 ;move X/Y to min endstops
G28 Z0 ;move Z to min endstops
G1 Z15.0 F{travel_speed} ;move the platform down 15mm
G92 E0 ;zero the extruded length
G1 F140 E30 ;extrude 3mm of feed stock
G1 X20 Y0 F140 E30
G92 E0 ;zero the extruded length again
G1 F{travel_speed}
M117 Printing...
M83 ; relative extrusion mode
;LAYER_COUNT:15
;LAYER:-12
M107
G0 F3600 X71.573 Y71.827 Z0.36
G1 F1350 X72.369 Y71.104 E0.13024
G1 X73.197 Y70.458 E0.1272
G1 X73.356 Y70.345 E0.02363
G1 X74.094 Y69.855 E0.10729
G1 X75.014 Y69.333 E0.12811
G1 X75.164 Y69.255 E0.02048
G1 X75.979 Y68.872 E0.10907
G1 X76.981 Y68.483 E0.13018
G1 X77.131 Y68.431 E0.01923
G1 X77.981 Y68.176 E0.10748
G1 X78.154 Y68.129 E0.02171
G1 X79.049 Y67.929 E0.11107
G1 X80.084 Y67.772 E0.12679
G1 X80.253 Y67.754 E0.02058
G1 X81.147 Y67.687 E0.10858
G1 X81.312 Y67.681 E0.02
G1 X82.199 Y67.681 E0.10743
G1 X82.39 Y67.688 E0.02315
G1 X83.273 Y67.752 E0.10723
G1 X84.329 Y67.901 E0.12917
G1 X84.505 Y67.933 E0.02167
G1 X85.334 Y68.117 E0.10285
G1 X85.565 Y68.178 E0.02894
G1 X86.806 Y68.571 E0.15766
G1 X94.951 Y71.612 E1.05301
G1 X95.591 Y71.807 E0.08103
G1 X96.265 Y71.922 E0.08281
G1 X96.947 Y71.95 E0.08267
G1 X97.627 Y71.891 E0.08267
G1 X98.295 Y71.749 E0.08271
G1 X98.94 Y71.522 E0.08282
G1 X99.55 Y71.216 E0.08266
G1 X100.12 Y70.833 E0.08317
G1 X100.597 Y70.465 E0.07297
G1 X100.746 Y70.359 E0.02215
G1 X101.484 Y69.869 E0.10729
G1 X102.404 Y69.347 E0.12811
G1 X102.554 Y69.269 E0.02048
G1 X103.369 Y68.886 E0.10907
G1 X104.371 Y68.497 E0.13018
G1 X104.521 Y68.445 E0.01923
G1 X105.371 Y68.19 E0.10748
G1 X105.544 Y68.143 E0.02171
G1 X106.439 Y67.943 E0.11107
G1 X107.474 Y67.786 E0.12679
G1 X107.643 Y67.768 E0.02058
G1 X108.716 Y67.693 E0.13028
G1 X109.221 Y67.685 E0.06117
G1 X110.713 Y67.686 E0.18071
G1 X111.841 Y67.732 E0.13673
G1 X112.602 Y67.815 E0.09272
G1 X113.266 Y67.845 E0.0805
G1 X114.739 Y67.751 E0.17877
G1 X114.955 Y67.744 E0.02617
G1 X116.046 Y67.75 E0.13214
G1 X116.296 Y67.759 E0.0303
G1 X117.622 Y67.874 E0.1612
G1 X118.001 Y67.925 E0.04632
G1 X119.202 Y68.144 E0.14786
G1 X119.503 Y68.212 E0.03737
G1 X120.812 Y68.576 E0.16456
G1 X121.015 Y68.646 E0.02601
G1 X122.142 Y69.068 E0.14575
G1 X122.318 Y69.145 E0.02327
G1 X123.537 Y69.727 E0.16361
G1 X123.75 Y69.844 E0.02943
G1 X124.828 Y70.481 E0.15166
G1 X125.032 Y70.617 E0.0297
G1 X126.202 Y71.465 E0.17501
G1 X126.36 Y71.592 E0.02455
G1 X127.249 Y72.364 E0.1426
G1 X128.134 Y73.254 E0.15202
G1 X128.287 Y73.425 E0.02779
G1 X129.1 Y74.394 E0.1532
G1 X129.249 Y74.592 E0.03001
G1 X130.009 Y75.681 E0.16084
G1 X130.122 Y75.863 E0.02595
G1 X130.808 Y77.062 E0.16731
G1 X130.939 Y77.321 E0.03515
G1 X131.338 Y78.173 E0.11395
G1 X131.715 Y79.113 E0.12266
G1 X132.032 Y80.065 E0.12153
G1 X132.104 Y80.304 E0.03023
G1 X132.42 Y81.56 E0.15686
G1 X132.468 Y81.785 E0.02786
G1 X132.678 Y83.07 E0.1577
G1 X132.72 Y83.414 E0.04197
G1 X132.809 Y84.599 E0.14393
G1 X132.818 Y84.864 E0.03211
G1 X132.809 Y86.143 E0.15491
G1 X132.789 Y86.513 E0.04488
G1 X132.685 Y87.669 E0.14058
G1 X132.626 Y88.118 E0.05485
G1 X132.377 Y89.454 E0.1646
G1 X132.291 Y89.805 E0.04377
G1 X132.152 Y90.461 E0.08122
G1 X132.097 Y91.142 E0.08275
G1 X132.127 Y91.822 E0.08244
G1 X132.234 Y92.45 E0.07716
G1 X132.357 Y92.982 E0.06613
G1 X132.394 Y93.171 E0.02333
G1 X132.527 Y94.029 E0.10516
G1 X132.548 Y94.204 E0.02135
G1 X132.624 Y95.14 E0.11374
G1 X132.642 Y95.834 E0.08408
G1 X132.642 Y103.999 E0.98892
G1 X132.596 Y105.135 E0.1377
G1 X132.469 Y106.232 E0.13375
G1 X132.278 Y107.239 E0.12414
G1 X132.046 Y108.128 E0.11128
G1 X131.994 Y108.3 E0.02176
G1 X131.708 Y109.143 E0.10782
G1 X131.644 Y109.309 E0.02155
G1 X131.303 Y110.112 E0.10566
G1 X131.222 Y110.287 E0.02336
G1 X130.806 Y111.095 E0.11007
G1 X130.741 Y111.212 E0.01621
G1 X130.266 Y111.991 E0.11051
G1 X130.166 Y112.142 E0.02194
G1 X129.542 Y113.004 E0.12889
G1 X128.966 Y113.695 E0.10896
G1 X128.865 Y113.808 E0.01836
G1 X128.24 Y114.457 E0.10913
G1 X128.115 Y114.577 E0.02099
G1 X127.445 Y115.179 E0.10909
G1 X126.616 Y115.826 E0.12737
G1 X126.457 Y115.939 E0.02363
G1 X125.719 Y116.429 E0.10729
G1 X124.799 Y116.951 E0.12811
G1 X124.648 Y117.029 E0.02058
G1 X123.695 Y117.473 E0.12734
G1 X123.198 Y117.672 E0.06484
G1 X86.939 Y131.383 E4.69506
G1 X86.01 Y131.697 E0.11877
G1 X85.834 Y131.749 E0.02223
G1 X84.983 Y131.968 E0.10643
G1 X84.816 Y132.004 E0.02069
G1 X83.93 Y132.165 E0.10907
G1 X83.76 Y132.189 E0.02079
G1 X82.85 Y132.286 E0.11084
G1 X82.709 Y132.296 E0.01712
G1 X81.803 Y132.326 E0.10979
G1 X80.721 Y132.288 E0.13113
G1 X79.693 Y132.177 E0.12523
G1 X79.484 Y132.145 E0.02561
G1 X78.483 Y131.952 E0.12347
G1 X77.581 Y131.712 E0.11305
G1 X76.58 Y131.372 E0.12804
G1 X75.613 Y130.964 E0.12712
G1 X75.433 Y130.878 E0.02416
G1 X74.661 Y130.477 E0.10536
G1 X74.515 Y130.394 E0.02034
G1 X73.746 Y129.922 E0.10928
G1 X73.602 Y129.826 E0.02096
G1 X72.875 Y129.302 E0.10854
G1 X72.728 Y129.187 E0.02261
G1 X72.073 Y128.637 E0.10359
G1 X71.926 Y128.505 E0.02393
G1 X71.284 Y127.882 E0.10835
G1 X71.169 Y127.762 E0.02013
G1 X70.575 Y127.095 E0.10818
G1 X70.454 Y126.948 E0.02306
G1 X69.932 Y126.267 E0.10392
G1 X69.818 Y126.108 E0.0237
G1 X69.242 Y125.219 E0.1283
G1 X68.81 Y124.443 E0.10757
G1 X68.353 Y123.475 E0.12965
G1 X68.289 Y123.325 E0.01975
G1 X67.958 Y122.451 E0.11319
G1 X67.917 Y122.329 E0.01559
G1 X67.659 Y121.46 E0.10979
G1 X67.62 Y121.311 E0.01865
G1 X67.421 Y120.405 E0.11235
G1 X67.393 Y120.246 E0.01955
G1 X67.269 Y119.381 E0.10584
G1 X67.248 Y119.168 E0.02592
G1 X67.171 Y117.673 E0.18131
G1 X67.171 Y109.717 E0.9636
G1 X67.217 Y108.576 E0.13831
G1 X67.344 Y107.484 E0.13315
G1 X67.536 Y106.472 E0.12476
G1 X67.767 Y105.587 E0.11078
G1 X67.819 Y105.415 E0.02176
G1 X68.105 Y104.573 E0.1077
G1 X68.169 Y104.407 E0.02155
G1 X68.585 Y103.442 E0.12728
G1 X69.024 Y102.589 E0.11619
G1 X69.293 Y101.975 E0.08119
G1 X69.486 Y101.32 E0.0827
G1 X69.594 Y100.645 E0.08279
G1 X69.617 Y99.963 E0.08265
G1 X69.553 Y99.283 E0.08272
G1 X69.404 Y98.617 E0.08266
G1 X69.174 Y97.98 E0.08203
G1 X69.019 Y97.655 E0.04361
G1 X68.603 Y96.849 E0.10986
G1 X68.523 Y96.679 E0.02276
G1 X68.18 Y95.873 E0.10609
G1 X68.114 Y95.704 E0.02197
G1 X67.823 Y94.855 E0.1087
G1 X67.776 Y94.7 E0.01962
G1 X67.548 Y93.833 E0.10858
G1 X67.51 Y93.666 E0.02074
G1 X67.35 Y92.804 E0.10619
G1 X67.319 Y92.603 E0.02463
G1 X67.222 Y91.737 E0.10554
G1 X67.209 Y91.556 E0.02198
G1 X67.171 Y90.536 E0.12362
G1 X67.171 Y82.285 E0.99933
G1 X67.217 Y81.144 E0.13831
G1 X67.344 Y80.052 E0.13315
G1 X67.536 Y79.04 E0.12476
G1 X67.767 Y78.155 E0.11078
G1 X67.819 Y77.983 E0.02176
G1 X68.109 Y77.131 E0.10901
G1 X68.512 Y76.168 E0.12644
G1 X68.591 Y75.997 E0.02281
G1 X69.007 Y75.189 E0.11007
G1 X69.072 Y75.072 E0.01621
G1 X69.547 Y74.293 E0.11051
G1 X69.647 Y74.142 E0.02194
G1 X70.157 Y73.428 E0.10627
G1 X70.27 Y73.281 E0.02246
G1 X70.948 Y72.476 E0.12747
G1 X71.573 Y71.827 E0.10913
G0 F3600 X72 Y71.439
G1 F1350 X72 Y128.571 E6.91964
G0 F3600 X73.6 Y129.824
G1 F1350 X73.6 Y70.182 E7.22364
G0 F3600 X75.2 Y69.238
G1 F1350 X75.2 Y130.756 E7.45086
G0 F3600 X76.8 Y131.446
G1 F1350 X76.8 Y68.553 E7.61739
G0 F3600 X78.4 Y68.074
G1 F1350 X78.4 Y131.929 E7.73391
G0 F3600 X80 Y132.21
G1 F1350 X80 Y67.784 E7.80307
G0 F3600 X81.6 Y67.681
G1 F1350 X81.6 Y132.318 E7.82862
G0 F3600 X83.2 Y132.249
G1 F1350 X83.2 Y67.747 E7.81227
G0 F3600 X84.8 Y67.999
G1 F1350 X84.8 Y132.007 E7.75244
G0 F3600 X86.4 Y131.566
G1 F1350 X86.4 Y68.443 E7.64525
G0 F3600 X88 Y69.017
G1 F1350 X88 Y130.982 E7.505
G0 F3600 X89.6 Y130.377
G1 F1350 X89.6 Y69.615 E7.35929
G0 F3600 X91.2 Y70.212
G1 F1350 X91.2 Y129.772 E7.21371
G0 F3600 X92.8 Y129.167
G1 F1350 X92.8 Y70.809 E7.06813
G0 F3600 X94.4 Y71.407
G1 F1350 X94.4 Y128.562 E6.92243
G0 F3600 X96 Y127.957
G1 F1350 X96 Y71.877 E6.79223
G0 F3600 X97.6 Y71.893
G1 F1350 X97.6 Y127.352 E6.71701
G0 F3600 X99.2 Y126.747
G1 F1350 X99.2 Y71.391 E6.70454
G0 F3600 X100.8 Y70.323
G1 F1350 X100.8 Y126.142 E6.76061
G0 F3600 X102.4 Y125.537
G1 F1350 X102.4 Y69.349 E6.80531
G0 F3600 X104 Y68.641
G1 F1350 X104 Y124.932 E6.81778
G0 F3600 X105.6 Y124.327
G1 F1350 X105.6 Y68.13 E6.8064
G0 F3600 X107.2 Y67.827
G1 F1350 X107.2 Y123.722 E6.76982
G0 F3600 X108.8 Y123.117
G1 F1350 X108.8 Y67.691 E6.71302
G0 F3600 X110.4 Y67.686
G1 F1350 X110.4 Y122.512 E6.64035
G0 F3600 X112 Y121.907
G1 F1350 X112 Y67.75 E6.55932
G0 F3600 X113.6 Y67.823
G1 F1350 X113.6 Y121.302 E6.4772
G0 F3600 X115.2 Y120.697
G1 F1350 X115.2 Y67.746 E6.41325
G0 F3600 X116.8 Y67.803
G1 F1350 X116.8 Y120.092 E6.33307
G0 F3600 X118.4 Y119.487
G1 F1350 X118.4 Y67.998 E6.23618
G0 F3600 X120 Y68.351
G1 F1350 X120 Y118.882 E6.12015
G0 F3600 X121.6 Y118.277
G1 F1350 X121.6 Y68.866 E5.9845
G0 F3600 X123.2 Y69.567
G1 F1350 X123.2 Y117.672 E5.82632
G0 F3600 X124.8 Y116.951
G1 F1350 X124.8 Y70.465 E5.63023
G0 F3600 X126.4 Y71.627
G1 F1350 X126.4 Y115.977 E5.37153
G0 F3600 X128 Y114.681
G1 F1350 X128 Y73.12 E5.03373
G0 F3600 X129.6 Y75.095
G1 F1350 X129.6 Y112.924 E4.58172
G0 F3600 X131.2 Y110.33
G1 F1350 X131.2 Y77.879 E3.93036
G0 F3600 X132.8 Y84.48
G1 F1350 X132.8 Y86.31 E0.22164
G0 F3600 X70.4 Y73.126
G1 F1350 X70.4 Y126.877 E6.51014
G0 F3600 X68.8 Y124.421
G1 F1350 X68.8 Y103.024 E2.59153
G0 F3600 X69.134 Y100.598
G0 X69.15 Y100.101
G0 X68.8 Y97.23
G1 F1350 X68.8 Y75.591 E2.62084
G0 F3600 X67.2 Y81.565
G1 F1350 X67.2 Y91.314 E1.18077
G0 F3600 X69.097 Y99.356
G0 X69.155 Y99.983
G0 X69.059 Y100.983
G0 X67.2 Y108.997
G1 F1350 X67.2 Y118.236 E1.119
G0 F3600 X68.94 Y102.362
G0 X71.706 Y71.706
;TIME_ELAPSED:114.205895
;LAYER:-11
M140 S60
G0 X71.706 Y71.706 Z0.45
;TYPE:SUPPORT
G1 F1350 X72.368 Y71.103 E0.02711
G1 X72.452 Y71.038 E0.00322
G1 X120.213 Y118.799 E2.04518
G1 X121.239 Y118.411 E0.03321
G1 X73.249 Y70.42 E2.05501
G1 X73.355 Y70.344 E0.00395
G1 X74.093 Y69.855 E0.02681
G0 F3600 X74.096 Y69.853
G1 F1350 X122.265 Y118.023 E2.06268
G1 X123.197 Y117.671 E0.03017
G1 X123.29 Y117.633 E0.00304
G1 X74.998 Y69.341 E2.06792
G1 X75.013 Y69.332 E0.00053
G1 X75.163 Y69.254 E0.00512
G1 X75.954 Y68.883 E0.02645
G1 X124.273 Y117.202 E2.06908
G1 X124.647 Y117.029 E0.01248
G1 X124.798 Y116.951 E0.00515
G1 X125.205 Y116.719 E0.01419
G1 X76.972 Y68.486 E2.0654
G1 X77.129 Y68.43 E0.00505
G1 X77.98 Y68.175 E0.0269
G1 X78.055 Y68.155 E0.00235
G1 X126.084 Y116.184 E2.05666
G1 X126.456 Y115.938 E0.0135
G1 X126.615 Y115.826 E0.00589
G1 X126.909 Y115.595 E0.01132
G1 X79.217 Y67.903 E2.04223
G1 X80.082 Y67.771 E0.02649
G1 X80.252 Y67.753 E0.00518
G1 X80.465 Y67.738 E0.00647
G1 X127.687 Y114.96 E2.0221
G1 X128.114 Y114.577 E0.01737
G1 X128.239 Y114.456 E0.00527
G1 X128.416 Y114.274 E0.00769
G1 X81.823 Y67.681 E1.99517
G1 X82.198 Y67.681 E0.01135
G1 X82.389 Y67.688 E0.00579
G1 X83.272 Y67.751 E0.0268
G1 X83.314 Y67.757 E0.00128
G1 X129.095 Y113.539 E1.96042
G1 X129.541 Y113.003 E0.02111
G1 X129.723 Y112.753 E0.00936
G1 X85.017 Y68.047 E1.91437
G1 X85.333 Y68.117 E0.0098
G1 X85.564 Y68.177 E0.00723
G1 X86.805 Y68.57 E0.03942
G1 X87.045 Y68.66 E0.00776
G1 X130.307 Y111.922 E1.85253
G1 X130.74 Y111.211 E0.02521
G1 X130.804 Y111.094 E0.00404
G1 X130.835 Y111.036 E0.00199
G1 X89.301 Y69.502 E1.77854
G1 X91.559 Y70.345 E0.07298
G1 X131.309 Y110.096 E1.70217
G1 X131.643 Y109.308 E0.02591
G1 X131.707 Y109.143 E0.00536
G1 X131.723 Y109.095 E0.00153
G1 X93.815 Y71.187 E1.62327
G1 X94.95 Y71.611 E0.03669
G1 X95.59 Y71.807 E0.02027
G1 X95.902 Y71.86 E0.00958
G1 X132.071 Y108.029 E1.5488
G1 X132.277 Y107.239 E0.02472
G1 X132.344 Y106.889 E0.01079
G1 X97.369 Y71.913 E1.49769
G1 X97.626 Y71.89 E0.00781
G1 X98.294 Y71.749 E0.02067
G1 X98.534 Y71.664 E0.00771
G1 X132.534 Y105.664 E1.45592
G1 X132.595 Y105.135 E0.01612
G1 X132.627 Y104.343 E0.024
G1 X99.516 Y71.232 E1.41785
G1 X99.549 Y71.215 E0.00112
G1 X100.119 Y70.833 E0.02078
G1 X100.352 Y70.654 E0.0089
G1 X132.641 Y102.942 E1.38263
G1 X132.641 Y101.528 E0.04281
G1 X101.182 Y70.069 E1.34711
G1 X101.483 Y69.868 E0.01096
G1 X102.065 Y69.539 E0.02024
G1 X132.641 Y100.114 E1.30928
G1 X132.641 Y98.7 E0.04281
G1 X103 Y69.059 E1.26926
G1 X103.368 Y68.885 E0.01233
G1 X103.997 Y68.642 E0.02042
G1 X132.641 Y97.285 E1.22655
G1 X132.641 Y95.871 E0.04281
G1 X105.054 Y68.285 E1.18129
G1 X105.37 Y68.19 E0.00999
G1 X105.543 Y68.143 E0.00543
G1 X106.184 Y68 E0.01989
G1 X132.562 Y94.378 E1.12954
G1 X132.547 Y94.203 E0.00532
G1 X132.526 Y94.028 E0.00534
G1 X132.393 Y93.171 E0.02626
G1 X132.356 Y92.981 E0.00586
G1 X132.289 Y92.691 E0.00901
G1 X107.396 Y67.798 E1.06595
G1 X107.473 Y67.786 E0.00236
G1 X107.642 Y67.768 E0.00515
G1 X108.706 Y67.694 E0.03229
G1 X132.1 Y91.088 E1.00176
G1 X132.151 Y90.461 E0.01905
G1 X132.28 Y89.854 E0.01879
G1 X110.112 Y67.686 E0.94926
G1 X110.712 Y67.686 E0.01817
G1 X111.561 Y67.721 E0.02573
G1 X132.521 Y88.68 E0.89751
G1 X132.624 Y88.118 E0.0173
G1 X132.684 Y87.668 E0.01375
G1 X132.704 Y87.449 E0.00666
G1 X113.092 Y67.837 E0.83981
G1 X113.265 Y67.844 E0.00524
G1 X114.439 Y67.77 E0.03562
G1 X132.808 Y86.139 E0.78658
G1 X132.817 Y84.864 E0.03861
G1 X132.813 Y84.729 E0.00409
G1 X115.832 Y67.749 E0.72713
G1 X116.045 Y67.75 E0.00645
G1 X116.295 Y67.759 E0.00757
G1 X117.347 Y67.85 E0.03197
G1 X132.692 Y83.195 E0.65709
G1 X132.677 Y83.069 E0.00384
G1 X132.467 Y81.784 E0.03942
G1 X132.419 Y81.559 E0.00697
G1 X132.402 Y81.49 E0.00215
G1 X119.023 Y68.111 E0.57291
G1 X119.201 Y68.143 E0.00548
G1 X119.502 Y68.211 E0.00934
G1 X120.811 Y68.575 E0.04114
G1 X120.949 Y68.624 E0.00443
G1 X131.852 Y79.526 E0.46686
G1 X131.714 Y79.112 E0.01321
G1 X131.337 Y78.172 E0.03067
G1 X130.938 Y77.321 E0.02846
G1 X130.814 Y77.073 E0.0084
G1 X123.404 Y69.664 E0.31728
G1 X123.536 Y69.727 E0.00443
G1 X123.749 Y69.843 E0.00734
G1 X124.827 Y70.48 E0.03791
G1 X125.031 Y70.616 E0.00742
G1 X126.2 Y71.465 E0.04375
G1 X126.359 Y71.592 E0.00616
G1 X127.248 Y72.363 E0.03563
G1 X128.133 Y73.253 E0.038
G1 X128.286 Y73.424 E0.00695
G1 X129.098 Y74.393 E0.03828
G1 X129.248 Y74.591 E0.00752
G1 X130.007 Y75.68 E0.04019
G1 X130.121 Y75.863 E0.00653
G1 X130.807 Y77.061 E0.0418
G0 F3600 X119.187 Y119.187
G1 F1350 X71.706 Y71.706 E2.03319
G0 F3600 X71.003 Y72.417
G1 F1350 X118.161 Y119.575 E2.01936
G1 X119.187 Y119.187 E0.03321
G0 F3600 X117.135 Y119.963
G1 F1350 X116.109 Y120.351 E0.03321
G1 X69.751 Y73.994 E1.98509
G1 X69.647 Y74.141 E0.00545
G1 X69.547 Y74.292 E0.00548
G1 X69.201 Y74.858 E0.02009
G1 X115.082 Y120.739 E1.96468
G1 X114.056 Y121.127 E0.03321
G1 X68.704 Y75.775 E1.94203
G1 X68.591 Y75.996 E0.00752
G1 X68.512 Y76.167 E0.0057
G1 X68.266 Y76.752 E0.01922
G1 X113.03 Y121.515 E1.91683
G1 X112.004 Y121.903 E0.03321
G1 X67.885 Y77.785 E1.88921
G1 X67.818 Y77.982 E0.0063
G1 X67.766 Y78.154 E0.00544
G1 X67.574 Y78.888 E0.02297
G1 X110.977 Y122.291 E1.85857
G1 X109.951 Y122.679 E0.03321
G1 X67.341 Y80.069 E1.82461
G1 X67.217 Y81.143 E0.03274
G1 X67.208 Y81.35 E0.00627
G1 X108.925 Y123.067 E1.78637
G1 X107.899 Y123.455 E0.03321
G1 X67.17 Y82.727 E1.74404
G1 X67.17 Y84.141 E0.04281
G1 X106.872 Y123.843 E1.70009
G1 X105.846 Y124.231 E0.03321
G1 X67.17 Y85.555 E1.65615
G1 X67.17 Y86.969 E0.04281
G1 X104.82 Y124.619 E1.61222
G1 X103.794 Y125.007 E0.03321
G1 X67.17 Y88.384 E1.56826
G1 X67.17 Y89.798 E0.04281
G1 X102.768 Y125.395 E1.52433
G1 X101.742 Y125.783 E0.03321
G1 X67.197 Y91.238 E1.47926
G1 X67.209 Y91.554 E0.00958
G1 X67.221 Y91.735 E0.00549
G1 X67.318 Y92.601 E0.02639
G1 X67.349 Y92.805 E0.00625
G1 X100.716 Y126.171 E1.42879
G1 X99.69 Y126.56 E0.03322
G1 X67.755 Y94.625 E1.3675
G1 X67.775 Y94.699 E0.00232
G1 X67.822 Y94.854 E0.0049
G1 X68.113 Y95.703 E0.02718
G1 X68.179 Y95.871 E0.00547
G1 X68.522 Y96.678 E0.02655
G1 X68.603 Y96.848 E0.0057
G1 X68.645 Y96.929 E0.00276
G1 X98.663 Y126.947 E1.28541
G1 X97.637 Y127.335 E0.03321
G1 X69.543 Y99.242 E1.203
G1 X69.553 Y99.282 E0.00125
G1 X69.617 Y99.962 E0.02068
G1 X69.594 Y100.644 E0.02066
