;FLAVOR:RepRap
;TIME:2192
;Filament used: 0.874669m
;Layer height: 0.06
;Generated with Cura_SteamEngine 3.1.0
T0
M190 S60
M104 S210
M109 S210
M82 ; absolute extrusion mode
;Sliced at: Wed 21-02-2018 19:23:21
G21 ;metric values
G90 ;absolute positioning
M82 ;set extruder to absolute mode
M107 ;start with the fan off
G28 X0 Y0 ;move X/Y to min endstops
G28 Z0 ;move Z to min endstops
G1 Z15.0 F{travel_speed} ;move the platform down 15mm
G92 E0 ;zero the extruded length
G1 F140 E30 ;extrude 3mm of feed stock
G1 X20 Y0 F140 E30
G92 E0 ;zero the extruded length again
G1 F{travel_speed}
M117 Printing...
M83 ; relative extrusion mode
;LAYER_COUNT:15
;LAYER:-12
M107
G0 F3600 X74.596 Y73.898 Z0.36
G1 F1350 X74.721 Y73.778 E0.02099
G1 X75.388 Y73.179 E0.10858
G1 X75.523 Y73.069 E0.02109
G1 X76.439 Y72.374 E0.13926
G1 X76.627 Y72.24 E0.02796
G1 X77.484 Y71.69 E0.12333
G1 X77.639 Y71.599 E0.02177
G1 X78.546 Y71.113 E0.12463
G1 X79.394 Y70.731 E0.11265
G1 X79.548 Y70.669 E0.02011
G1 X80.401 Y70.358 E0.10997
G1 X80.539 Y70.313 E0.01758
G1 X81.403 Y70.068 E0.10877
G1 X81.591 Y70.022 E0.02344
G1 X82.605 Y69.818 E0.12527
G1 X83.523 Y69.697 E0.11215
G1 X83.674 Y69.682 E0.01838
G1 X84.574 Y69.631 E0.10918
G1 X84.749 Y69.627 E0.0212
G1 X85.822 Y69.651 E0.12999
G1 X86.702 Y69.729 E0.107
G1 X87.776 Y69.898 E0.13168
G1 X88.8 Y70.138 E0.12738
G1 X88.955 Y70.182 E0.01951
G1 X90.107 Y70.558 E0.14677
G1 X99.12 Y73.929 E1.16548
G1 X99.761 Y74.124 E0.08115
G1 X100.435 Y74.239 E0.08281
G1 X101.117 Y74.267 E0.08267
G1 X101.797 Y74.208 E0.08267
G1 X102.465 Y74.066 E0.08271
G1 X103.109 Y73.839 E0.0827
G1 X103.72 Y73.533 E0.08276
G1 X104.307 Y73.136 E0.08583
G1 X104.793 Y72.772 E0.07354
G1 X105.511 Y72.287 E0.10494
G1 X106.573 Y71.655 E0.14968
G1 X107.185 Y71.335 E0.08364
G1 X107.78 Y71.054 E0.0797
G1 X108.007 Y70.956 E0.02995
G1 X109.224 Y70.487 E0.15797
G1 X109.433 Y70.414 E0.02681
G1 X110.847 Y70.013 E0.17801
G1 X111.868 Y69.802 E0.12627
G1 X112.465 Y69.708 E0.0732
G1 X113.15 Y69.623 E0.0836
G1 X113.991 Y69.563 E0.10212
G1 X114.241 Y69.551 E0.03031
G1 X114.923 Y69.535 E0.08262
G1 X115.799 Y69.559 E0.10614
G1 X116.82 Y69.642 E0.12407
G1 X117.287 Y69.701 E0.05701
G1 X117.871 Y69.791 E0.07157
G1 X118.313 Y69.849 E0.05399
G1 X118.313 Y69.854 E0.00061
G1 X119.539 Y69.883 E0.14853
G1 X120.603 Y69.964 E0.12924
G1 X121.1 Y70.025 E0.06065
G1 X121.808 Y70.138 E0.08684
G1 X122.694 Y70.323 E0.10962
G1 X122.85 Y70.361 E0.01945
G1 X124.08 Y70.716 E0.15505
G1 X125.242 Y71.15 E0.15023
G1 X126.123 Y71.551 E0.11724
G1 X127.306 Y72.188 E0.16273
G1 X127.905 Y72.559 E0.08534
G1 X128.521 Y72.977 E0.09016
G1 X128.952 Y73.298 E0.06509
G1 X129.609 Y73.824 E0.10193
G1 X130.209 Y74.352 E0.0968
G1 X130.841 Y74.972 E0.10723
G1 X131.103 Y75.242 E0.04557
G1 X131.498 Y75.679 E0.07135
G1 X131.893 Y76.148 E0.07427
G1 X132.739 Y77.288 E0.17194
G1 X133.15 Y77.912 E0.0905
G1 X133.578 Y78.642 E0.10249
G1 X133.944 Y79.332 E0.0946
G1 X134.288 Y80.066 E0.09818
G1 X134.425 Y80.377 E0.04116
G1 X134.427 Y80.384 E0.00088
G1 X134.426 Y80.379 E0.00062
G1 X134.844 Y81.472 E0.14173
G1 X135.115 Y82.321 E0.10794
G1 X135.338 Y83.166 E0.10585
G1 X135.438 Y83.602 E0.05418
G1 X135.614 Y84.54 E0.11559
G1 X135.72 Y85.275 E0.08994
G1 X135.798 Y86.065 E0.09615
G1 X135.828 Y86.79 E0.08788
G1 X135.845 Y87.035 E0.02974
G1 X135.85 Y87.46 E0.05148
G1 X135.837 Y88.066 E0.07341
G1 X135.819 Y88.452 E0.0468
G1 X135.741 Y89.458 E0.12221
G1 X135.673 Y89.993 E0.06532
G1 X135.508 Y90.98 E0.1212
G1 X135.393 Y91.523 E0.06723
G1 X135.305 Y91.858 E0.04195
G1 X135.176 Y92.516 E0.08121
G1 X135.129 Y93.197 E0.08268
G1 X135.169 Y93.874 E0.08214
G1 X135.243 Y94.321 E0.05488
G1 X135.439 Y95.253 E0.11535
G1 X135.465 Y95.405 E0.01868
G1 X135.582 Y96.275 E0.10632
G1 X135.6 Y96.474 E0.0242
G1 X135.665 Y97.842 E0.16587
G1 X135.665 Y105.812 E0.9653
G1 X135.619 Y106.953 E0.13831
G1 X135.492 Y108.045 E0.13315
G1 X135.3 Y109.057 E0.12476
G1 X135.069 Y109.942 E0.11078
G1 X135.017 Y110.114 E0.02176
G1 X134.731 Y110.956 E0.1077
G1 X134.667 Y111.122 E0.02155
G1 X134.326 Y111.925 E0.10566
G1 X134.245 Y112.1 E0.02336
G1 X133.843 Y112.882 E0.1065
G1 X133.757 Y113.033 E0.02105
G1 X133.106 Y114.078 E0.14912
G1 X133.041 Y114.176 E0.01424
G1 X132.433 Y114.996 E0.12364
G1 X132.316 Y115.143 E0.02276
G1 X131.741 Y115.806 E0.10629
G1 X131.617 Y115.94 E0.02211
G1 X130.986 Y116.57 E0.108
G1 X130.867 Y116.681 E0.01971
G1 X130.192 Y117.262 E0.10787
G1 X130.05 Y117.376 E0.02206
G1 X129.206 Y117.998 E0.12698
G1 X128.431 Y118.489 E0.11112
G1 X128.272 Y118.582 E0.02231
G1 X127.52 Y118.986 E0.10339
G1 X127.344 Y119.071 E0.02367
G1 X126.102 Y119.607 E0.16384
G1 X90.135 Y133.207 E4.65723
G1 X89.206 Y133.521 E0.11877
G1 X89.036 Y133.571 E0.02146
G1 X88.179 Y133.792 E0.10719
G1 X88.012 Y133.828 E0.02069
G1 X87.126 Y133.989 E0.10907
G1 X86.956 Y134.013 E0.02079
G1 X86.046 Y134.11 E0.11084
G1 X85.905 Y134.12 E0.01712
G1 X85 Y134.15 E0.10967
G1 X83.917 Y134.112 E0.13125
G1 X82.88 Y134 E0.12633
G1 X82.693 Y133.971 E0.02292
G1 X81.658 Y133.769 E0.12772
G1 X80.793 Y133.54 E0.10838
G1 X80.617 Y133.486 E0.0223
G1 X79.638 Y133.142 E0.12568
G1 X78.655 Y132.716 E0.12976
G1 X77.853 Y132.299 E0.10948
G1 X77.706 Y132.215 E0.02051
G1 X76.648 Y131.551 E0.15129
G1 X76.513 Y131.458 E0.01986
G1 X75.736 Y130.88 E0.11729
G1 X75.599 Y130.77 E0.02128
G1 X74.81 Y130.083 E0.12671
G1 X74.154 Y129.427 E0.11236
G1 X73.468 Y128.643 E0.12617
G1 X73.351 Y128.496 E0.02276
G1 X72.82 Y127.782 E0.10777
G1 X72.715 Y127.629 E0.02247
G1 X72.237 Y126.878 E0.10782
G1 X71.719 Y125.927 E0.13116
G1 X71.289 Y124.976 E0.12641
G1 X71.226 Y124.818 E0.0206
G1 X70.922 Y123.98 E0.10797
G1 X70.87 Y123.817 E0.02072
G1 X70.633 Y122.968 E0.10676
G1 X70.586 Y122.776 E0.02394
G1 X70.413 Y121.932 E0.10435
G1 X70.379 Y121.728 E0.02505
G1 X70.267 Y120.863 E0.10564
G1 X70.251 Y120.691 E0.02092
G1 X70.196 Y119.466 E0.14852
G1 X70.194 Y111.683 E0.94265
G1 X70.24 Y110.542 E0.13831
G1 X70.367 Y109.45 E0.13315
G1 X70.559 Y108.438 E0.12476
G1 X70.79 Y107.553 E0.11078
G1 X70.842 Y107.381 E0.02176
G1 X71.128 Y106.539 E0.1077
G1 X71.192 Y106.373 E0.02155
G1 X71.533 Y105.57 E0.10566
G1 X71.614 Y105.395 E0.02336
G1 X72.253 Y104.153 E0.16917
G1 X72.244 Y104.148 E0.00125
G1 X72.478 Y103.495 E0.08401
G1 X72.624 Y102.828 E0.0827
G1 X72.685 Y102.147 E0.08281
G1 X72.66 Y101.466 E0.08254
G1 X72.547 Y100.792 E0.08277
G1 X72.351 Y100.134 E0.08316
G1 X72.005 Y99.383 E0.10015
G1 X71.763 Y98.937 E0.06146
G1 X71.394 Y98.148 E0.1055
G1 X71.323 Y97.981 E0.02198
G1 X71.008 Y97.156 E0.10696
G1 X70.943 Y96.969 E0.02398
G1 X70.693 Y96.135 E0.10545
G1 X70.644 Y95.947 E0.02353
G1 X70.455 Y95.096 E0.10558
G1 X70.424 Y94.92 E0.02164
G1 X70.297 Y94.056 E0.10577
G1 X70.275 Y93.835 E0.0269
G1 X70.194 Y92.31 E0.18496
G1 X70.194 Y84.356 E0.96336
G1 X70.24 Y83.215 E0.13831
G1 X70.367 Y82.123 E0.13315
G1 X70.559 Y81.111 E0.12476
G1 X70.79 Y80.226 E0.11078
G1 X70.842 Y80.054 E0.02176
G1 X71.128 Y79.212 E0.1077
G1 X71.192 Y79.046 E0.02155
G1 X71.533 Y78.243 E0.10566
G1 X71.614 Y78.068 E0.02336
G1 X72.103 Y77.13 E0.12812
G1 X72.57 Y76.364 E0.10866
G1 X72.67 Y76.213 E0.02194
G1 X73.18 Y75.5 E0.10617
G1 X73.303 Y75.34 E0.02444
G1 X73.971 Y74.547 E0.12558
G1 X74.596 Y73.898 E0.10913
G0 F3600 X75.2 Y73.347
G1 F1350 X75.2 Y130.422 E6.91274
G0 F3600 X76.8 Y131.646
G1 F1350 X76.8 Y72.128 E7.20863
G0 F3600 X78.4 Y71.191
G1 F1350 X78.4 Y132.583 E7.4356
G0 F3600 X80 Y133.269
G1 F1350 X80 Y70.504 E7.60189
G0 F3600 X81.6 Y70.02
G1 F1350 X81.6 Y133.753 E7.71913
G0 F3600 X83.2 Y134.034
G1 F1350 X83.2 Y69.739 E7.7872
G0 F3600 X84.8 Y69.629
G1 F1350 X84.8 Y134.142 E7.8136
G0 F3600 X86.4 Y134.073
G1 F1350 X86.4 Y69.703 E7.79628
G0 F3600 X88 Y69.951
G1 F1350 X88 Y133.831 E7.73694
G0 F3600 X89.6 Y133.388
G1 F1350 X89.6 Y70.393 E7.62975
G0 F3600 X91.2 Y70.967
G1 F1350 X91.2 Y132.805 E7.48962
G0 F3600 X92.8 Y132.2
G1 F1350 X92.8 Y71.566 E7.34379
G0 F3600 X94.4 Y72.164
G1 F1350 X94.4 Y131.595 E7.19809
G0 F3600 X96 Y130.99
G1 F1350 X96 Y72.763 E7.05226
G0 F3600 X97.6 Y73.361
G1 F1350 X97.6 Y130.385 E6.90656
G0 F3600 X99.2 Y129.78
G1 F1350 X99.2 Y73.954 E6.76146
G0 F3600 X100.8 Y74.254
G1 F1350 X100.8 Y129.175 E6.65185
G0 F3600 X102.4 Y128.57
G1 F1350 X102.4 Y74.079 E6.59977
G0 F3600 X104 Y73.343
G1 F1350 X104 Y127.965 E6.61564
G0 F3600 X105.6 Y127.36
G1 F1350 X105.6 Y72.234 E6.67668
G0 F3600 X107.2 Y71.327
G1 F1350 X107.2 Y126.755 E6.71326
G0 F3600 X108.8 Y126.15
G1 F1350 X108.8 Y70.65 E6.72198
G0 F3600 X110.4 Y70.139
G1 F1350 X110.4 Y125.545 E6.71059
G0 F3600 X112 Y124.94
G1 F1350 X112 Y69.781 E6.68068
G0 F3600 X113.6 Y69.59
G1 F1350 X113.6 Y124.335 E6.63053
G0 F3600 X115.2 Y123.73
G1 F1350 X115.2 Y69.543 E6.56295
G0 F3600 X116.8 Y69.641
G1 F1350 X116.8 Y123.125 E6.47781
G0 F3600 X118.4 Y122.52
G1 F1350 X118.4 Y69.857 E6.37837
G0 F3600 X120 Y69.919
G1 F1350 X120 Y121.915 E6.29759
G0 F3600 X121.6 Y121.31
G1 F1350 X121.6 Y70.105 E6.20178
G0 F3600 X123.2 Y70.463
G1 F1350 X123.2 Y120.705 E6.08515
G0 F3600 X124.8 Y120.1
G1 F1350 X124.8 Y70.985 E5.94865
G0 F3600 X126.4 Y71.701
G1 F1350 X126.4 Y119.479 E5.78671
G0 F3600 X128 Y118.729
G1 F1350 X128 Y72.624 E5.58409
G0 F3600 X129.6 Y73.817
G1 F1350 X129.6 Y117.708 E5.31593
G0 F3600 X131.2 Y116.357
G1 F1350 X131.2 Y75.35 E4.96663
G0 F3600 X132.8 Y77.381
G1 F1350 X132.8 Y114.502 E4.49597
G0 F3600 X134.4 Y111.751
G1 F1350 X134.4 Y80.321 E3.8067
G0 F3600 X73.6 Y74.987
G1 F1350 X73.6 Y128.793 E6.51681
G0 F3600 X72 Y126.442
G1 F1350 X72 Y104.644 E2.6401
G0 F3600 X70.4 Y109.276
G1 F1350 X70.4 Y121.854 E1.52341
G0 F3600 X72.223 Y102.129
G0 X72 Y99.373
G1 F1350 X72 Y77.327 E2.67014
G0 F3600 X70.4 Y81.949
G1 F1350 X70.4 Y94.756 E1.55114
G0 F3600 X74.595 Y73.898
;TIME_ELAPSED:113.372459
;LAYER:-11
M140 S60
G0 X74.595 Y73.898 Z0.45
;TYPE:SUPPORT
G1 F1350 X74.253 Y74.253 E0.01493
G1 X121.388 Y121.388 E2.01838
G1 X120.362 Y121.776 E0.03321
G1 X73.587 Y75.001 E2.00296
G1 X73.302 Y75.339 E0.01339
G1 X73.179 Y75.499 E0.00611
G1 X72.967 Y75.795 E0.01102
G1 X119.336 Y122.164 E1.98558
G1 X118.309 Y122.552 E0.03324
G1 X72.399 Y76.641 E1.96594
G1 X72.102 Y77.129 E0.0173
G1 X71.886 Y77.543 E0.01414
G1 X117.283 Y122.94 E1.94396
G1 X116.257 Y123.328 E0.03321
G1 X71.424 Y78.495 E1.9198
G1 X71.192 Y79.045 E0.01807
G1 X71.127 Y79.211 E0.0054
G1 X71.026 Y79.511 E0.00958
G1 X115.231 Y123.716 E1.89291
G1 X114.204 Y124.104 E0.03324
G1 X70.693 Y80.593 E1.86319
G1 X70.558 Y81.11 E0.01618
G1 X70.437 Y81.75 E0.01972
G1 X113.178 Y124.492 E1.83024
G1 X112.152 Y124.88 E0.03321
G1 X70.265 Y82.993 E1.79365
G1 X70.24 Y83.214 E0.00673
G1 X70.194 Y84.336 E0.034
G1 X111.126 Y125.268 E1.75276
G1 X110.1 Y125.656 E0.03321
G1 X70.193 Y85.75 E1.70885
G1 X70.193 Y87.164 E0.04281
G1 X109.074 Y126.044 E1.66491
G1 X108.048 Y126.432 E0.03321
G1 X70.193 Y88.578 E1.62098
G1 X70.193 Y89.992 E0.04281
G1 X107.022 Y126.821 E1.57706
G1 X105.995 Y127.208 E0.03323
G1 X70.193 Y91.406 E1.53309
G1 X70.193 Y92.309 E0.02734
G1 X70.222 Y92.849 E0.01637
G1 X104.969 Y127.596 E1.48791
G1 X103.943 Y127.984 E0.03321
G1 X70.345 Y94.386 E1.43871
G1 X70.423 Y94.919 E0.01631
G1 X70.455 Y95.095 E0.00542
G1 X70.644 Y95.945 E0.02637
G1 X70.693 Y96.134 E0.00591
G1 X70.698 Y96.154 E0.00062
G1 X102.916 Y128.372 E1.37961
G1 X101.89 Y128.76 E0.03321
G1 X71.496 Y98.367 E1.30149
G1 X71.763 Y98.936 E0.01903
G1 X72.004 Y99.382 E0.01535
G1 X72.351 Y100.133 E0.02505
G1 X72.547 Y100.791 E0.02079
G1 X72.554 Y100.839 E0.00147
G1 X100.864 Y129.148 E1.21225
G1 X99.838 Y129.537 E0.03322
G1 X72.665 Y102.363 E1.1636
G1 X72.624 Y102.827 E0.0141
G1 X72.477 Y103.494 E0.02068
G1 X72.452 Y103.564 E0.00225
G1 X98.811 Y129.924 E1.12875
G1 X97.785 Y130.312 E0.03321
G1 X72.039 Y104.566 E1.10248
G1 X71.614 Y105.394 E0.02818
G1 X71.562 Y105.503 E0.00366
G1 X96.759 Y130.7 E1.07897
G1 X95.733 Y131.089 E0.03322
G1 X71.142 Y106.498 E1.05302
G1 X71.127 Y106.538 E0.00129
G1 X70.842 Y107.379 E0.02689
G1 X70.787 Y107.557 E0.00564
G1 X94.707 Y131.476 E1.02426
G1 X93.681 Y131.864 E0.03321
G1 X70.509 Y108.693 E0.99223
G1 X70.367 Y109.448 E0.02326
G1 X70.313 Y109.911 E0.01411
G1 X92.655 Y132.253 E0.95671
G1 X91.629 Y132.641 E0.03321
G1 X70.212 Y111.224 E0.9171
G1 X70.193 Y111.682 E0.01388
G1 X70.193 Y112.62 E0.0284
G1 X90.602 Y133.028 E0.87392
G1 X90.134 Y133.206 E0.01516
G1 X89.559 Y133.399 E0.01837
G1 X70.193 Y114.034 E0.82925
G1 X70.194 Y115.449 E0.04285
G1 X88.463 Y133.718 E0.7823
G1 X88.179 Y133.791 E0.00888
G1 X88.012 Y133.827 E0.00517
G1 X87.288 Y133.957 E0.02227
G1 X70.194 Y116.863 E0.73199
G1 X70.195 Y118.278 E0.04285
G1 X86.026 Y134.109 E0.6779
G1 X85.904 Y134.119 E0.00371
G1 X84.999 Y134.149 E0.02742
G1 X84.639 Y134.136 E0.01091
G1 X70.206 Y119.703 E0.61804
G1 X70.251 Y120.69 E0.02992
G1 X70.267 Y120.862 E0.00523
G1 X70.313 Y121.225 E0.01108
G1 X83.112 Y134.024 E0.54807
G1 X82.879 Y133.999 E0.0071
G1 X82.692 Y133.97 E0.00573
G1 X81.657 Y133.768 E0.03193
G1 X81.364 Y133.69 E0.00918
G1 X70.63 Y122.955 E0.45966
G1 X70.632 Y122.967 E0.00037
G1 X70.869 Y123.816 E0.02669
G1 X70.922 Y123.979 E0.00519
G1 X71.226 Y124.817 E0.02699
G1 X71.289 Y124.975 E0.00515
G1 X71.332 Y125.073 E0.00324
G1 X79.22 Y132.96 E0.33775
G1 X78.655 Y132.714 E0.01866
G1 X77.852 Y132.298 E0.02738
G1 X77.706 Y132.214 E0.0051
G1 X76.647 Y131.55 E0.03785
G1 X76.513 Y131.456 E0.00496
G1 X75.736 Y130.879 E0.0293
G1 X75.678 Y130.832 E0.00226
G1 X73.389 Y128.544 E0.098
G0 F3600 X73.468 Y128.642
G1 F1350 X74.154 Y129.425 E0.03152
G1 X74.81 Y130.082 E0.02811
G1 X75.598 Y130.768 E0.03163
G1 X75.678 Y130.832 E0.0031
G0 F3600 X122.415 Y121
G1 F1350 X123.441 Y120.612 E0.03321
G1 X75.736 Y72.907 E2.04279
G1 X76.438 Y72.373 E0.02671
G1 X76.542 Y72.299 E0.00386
G1 X124.467 Y120.224 E2.05221
G1 X125.493 Y119.836 E0.03321
G1 X77.4 Y71.743 E2.0594
G1 X77.482 Y71.69 E0.00296
G1 X77.638 Y71.599 E0.00547
G1 X78.31 Y71.239 E0.02308
G1 X126.503 Y119.432 E2.06368
G1 X127.342 Y119.071 E0.02766
G1 X127.487 Y119.001 E0.00488
G1 X79.271 Y70.786 E2.06465
G1 X79.393 Y70.731 E0.00405
G1 X79.547 Y70.668 E0.00504
G1 X80.295 Y70.396 E0.0241
G1 X128.403 Y118.504 E2.06004
G1 X128.43 Y118.488 E0.00095
G1 X129.205 Y117.997 E0.02778
G1 X129.266 Y117.952 E0.0023
G1 X81.386 Y70.072 E2.05028
G1 X81.402 Y70.067 E0.00051
G1 X81.59 Y70.021 E0.00586
G1 X82.556 Y69.828 E0.02983
G1 X130.079 Y117.351 E2.03499
G1 X130.191 Y117.262 E0.00433
G1 X130.842 Y116.7 E0.02604
G1 X83.816 Y69.674 E2.01371
G1 X84.573 Y69.63 E0.02296
G1 X84.748 Y69.627 E0.0053
G1 X85.194 Y69.637 E0.01351
G1 X131.555 Y115.999 E1.98526
G1 X131.616 Y115.94 E0.00257
G1 X131.74 Y115.806 E0.00553
G1 X132.221 Y115.251 E0.02224
G1 X86.699 Y69.729 E1.94931
G1 X87.775 Y69.898 E0.03298
G1 X88.438 Y70.053 E0.02062
G1 X132.836 Y114.451 E1.90118
G1 X133.04 Y114.175 E0.01039
G1 X133.105 Y114.078 E0.00354
G1 X133.402 Y113.603 E0.01696
G1 X90.506 Y70.707 E1.83686
G1 X92.766 Y71.552 E0.07306
G1 X133.928 Y112.714 E1.76261
G1 X134.244 Y112.1 E0.02091
G1 X134.324 Y111.925 E0.00583
G1 X134.393 Y111.766 E0.00525
G1 X95.025 Y72.398 E1.68579
G1 X97.285 Y73.243 E0.07306
G1 X134.797 Y110.756 E1.60633
G1 X135.016 Y110.113 E0.02057
G1 X135.068 Y109.941 E0.00544
G1 X135.136 Y109.68 E0.00817
G1 X99.501 Y74.045 E1.52593
G1 X99.76 Y74.123 E0.00819
G1 X100.434 Y74.239 E0.02071
G1 X101.116 Y74.267 E0.02067
G1 X101.136 Y74.266 E0.00061
G1 X135.399 Y108.529 E1.46718
G1 X135.49 Y108.045 E0.01491
G1 X135.578 Y107.294 E0.0229
G1 X102.37 Y74.086 E1.42201
G1 X102.464 Y74.065 E0.00292
G1 X103.108 Y73.838 E0.02068
G1 X103.394 Y73.696 E0.00967
G1 X135.659 Y105.96 E1.38161
G1 X135.664 Y105.812 E0.00448
G1 X135.664 Y104.552 E0.03815
G1 X104.272 Y73.16 E1.34424
G1 X104.306 Y73.136 E0.00126
G1 X104.792 Y72.771 E0.0184
G1 X105.095 Y72.568 E0.01104
G1 X135.664 Y103.137 E1.309
G1 X135.664 Y101.723 E0.04281
G1 X105.96 Y72.019 E1.27196
G1 X106.572 Y71.655 E0.02156
G1 X106.86 Y71.504 E0.00985
G1 X135.664 Y100.309 E1.23344
G1 X135.664 Y98.895 E0.04281
G1 X107.81 Y71.04 E1.19276
G1 X108.006 Y70.955 E0.00647
G1 X108.824 Y70.64 E0.02654
G1 X135.646 Y97.462 E1.14855
G1 X135.599 Y96.474 E0.02995
G1 X135.581 Y96.274 E0.00608
G1 X135.536 Y95.938 E0.01026
G1 X109.884 Y70.286 E1.09845
