;FLAVOR:RepRap
;TIME:11679
;Filament used: 2.80037m
;Layer height: 0.06
;Generated with Cura_SteamEngine 3.3.1
T0
M190 S60
M104 S210
M109 S210
M82 ;absolute extrusion mode
;Sliced at: Fri 25-05-2018 13:57:31
G21 ;metric values
G90 ;absolute positioning
M82 ;set extruder to absolute mode
M107 ;start with the fan off
G28 X0 Y0 ;move X/Y to min endstops
G28 Z0 ;move Z to min endstops
G1 Z15.0 F{travel_speed} ;move the platform down 15mm
G92 E0 ;zero the extruded length
G1 F140 E30 ;extrude 3mm of feed stock
G1 X20 Y0 F140 E30
G92 E0 ;zero the extruded length again
G1 F{travel_speed}
M117 Printing...
M83 ;relative extrusion mode
G1 F1500 E-6.5
;LAYER_COUNT:98
;LAYER:0
M107
G0 F3600 X121.002 Y29.879 Z0.3
;TYPE:WALL-INNER
G1 F1500 E6.5
G1 F1800 X122.12 Y31.025 E0.0808
G1 X123.23 Y32.05 E0.07625
G1 X124.391 Y33.012 E0.07609
G1 X125.676 Y33.967 E0.0808
G1 X126.935 Y34.802 E0.07624
G1 X128.234 Y35.568 E0.0761
G1 X129.656 Y36.307 E0.08087
G1 X131.032 Y36.931 E0.07625
G1 X132.523 Y37.512 E0.08075
G1 X133.957 Y37.985 E0.0762
G1 X135.413 Y38.383 E0.07617
G1 X136.978 Y38.72 E0.08079
G1 X138.469 Y38.959 E0.0762
G1 X139.97 Y39.118 E0.07617
G1 X141.569 Y39.205 E0.08081
G1 X143.079 Y39.204 E0.0762
G1 X144.587 Y39.124 E0.07621
G1 X146.179 Y38.953 E0.0808
G1 X147.671 Y38.712 E0.07627
G1 X149.235 Y38.371 E0.08078
G1 X150.692 Y37.971 E0.07625
G1 X152.124 Y37.496 E0.07614
G1 X153.614 Y36.913 E0.08074
G1 X154.989 Y36.288 E0.07622
G1 X156.327 Y35.592 E0.07611
G1 X157.708 Y34.777 E0.08092
G1 X158.965 Y33.941 E0.07618
G1 X160.176 Y33.042 E0.07611
G1 X161.409 Y32.018 E0.08088
G1 X162.518 Y30.992 E0.07624
G1 X163.632 Y29.843 E0.08076
G1 X164.624 Y28.706 E0.07615
G1 X165.555 Y27.519 E0.07613
G1 X166.261 Y26.514 E0.06198
G1 X172.09 Y26.514 E0.29416
G1 X172.433 Y50.513 E1.21124
G1 X172.435 Y50.714 E0.01014
G1 X172.234 Y50.714 E0.00655
G1 X172.233 Y50.714 E0.00005
G1 X112.37 Y50.714 E3.021
G1 X112.369 Y50.714 E0.00005
G1 X112.168 Y50.714 E0.01014
G1 X112.17 Y50.513 E0.00655
G1 X112.512 Y26.514 E1.21124
G1 X118.343 Y26.514 E0.29426
G1 X119.077 Y27.556 E0.06432
G1 X120.009 Y28.742 E0.07612
G1 X121.002 Y29.879 E0.07618
G0 F3600 X121.296 Y29.608
;TYPE:WALL-OUTER
G1 F1800 X122.399 Y30.738 E0.07969
G1 X123.493 Y31.749 E0.07517
G1 X124.638 Y32.697 E0.07502
G1 X125.906 Y33.64 E0.07975
G1 X127.147 Y34.463 E0.07515
G1 X128.428 Y35.218 E0.07504
G1 X129.831 Y35.947 E0.07979
G1 X131.187 Y36.562 E0.07514
G1 X132.658 Y37.135 E0.07967
G1 X134.072 Y37.602 E0.07515
G1 X135.508 Y37.994 E0.07512
G1 X137.052 Y38.327 E0.07971
G1 X138.522 Y38.562 E0.07513
G1 X140.002 Y38.719 E0.07511
G1 X141.58 Y38.805 E0.07975
G1 X143.068 Y38.804 E0.07509
G1 X144.555 Y38.725 E0.07515
G1 X146.126 Y38.556 E0.07974
G1 X147.596 Y38.319 E0.07514
G1 X149.139 Y37.982 E0.0797
G1 X150.576 Y37.588 E0.0752
G1 X151.988 Y37.12 E0.07507
G1 X153.458 Y36.544 E0.07968
G1 X154.814 Y35.928 E0.07516
G1 X156.133 Y35.242 E0.07503
G1 X157.495 Y34.438 E0.07982
G1 X158.735 Y33.614 E0.07513
G1 X159.929 Y32.727 E0.07506
G1 X161.145 Y31.717 E0.07977
G1 X162.238 Y30.706 E0.07514
G1 X163.338 Y29.572 E0.07973
G1 X164.316 Y28.451 E0.07508
G1 X165.234 Y27.28 E0.07509
G1 X166.053 Y26.114 E0.07191
G1 X172.484 Y26.114 E0.32454
G1 X172.839 Y50.913 E1.25162
G1 X172.841 Y51.114 E0.01014
G1 X172.64 Y51.114 E0.00655
G1 X172.639 Y51.114 E0.00005
G1 X111.964 Y51.114 E3.06198
G1 X111.963 Y51.114 E0.00005
G1 X111.762 Y51.114 E0.01014
G1 X111.764 Y50.913 E0.00655
G1 X112.118 Y26.114 E1.25162
G1 X118.55 Y26.114 E0.32459
G1 X119.398 Y27.317 E0.07428
G1 X120.317 Y28.487 E0.07508
G1 X121.296 Y29.608 E0.07511
G0 F3600 X121.435 Y29.751
G0 X121.077 Y30.098
G0 X120.715 Y30.144
;TYPE:SKIN
G1 F1800 X121.847 Y31.304 E0.08179
G1 X122.973 Y32.344 E0.07735
G1 X124.15 Y33.319 E0.07713
G1 X125.452 Y34.287 E0.08188
G1 X126.728 Y35.133 E0.07726
G1 X128.045 Y35.909 E0.07714
G1 X129.486 Y36.658 E0.08196
G1 X130.88 Y37.29 E0.07724
G1 X132.391 Y37.879 E0.08184
G1 X133.844 Y38.359 E0.07722
G1 X135.321 Y38.762 E0.07726
G1 X136.906 Y39.104 E0.08183
G1 X138.418 Y39.345 E0.07727
G1 X139.939 Y39.506 E0.07719
G1 X141.559 Y39.595 E0.08188
G1 X143.089 Y39.594 E0.07721
G1 X144.618 Y39.512 E0.07727
G1 X146.231 Y39.339 E0.08187
G1 X147.743 Y39.096 E0.07728
G1 X149.328 Y38.75 E0.08187
G1 X150.805 Y38.344 E0.0773
G1 X152.257 Y37.863 E0.07719
G1 X153.766 Y37.272 E0.08178
G1 X155.16 Y36.639 E0.07726
G1 X156.516 Y35.933 E0.07715
G1 X157.915 Y35.108 E0.08196
G1 X159.189 Y34.26 E0.07723
G1 X160.417 Y33.348 E0.07719
G1 X161.666 Y32.311 E0.08192
G1 X162.791 Y31.271 E0.07732
G1 X163.919 Y30.107 E0.0818
G1 X164.924 Y28.955 E0.07715
G1 X165.869 Y27.751 E0.07724
G1 X166.463 Y26.904 E0.05221
G1 X171.706 Y26.904 E0.26459
G1 X172.039 Y50.324 E1.18202
G1 X112.564 Y50.324 E3.00142
G1 X112.896 Y26.904 E1.18202
G1 X118.141 Y26.904 E0.26469
G1 X118.765 Y27.788 E0.05461
G1 X119.709 Y28.991 E0.07717
G1 X120.715 Y30.144 E0.07722
G0 F3600 X112.748 Y49.957
G1 F1800 X112.934 Y50.143 E0.01327
G0 F3600 X113.5 Y50.143
G1 F1800 X112.756 Y49.399 E0.0531
G1 X112.686 Y49.329
G0 F3600 X112.764 Y48.841
G1 F1800 X114.066 Y50.143 E0.09292
G1 X114.136 Y50.213
G0 F3600 X114.631 Y50.143
G1 F1800 X112.772 Y48.284 E0.13267
G1 X112.702 Y48.214
G0 F3600 X112.78 Y47.726
G1 F1800 X115.197 Y50.143 E0.1725
G1 X115.267 Y50.213
G0 F3600 X115.763 Y50.143
G1 F1800 X112.788 Y47.168 E0.21232
G1 X112.718 Y47.098
G0 F3600 X112.796 Y46.611
G1 F1800 X116.328 Y50.143 E0.25207
G1 X116.398 Y50.213
G0 F3600 X116.894 Y50.143
G1 F1800 X112.804 Y46.053 E0.2919
G1 X112.734 Y45.983
G0 F3600 X112.811 Y45.495
G1 F1800 X117.46 Y50.143 E0.33176
G1 X117.53 Y50.213
G0 F3600 X118.026 Y50.143
G1 F1800 X112.819 Y44.937 E0.37158
G1 X112.749 Y44.867
G0 F3600 X112.827 Y44.379
G1 F1800 X118.591 Y50.143 E0.41137
G1 X118.661 Y50.213
G0 F3600 X119.157 Y50.143
G1 F1800 X112.835 Y43.822 E0.45116
G1 X112.765 Y43.752
G0 F3600 X112.843 Y43.264
G1 F1800 X119.723 Y50.143 E0.49098
G1 X119.793 Y50.213
G0 F3600 X120.288 Y50.143
G1 F1800 X112.851 Y42.706 E0.53077
G1 X112.781 Y42.636
G0 F3600 X112.859 Y42.148
G1 F1800 X120.854 Y50.143 E0.57059
G1 X120.924 Y50.213
G0 F3600 X121.42 Y50.143
G1 F1800 X112.866 Y41.59 E0.61045
G1 X112.796 Y41.52
G0 F3600 X112.874 Y41.032
G1 F1800 X121.985 Y50.143 E0.65024
G1 X122.055 Y50.213
G0 F3600 X122.551 Y50.143
G1 F1800 X112.882 Y40.474 E0.69006
G1 X112.812 Y40.404
G0 F3600 X112.89 Y39.916
G1 F1800 X123.117 Y50.143 E0.72989
G1 X123.187 Y50.213
G0 F3600 X123.682 Y50.143
G1 F1800 X112.898 Y39.359 E0.76964
G1 X112.828 Y39.289
G0 F3600 X112.906 Y38.801
G1 F1800 X124.248 Y50.143 E0.80946
G1 X124.318 Y50.213
G0 F3600 X124.814 Y50.143
G1 F1800 X112.914 Y38.243 E0.84929
G1 X112.844 Y38.173
G0 F3600 X112.922 Y37.685
G1 F1800 X125.379 Y50.143 E0.88908
G1 X125.449 Y50.213
G0 F3600 X125.945 Y50.143
G1 F1800 X112.929 Y37.128 E0.9289
G1 X112.859 Y37.058
G0 F3600 X112.937 Y36.57
G1 F1800 X126.511 Y50.143 E0.96872
G1 X126.581 Y50.213
G0 F3600 X127.076 Y50.143
G1 F1800 X112.945 Y36.012 E1.00851
G1 X112.875 Y35.942
G0 F3600 X112.953 Y35.455
G1 F1800 X127.642 Y50.143 E1.0483
G1 X127.712 Y50.213
G0 F3600 X128.208 Y50.143
G1 F1800 X112.961 Y34.897 E1.08812
G1 X112.891 Y34.827
G0 F3600 X112.969 Y34.339
G1 F1800 X128.774 Y50.143 E1.12795
G1 X128.844 Y50.213
G0 F3600 X129.339 Y50.143
G1 F1800 X112.977 Y33.781 E1.16773
G1 X112.907 Y33.711
G0 F3600 X112.985 Y33.223
G1 F1800 X129.905 Y50.143 E1.20756
G1 X129.975 Y50.213
G0 F3600 X130.471 Y50.143
G1 F1800 X112.992 Y32.665 E1.24742
G1 X112.922 Y32.595
G0 F3600 X113 Y32.107
G1 F1800 X131.036 Y50.143 E1.28721
G1 X131.106 Y50.213
G0 F3600 X131.602 Y50.143
G1 F1800 X113.008 Y31.549 E1.32703
G1 X112.938 Y31.479
G0 F3600 X113.016 Y30.992
G1 F1800 X132.168 Y50.143 E1.36682
G1 X132.238 Y50.213
G0 F3600 X132.733 Y50.143
G1 F1800 X113.024 Y30.434 E1.40661
G1 X112.954 Y30.364
G0 F3600 X113.032 Y29.876
G1 F1800 X133.299 Y50.143 E1.44643
G1 X133.369 Y50.213
G0 F3600 X133.865 Y50.143
G1 F1800 X113.04 Y29.318 E1.48625
G1 X112.97 Y29.248
G0 F3600 X113.047 Y28.76
G1 F1800 X134.43 Y50.143 E1.52608
G1 X134.5 Y50.213
G0 F3600 X134.996 Y50.143
G1 F1800 X113.055 Y28.202 E1.5659
G1 X112.985 Y28.132
G0 F3600 X113.063 Y27.645
G1 F1800 X135.562 Y50.143 E1.60569
G1 X135.632 Y50.213
G0 F3600 X136.127 Y50.143
G1 F1800 X113.071 Y27.087 E1.64548
G1 X113.001 Y27.017
G0 F3600 X113.633 Y27.083
G1 F1800 X136.693 Y50.143 E1.64576
G1 X136.763 Y50.213
G0 F3600 X137.259 Y50.143
G1 F1800 X114.199 Y27.083 E1.64576
G1 X114.129 Y27.013
G0 F3600 X114.764 Y27.083
G1 F1800 X137.825 Y50.143 E1.6458
G1 X137.895 Y50.213
G0 F3600 X138.39 Y50.143
G1 F1800 X115.33 Y27.083 E1.64576
G1 X115.26 Y27.013
G0 F3600 X115.896 Y27.083
G1 F1800 X138.956 Y50.143 E1.64576
G1 X139.026 Y50.213
G0 F3600 X139.522 Y50.143
G1 F1800 X116.461 Y27.083 E1.6458
G1 X116.391 Y27.013
G0 F3600 X117.027 Y27.083
G1 F1800 X140.087 Y50.143 E1.64576
G1 X140.157 Y50.213
G0 F3600 X140.653 Y50.143
G1 F1800 X123.643 Y33.133 E1.21398
G1 X123.573 Y33.063
G0 F3600 X125.828 Y34.753
G1 F1800 X141.219 Y50.143 E1.0984
G1 X141.289 Y50.213
G0 F3600 X141.784 Y50.143
G1 F1800 X127.349 Y35.708 E1.03021
G1 X127.279 Y35.638
G0 F3600 X128.615 Y36.408
G1 F1800 X142.35 Y50.143 E0.98025
G1 X142.42 Y50.213
G0 F3600 X142.916 Y50.143
G1 F1800 X129.746 Y36.973 E0.93993
G1 X129.676 Y36.903
G0 F3600 X130.78 Y37.442
G1 F1800 X143.481 Y50.143 E0.90645
G1 X143.551 Y50.213
G0 F3600 X144.047 Y50.143
G1 F1800 X131.71 Y37.806 E0.88048
G1 X131.64 Y37.736
G0 F3600 X132.61 Y38.141
G1 F1800 X144.613 Y50.143 E0.8566
G1 X144.683 Y50.213
G0 F3600 X145.178 Y50.143
G1 F1800 X133.457 Y38.422 E0.83651
G1 X133.387 Y38.352
G0 F3600 X134.261 Y38.66
G1 F1800 X145.744 Y50.143 E0.81953
G1 X145.814 Y50.213
G0 F3600 X146.31 Y50.143
G1 F1800 X135.039 Y38.872 E0.8044
G1 X134.969 Y38.802
G0 F3600 X135.775 Y39.043
G1 F1800 X146.875 Y50.143 E0.79219
G1 X146.945 Y50.213
G0 F3600 X147.441 Y50.143
G1 F1800 X136.498 Y39.2 E0.78099
G1 X136.428 Y39.13
G0 F3600 X137.196 Y39.332
G1 F1800 X148.007 Y50.143 E0.77157
G1 X148.077 Y50.213
G0 F3600 X148.573 Y50.143
G1 F1800 X137.868 Y39.439 E0.76397
G1 X137.798 Y39.369
G0 F3600 X138.532 Y39.537
G1 F1800 X149.138 Y50.143 E0.75694
G1 X149.208 Y50.213
G0 F3600 X149.704 Y50.143
G1 F1800 X139.165 Y39.605 E0.75212
G1 X139.095 Y39.535
G0 F3600 X139.798 Y39.672
G1 F1800 X150.27 Y50.143 E0.74734
G1 X150.34 Y50.213
G0 F3600 X150.835 Y50.143
G1 F1800 X140.403 Y39.711 E0.74452
G1 X140.333 Y39.641
G0 F3600 X141.002 Y39.744
G1 F1800 X151.401 Y50.143 E0.74216
G1 X151.471 Y50.213
G0 F3600 X151.967 Y50.143
G1 F1800 X141.598 Y39.774 E0.74002
G1 X141.528 Y39.704
G0 F3600 X142.163 Y39.774
G1 F1800 X152.532 Y50.143 E0.74002
G1 X152.602 Y50.213
G0 F3600 X153.098 Y50.143
G1 F1800 X142.729 Y39.774 E0.74002
G1 X142.659 Y39.704
G0 F3600 X143.284 Y39.764
G1 F1800 X153.664 Y50.143 E0.74077
G1 X153.734 Y50.213
G0 F3600 X154.229 Y50.143
G1 F1800 X143.821 Y39.735 E0.74281
G1 X143.751 Y39.665
G0 F3600 X144.357 Y39.706
G1 F1800 X154.795 Y50.143 E0.74491
G1 X154.865 Y50.213
G0 F3600 X155.361 Y50.143
G1 F1800 X144.881 Y39.664 E0.74791
G1 X144.811 Y39.594
G0 F3600 X145.393 Y39.61
G1 F1800 X155.926 Y50.143 E0.75173
G1 X155.996 Y50.213
G0 F3600 X156.492 Y50.143
G1 F1800 X145.903 Y39.554 E0.75572
G1 X145.833 Y39.484
G0 F3600 X146.407 Y39.492
G1 F1800 X157.058 Y50.143 E0.76015
G1 X157.128 Y50.213
G0 F3600 X157.624 Y50.143
G1 F1800 X146.894 Y39.414 E0.76575
G1 X146.824 Y39.344
G0 F3600 X147.382 Y39.336
G1 F1800 X158.189 Y50.143 E0.77128
G1 X158.259 Y50.213
G0 F3600 X158.755 Y50.143
G1 F1800 X147.865 Y39.253 E0.77721
G1 X147.795 Y39.183
G0 F3600 X148.329 Y39.151
G1 F1800 X159.321 Y50.143 E0.78448
G1 X159.391 Y50.213
G0 F3600 X159.886 Y50.143
G1 F1800 X148.793 Y39.05 E0.79169
G1 X148.723 Y38.98
G0 F3600 X149.258 Y38.949
G1 F1800 X160.452 Y50.143 E0.7989
G1 X160.522 Y50.213
G0 F3600 X161.018 Y50.143
G1 F1800 X149.707 Y38.832 E0.80725
G1 X149.637 Y38.762
G0 F3600 X150.15 Y38.71
G1 F1800 X161.583 Y50.143 E0.81596
G1 X161.653 Y50.213
G0 F3600 X162.149 Y50.143
G1 F1800 X150.593 Y38.588 E0.8247
G1 X150.523 Y38.518
G0 F3600 X151.029 Y38.458
G1 F1800 X162.715 Y50.143 E0.83398
G1 X162.785 Y50.213
G0 F3600 X163.28 Y50.143
G1 F1800 X151.454 Y38.317 E0.84401
G1 X151.384 Y38.247
G0 F3600 X151.879 Y38.176
G1 F1800 X163.846 Y50.143 E0.85407
G1 X163.916 Y50.213
G0 F3600 X164.412 Y50.143
G1 F1800 X152.304 Y38.035 E0.86413
G1 X152.234 Y37.965
G0 F3600 X152.711 Y37.877
G1 F1800 X164.977 Y50.143 E0.87541
G1 X165.047 Y50.213
G0 F3600 X165.543 Y50.143
G1 F1800 X153.118 Y37.718 E0.88676
G1 X153.048 Y37.648
G0 F3600 X153.524 Y37.559
G1 F1800 X166.109 Y50.143 E0.89814
G1 X166.179 Y50.213
G0 F3600 X166.674 Y50.143
G1 F1800 X153.927 Y37.396 E0.90974
G1 X153.857 Y37.326
G0 F3600 X154.316 Y37.219
G1 F1800 X167.24 Y50.143 E0.92237
G1 X167.31 Y50.213
G0 F3600 X167.806 Y50.143
G1 F1800 X154.705 Y37.043 E0.93497
G1 X154.635 Y36.973
G0 F3600 X155.094 Y36.866
G1 F1800 X168.372 Y50.143 E0.9476
G1 X168.442 Y50.213
G0 F3600 X168.937 Y50.143
G1 F1800 X155.472 Y36.679 E0.96094
G1 X155.402 Y36.609
G0 F3600 X155.844 Y36.485
G1 F1800 X169.503 Y50.143 E0.97479
G1 X169.573 Y50.213
G0 F3600 X170.069 Y50.143
G1 F1800 X156.216 Y36.291 E0.98864
G1 X156.146 Y36.221
G0 F3600 X156.588 Y36.097
G1 F1800 X170.634 Y50.143 E1.00244
G1 X170.704 Y50.213
G0 F3600 X171.2 Y50.143
G1 F1800 X156.945 Y35.889 E1.01733
G1 X156.875 Y35.819
G0 F3600 X157.301 Y35.679
G1 F1800 X171.766 Y50.143 E1.03231
G1 X171.836 Y50.213
G0 F3600 X171.848 Y49.66
G1 F1800 X157.657 Y35.469 E1.01279
G1 X157.587 Y35.399
G0 F3600 X158.012 Y35.259
G1 F1800 X171.84 Y49.086 E0.98685
G1 X171.91 Y49.156
G0 F3600 X171.832 Y48.513
G1 F1800 X158.353 Y35.033 E0.96201
G1 X158.283 Y34.963
G0 F3600 X158.692 Y34.807
G1 F1800 X171.824 Y47.939 E0.93721
G1 X171.894 Y48.009
G0 F3600 X171.816 Y47.365
G1 F1800 X159.031 Y34.581 E0.91241
G1 X158.961 Y34.511
G0 F3600 X159.367 Y34.351
G1 F1800 X171.807 Y46.791 E0.88783
G1 X171.877 Y46.861
G0 F3600 X171.8 Y46.217
G1 F1800 X159.692 Y34.11 E0.8641
G1 X159.622 Y34.04
G0 F3600 X160.016 Y33.869
G1 F1800 X171.791 Y45.643 E0.84033
G1 X171.861 Y45.713
G0 F3600 X171.783 Y45.07
G1 F1800 X160.342 Y33.628 E0.81657
G1 X160.272 Y33.558
G0 F3600 X160.659 Y33.38
G1 F1800 X171.775 Y44.496 E0.79333
G1 X171.845 Y44.566
G0 F3600 X171.767 Y43.922
G1 F1800 X160.968 Y33.123 E0.77071
G1 X160.898 Y33.053
G0 F3600 X161.277 Y32.867
G1 F1800 X171.759 Y43.348 E0.74805
G1 X171.829 Y43.418
G0 F3600 X171.751 Y42.775
G1 F1800 X161.586 Y32.61 E0.72546
G1 X161.516 Y32.54
G0 F3600 X161.889 Y32.348
G1 F1800 X171.742 Y42.2 E0.70316
G1 X171.812 Y42.27
G0 F3600 X171.735 Y41.627
G1 F1800 X162.184 Y32.076 E0.68164
G1 X162.114 Y32.006
G0 F3600 X162.478 Y31.804
G1 F1800 X171.726 Y41.053 E0.66005
G1 X171.796 Y41.123
G0 F3600 X171.718 Y40.479
G1 F1800 X162.772 Y31.533 E0.63846
G1 X162.702 Y31.463
G0 F3600 X163.057 Y31.252
G1 F1800 X171.71 Y39.905 E0.61755
G1 X171.78 Y39.975
G0 F3600 X171.702 Y39.332
G1 F1800 X163.336 Y30.965 E0.59711
G1 X163.266 Y30.895
G0 F3600 X163.613 Y30.677
G1 F1800 X171.694 Y38.757 E0.57669
G1 X171.764 Y38.827
G0 F3600 X171.686 Y38.184
G1 F1800 X163.892 Y30.39 E0.55625
G1 X163.822 Y30.32
G0 F3600 X164.164 Y30.097
G1 F1800 X171.677 Y37.61 E0.53619
G1 X171.747 Y37.68
G0 F3600 X171.669 Y37.036
G1 F1800 X164.428 Y29.795 E0.51678
G1 X164.358 Y29.725
G0 F3600 X164.692 Y29.493
G1 F1800 X171.661 Y36.462 E0.49737
G1 X171.731 Y36.532
G0 F3600 X171.653 Y35.889
G1 F1800 X164.955 Y29.19 E0.47806
G1 X164.885 Y29.12
G0 F3600 X165.21 Y28.88
G1 F1800 X171.645 Y35.315 E0.45926
G1 X171.715 Y35.385
G0 F3600 X171.637 Y34.741
G1 F1800 X165.459 Y28.563 E0.44092
G1 X165.389 Y28.493
G0 F3600 X165.708 Y28.246
G1 F1800 X171.628 Y34.167 E0.42254
G1 X171.698 Y34.237
G0 F3600 X171.621 Y33.593
G1 F1800 X165.956 Y27.929 E0.40427
G1 X165.886 Y27.859
G0 F3600 X166.193 Y27.6
G1 F1800 X171.612 Y33.019 E0.38675
G1 X171.682 Y33.089
G0 F3600 X171.604 Y32.446
G1 F1800 X166.426 Y27.268 E0.36955
G1 X166.356 Y27.198
G0 F3600 X166.807 Y27.083
G1 F1800 X171.596 Y31.872 E0.34178
G1 X171.666 Y31.942
G0 F3600 X171.588 Y31.298
G1 F1800 X167.373 Y27.083 E0.30082
G1 X167.303 Y27.013
G0 F3600 X167.939 Y27.083
G1 F1800 X171.58 Y30.724 E0.25985
G1 X171.65 Y30.794
