;FLAVOR:RepRap
;TIME:3353
;Filament used: 3.23071m
;Layer height: 0.15
;Generated with Cura_SteamEngine 3.1.0
T0
M190 S70
M104 S200
M109 S200
M82 ; absolute extrusion mode
;Sliced at: Thu 15-02-2018 20:26:42
G21 ;metric values
G90 ;absolute positioning
M82 ;set extruder to absolute mode
M107 ;start with the fan off
G28 X0 Y0 ;move X/Y to min endstops
G28 Z0 ;move Z to min endstops
G1 Z15.0 F{travel_speed} ;move the platform down 15mm
G92 E0 ;zero the extruded length
G1 F140 E30 ;extrude 3mm of feed stock
G1 X20 Y0 F140 E30
G92 E0 ;zero the extruded length again
G1 F{travel_speed}
M117 Printing...
M83 ; relative extrusion mode
;LAYER_COUNT:33
;LAYER:-7
M107
G0 F3600 X62.39 Y78.047 Z0.2
G1 F1350 X62.907 Y77.669 E0.0426
G1 X63.179 Y77.485 E0.02184
G1 X63.499 Y77.286 E0.02507
G1 X63.721 Y77.158 E0.01705
G1 X64.31 Y76.848 E0.04428
G1 X64.966 Y76.556 E0.04777
G1 X65.358 Y76.407 E0.0279
G1 X65.613 Y76.319 E0.01794
G1 X66.26 Y76.125 E0.04493
G1 X66.795 Y75.999 E0.03656
G1 X67.161 Y75.929 E0.02479
G1 X67.539 Y75.87 E0.02545
G1 X67.881 Y75.828 E0.02292
G1 X68.146 Y75.803 E0.01771
G1 X68.504 Y75.781 E0.02386
G1 X68.765 Y75.773 E0.01737
G1 X130.949 Y75.768 E4.1365
G1 X131.726 Y75.797 E0.05172
G1 X132.1 Y75.827 E0.02496
G1 X132.562 Y75.885 E0.03097
G1 X133.076 Y75.973 E0.03469
G1 X133.413 Y76.044 E0.02291
G1 X133.829 Y76.149 E0.02854
G1 X134.384 Y76.318 E0.03859
G1 X135.024 Y76.552 E0.04533
G1 X135.599 Y76.806 E0.04181
G1 X135.93 Y76.969 E0.02454
G1 X136.279 Y77.157 E0.02637
G1 X136.821 Y77.485 E0.04214
G1 X137.38 Y77.873 E0.04526
G1 X137.85 Y78.241 E0.03971
G1 X138.315 Y78.649 E0.04115
G1 X138.555 Y78.878 E0.02207
G1 X138.84 Y79.172 E0.02724
G1 X139.059 Y79.416 E0.02181
G1 X139.302 Y79.702 E0.02496
G1 X139.653 Y80.154 E0.03807
G1 X139.834 Y80.409 E0.0208
G1 X140.05 Y80.734 E0.02596
G1 X140.202 Y80.978 E0.01912
G1 X140.521 Y81.551 E0.04362
G1 X140.809 Y82.146 E0.04397
G1 X140.951 Y82.482 E0.02426
G1 X141.08 Y82.822 E0.02419
G1 X141.273 Y83.399 E0.04047
G1 X141.384 Y83.794 E0.02729
G1 X141.449 Y84.058 E0.01809
G1 X141.531 Y84.438 E0.02586
G1 X141.623 Y84.987 E0.03703
G1 X141.693 Y85.62 E0.04236
G1 X141.719 Y86.047 E0.02846
G1 X141.729 Y86.384 E0.02243
G1 X141.727 Y86.708 E0.02155
G1 X141.701 Y87.278 E0.03796
G1 X141.666 Y87.67 E0.02618
G1 X141.586 Y88.248 E0.03882
G1 X141.531 Y88.56 E0.02107
G1 X141.432 Y89.016 E0.03104
G1 X141.258 Y89.649 E0.04367
G1 X141.169 Y89.926 E0.01935
G1 X140.973 Y90.463 E0.03803
G1 X140.819 Y90.83 E0.02648
G1 X140.7 Y91.089 E0.01896
G1 X140.409 Y91.658 E0.04251
G1 X140.209 Y92.01 E0.02693
G1 X140.05 Y92.266 E0.02005
G1 X139.835 Y92.589 E0.02581
G1 X139.47 Y93.089 E0.04118
G1 X139.062 Y93.581 E0.04252
G1 X138.831 Y93.838 E0.02299
G1 X138.361 Y94.31 E0.04431
G1 X138.152 Y94.502 E0.01888
G1 X106.938 Y121.685 E2.75335
G1 X106.552 Y121.997 E0.03302
G1 X106.093 Y122.332 E0.0378
G1 X105.796 Y122.531 E0.02378
G1 X105.493 Y122.719 E0.02372
G1 X105.279 Y122.843 E0.01645
G1 X104.616 Y123.187 E0.04969
G1 X104.067 Y123.43 E0.03994
G1 X103.463 Y123.656 E0.0429
G1 X103.213 Y123.737 E0.01748
G1 X102.74 Y123.875 E0.03278
G1 X102.205 Y124.001 E0.03656
G1 X101.839 Y124.071 E0.02479
G1 X101.461 Y124.13 E0.02545
G1 X101.119 Y124.172 E0.02292
G1 X100.854 Y124.197 E0.01771
G1 X100.496 Y124.219 E0.02386
G1 X99.885 Y124.229 E0.04065
G1 X99.545 Y124.221 E0.02262
G1 X98.881 Y124.173 E0.04428
G1 X98.438 Y124.115 E0.02972
G1 X97.923 Y124.027 E0.03475
G1 X97.587 Y123.956 E0.02284
G1 X97.171 Y123.851 E0.02854
G1 X96.613 Y123.681 E0.0388
G1 X96.358 Y123.593 E0.01794
G1 X95.966 Y123.444 E0.0279
G1 X95.384 Y123.186 E0.04235
G1 X95.07 Y123.031 E0.02329
G1 X94.721 Y122.843 E0.02637
G1 X94.179 Y122.515 E0.04214
G1 X93.614 Y122.123 E0.04574
G1 X93.366 Y121.934 E0.02074
G1 X93.055 Y121.681 E0.02667
G1 X61.817 Y94.472 E2.75569
G1 X61.389 Y94.061 E0.03947
G1 X61.12 Y93.783 E0.02573
G1 X60.948 Y93.592 E0.0171
G1 X60.53 Y93.089 E0.04351
G1 X60.164 Y92.589 E0.04122
G1 X59.978 Y92.311 E0.02225
G1 X59.791 Y92.01 E0.02357
G1 X59.479 Y91.449 E0.0427
G1 X59.188 Y90.848 E0.04442
G1 X59.027 Y90.463 E0.02776
G1 X58.831 Y89.926 E0.03803
G1 X58.742 Y89.649 E0.01935
G1 X58.638 Y89.289 E0.02493
G1 X58.55 Y88.942 E0.02381
G1 X58.469 Y88.56 E0.02598
G1 X58.413 Y88.249 E0.02102
G1 X58.334 Y87.67 E0.03887
G1 X58.299 Y87.278 E0.02618
G1 X58.273 Y86.708 E0.03796
G1 X58.271 Y86.392 E0.02102
G1 X58.287 Y85.899 E0.03281
G1 X58.334 Y85.33 E0.03798
G1 X58.412 Y84.759 E0.03834
G1 X58.469 Y84.44 E0.02156
G1 X58.615 Y83.798 E0.0438
G1 X58.724 Y83.409 E0.02687
G1 X58.92 Y82.822 E0.04117
G1 X59.044 Y82.494 E0.02333
G1 X59.186 Y82.157 E0.02433
G1 X59.335 Y81.84 E0.0233
G1 X59.628 Y81.274 E0.0424
G1 X59.791 Y80.99 E0.02178
G1 X59.99 Y80.673 E0.0249
G1 X60.309 Y80.206 E0.03762
G1 X60.588 Y79.839 E0.03067
G1 X60.996 Y79.353 E0.04221
G1 X61.169 Y79.162 E0.01714
G1 X61.435 Y78.887 E0.02545
G1 X61.681 Y78.653 E0.02258
G1 X62.15 Y78.241 E0.04153
G1 X62.39 Y78.047 E0.02053
G0 F3600 X63 Y77.606
G1 F1350 X63 Y95.502 E1.19045
G0 F3600 X66 Y98.115
G1 F1350 X66 Y76.202 E1.45766
G0 F3600 X69 Y75.772
G1 F1350 X69 Y100.728 E1.66008
G0 F3600 X72 Y103.341
G1 F1350 X72 Y75.772 E1.8339
G0 F3600 X75 Y75.772
G1 F1350 X75 Y105.954 E2.00771
G0 F3600 X78 Y108.567
G1 F1350 X78 Y75.772 E2.18153
G0 F3600 X81 Y75.772
G1 F1350 X81 Y111.18 E2.35535
G0 F3600 X84 Y113.793
G1 F1350 X84 Y75.771 E2.52923
G0 F3600 X87 Y75.771
G1 F1350 X87 Y116.406 E2.70305
G0 F3600 X90 Y119.02
G1 F1350 X90 Y75.771 E2.87694
G0 F3600 X93 Y75.771
G1 F1350 X93 Y121.633 E3.05075
G0 F3600 X96 Y123.456
G1 F1350 X96 Y75.77 E3.17209
G0 F3600 X99 Y75.77
G1 F1350 X99 Y124.181 E3.22031
G0 F3600 X102 Y124.041
G1 F1350 X102 Y75.77 E3.211
G0 F3600 X105 Y75.77
G1 F1350 X105 Y122.988 E3.14095
G0 F3600 X108 Y120.761
G1 F1350 X108 Y75.769 E2.99288
G0 F3600 X111 Y75.769
G1 F1350 X111 Y118.148 E2.81906
G0 F3600 X114 Y115.535
G1 F1350 X114 Y75.769 E2.64525
G0 F3600 X117 Y75.769
G1 F1350 X117 Y112.923 E2.47149
G0 F3600 X120 Y110.31
G1 F1350 X120 Y75.768 E2.29774
G0 F3600 X123 Y75.768
G1 F1350 X123 Y107.698 E2.12399
G0 F3600 X126 Y105.085
G1 F1350 X126 Y75.768 E1.95017
G0 F3600 X129 Y75.768
G1 F1350 X129 Y102.473 E1.77642
G0 F3600 X132 Y99.86
G1 F1350 X132 Y75.819 E1.59921
G0 F3600 X135 Y76.544
G1 F1350 X135 Y97.247 E1.37717
G0 F3600 X138 Y94.635
G1 F1350 X138 Y78.373 E1.08175
G0 F3600 X141 Y82.612
G1 F1350 X141 Y90.39 E0.51739
G0 F3600 X60 Y92.343
G1 F1350 X60 Y80.658 E0.77729
G0 F3600 X61.992 Y78.114
;TIME_ELAPSED:55.103033
;LAYER:-6
M140 S70
G0 X61.992 Y78.114 Z0.47
;TYPE:SUPPORT
G1 F1350 X61.548 Y78.502 E0.02648
G1 X61.54 Y78.51 E0.00051
G1 X105.795 Y122.765 E2.81019
G1 X105.58 Y122.899 E0.01138
G1 X105.3 Y123.059 E0.01448
G1 X105.26 Y123.079 E0.00201
G1 X61.112 Y78.931 E2.80339
G1 X61.016 Y79.031 E0.00622
G1 X60.85 Y79.215 E0.01113
G1 X60.712 Y79.379 E0.00962
G1 X104.699 Y123.366 E2.79317
G1 X104.469 Y123.473 E0.01139
G1 X104.143 Y123.614 E0.01595
G1 X104.11 Y123.626 E0.00158
G1 X60.33 Y79.846 E2.78002
G1 X60.148 Y80.086 E0.01352
G1 X59.975 Y80.34 E0.0138
G1 X103.49 Y123.855 E2.7632
G1 X102.887 Y124.041 E0.02833
G1 X102.84 Y124.053 E0.00218
G1 X59.639 Y80.852 E2.74326
G1 X59.621 Y80.883 E0.00161
G1 X59.412 Y81.249 E0.01892
G1 X59.336 Y81.397 E0.00747
G1 X102.152 Y124.214 E2.71884
G1 X101.867 Y124.269 E0.01303
G1 X101.491 Y124.327 E0.01708
G1 X101.425 Y124.335 E0.00299
G1 X59.054 Y81.964 E2.69055
G1 X59.004 Y82.073 E0.00538
G1 X58.84 Y82.466 E0.01912
G1 X58.803 Y82.562 E0.00462
G1 X100.648 Y124.406 E2.65712
G1 X100.24 Y124.426 E0.01834
G1 X99.881 Y124.428 E0.01612
G1 X99.818 Y124.426 E0.00283
G1 X58.583 Y83.19 E2.61845
G1 X58.554 Y83.278 E0.00416
G1 X58.42 Y83.746 E0.02186
G1 X58.396 Y83.852 E0.00488
G1 X98.919 Y124.375 E2.5732
G1 X98.802 Y124.364 E0.00528
G1 X98.236 Y124.285 E0.02566
G1 X97.918 Y124.223 E0.01455
G1 X58.247 Y84.551 E2.51913
G1 X58.165 Y85.052 E0.02279
G1 X58.141 Y85.294 E0.01092
G1 X96.788 Y123.941 E2.45408
G1 X96.479 Y123.846 E0.01452
G1 X95.893 Y123.629 E0.02806
G1 X95.668 Y123.534 E0.01097
G1 X95.41 Y123.412 E0.01281
G1 X58.081 Y86.083 E2.37039
G1 X58.073 Y86.285 E0.00908
G1 X58.071 Y86.615 E0.01482
G1 X58.079 Y86.929 E0.0141
G1 X93.238 Y122.088 E2.23259
G1 X92.926 Y121.834 E0.01806
G1 X86.803 Y116.501 E0.36459
G1 X58.156 Y87.855 E1.81905
G1 X58.18 Y88.036 E0.0082
G1 X58.271 Y88.598 E0.02556
G1 X58.337 Y88.884 E0.01318
G1 X80.231 Y110.778 E1.39027
G1 X73.659 Y105.054 E0.39132
G1 X58.67 Y90.065 E0.9518
G1 X58.859 Y90.583 E0.02476
G1 X59.005 Y90.925 E0.0167
G1 X59.121 Y91.18 E0.01258
G1 X59.316 Y91.56 E0.01918
G1 X67.086 Y99.33 E0.49339
G1 X61.84 Y94.762 E0.31234
G1 X61.482 Y94.433 E0.02183
G1 X61.248 Y94.203 E0.01473
G1 X60.844 Y93.777 E0.02636
G1 X60.422 Y93.273 E0.02952
G1 X60.188 Y92.965 E0.01737
G1 X59.995 Y92.696 E0.01487
G1 X59.78 Y92.37 E0.01753
G1 X59.621 Y92.114 E0.01353
G1 X59.413 Y91.749 E0.01886
G0 F3600 X61.992 Y78.114
G1 F1350 X106.302 Y122.424 E2.81368
G1 X106.529 Y122.263 E0.0125
G1 X106.786 Y122.06 E0.01471
G1 X62.467 Y77.74 E2.81428
G1 X62.792 Y77.503 E0.01806
G1 X62.964 Y77.389 E0.00927
G1 X107.249 Y121.674 E2.81209
G1 X107.703 Y121.28 E0.02699
G1 X63.488 Y77.064 E2.80768
G1 X63.619 Y76.984 E0.00689
G1 X64.031 Y76.763 E0.02099
G0 F3600 X64.034 Y76.762
G1 F1350 X108.156 Y120.884 E2.80174
G1 X108.61 Y120.49 E0.02699
G1 X64.613 Y76.492 E2.79384
G1 X64.894 Y76.368 E0.01379
G1 X65.216 Y76.247 E0.01545
G1 X109.064 Y120.095 E2.78434
G1 X109.518 Y119.7 E0.02702
G1 X65.852 Y76.034 E2.77278
G1 X65.917 Y76.013 E0.00307
G1 X66.211 Y75.931 E0.0137
G1 X66.525 Y75.859 E0.01446
G1 X109.971 Y119.305 E2.75881
G1 X110.424 Y118.909 E0.02702
G1 X67.228 Y75.714 E2.74291
G1 X67.802 Y75.634 E0.02602
G1 X67.981 Y75.617 E0.00807
G1 X110.878 Y118.515 E2.72399
G1 X111.331 Y118.12 E0.02699
G1 X68.784 Y75.572 E2.70176
G1 X68.882 Y75.569 E0.0044
G1 X69.63 Y75.569 E0.03359
G1 X111.785 Y117.725 E2.67687
G1 X112.239 Y117.33 E0.02702
G1 X70.478 Y75.569 E2.65182
G1 X71.327 Y75.569 E0.03812
G1 X112.693 Y116.935 E2.62674
G1 X113.146 Y116.54 E0.02699
G1 X72.175 Y75.569 E2.60165
G1 X73.024 Y75.569 E0.03812
G1 X113.6 Y116.145 E2.57657
G1 X114.053 Y115.75 E0.02699
G1 X73.872 Y75.569 E2.55149
G1 X74.721 Y75.569 E0.03812
G1 X114.507 Y115.355 E2.52641
G1 X114.96 Y114.96 E0.02699
G1 X75.569 Y75.569 E2.50132
G1 X76.418 Y75.569 E0.03812
G1 X115.414 Y114.566 E2.47627
G1 X115.867 Y114.17 E0.02702
G1 X77.266 Y75.569 E2.45116
G1 X78.115 Y75.569 E0.03812
G1 X116.321 Y113.776 E2.42611
G1 X116.775 Y113.381 E0.02702
G1 X78.964 Y75.569 E2.40102
G1 X79.812 Y75.569 E0.03808
G1 X117.229 Y112.986 E2.37597
G1 X117.682 Y112.591 E0.02699
G1 X80.661 Y75.569 E2.35086
G1 X81.509 Y75.569 E0.03808
G1 X118.136 Y112.196 E2.32581
G1 X118.589 Y111.801 E0.02699
G1 X82.358 Y75.569 E2.3007
G1 X83.206 Y75.569 E0.03808
G1 X119.043 Y111.406 E2.27564
G1 X119.496 Y111.011 E0.02699
G1 X84.055 Y75.569 E2.25053
G1 X84.903 Y75.569 E0.03808
G1 X119.95 Y110.616 E2.22548
G1 X120.404 Y110.221 E0.02702
G1 X85.752 Y75.569 E2.2004
G1 X86.6 Y75.569 E0.03808
G1 X120.857 Y109.826 E2.17531
G1 X121.311 Y109.431 E0.02702
G1 X87.449 Y75.569 E2.15023
G1 X88.297 Y75.569 E0.03808
G1 X121.764 Y109.036 E2.12515
G1 X122.218 Y108.642 E0.02699
G1 X89.146 Y75.569 E2.1001
G1 X89.994 Y75.569 E0.03808
G1 X122.671 Y108.246 E2.07498
G1 X123.125 Y107.852 E0.02699
G1 X90.843 Y75.569 E2.04993
G1 X91.691 Y75.569 E0.03808
G1 X123.578 Y107.456 E2.02482
G1 X124.032 Y107.062 E0.02699
G1 X92.54 Y75.569 E1.99977
G1 X93.389 Y75.569 E0.03812
G1 X124.486 Y106.667 E1.97469
G1 X124.94 Y106.272 E0.02702
G1 X94.237 Y75.569 E1.94964
G1 X95.086 Y75.569 E0.03812
G1 X125.393 Y105.877 E1.92452
G1 X125.847 Y105.482 E0.02702
G1 X95.934 Y75.569 E1.89947
G1 X96.783 Y75.569 E0.03812
G1 X126.3 Y105.087 E1.87436
G1 X126.754 Y104.692 E0.02702
G1 X97.631 Y75.569 E1.84931
G1 X98.48 Y75.569 E0.03812
G1 X127.207 Y104.297 E1.82419
G1 X127.661 Y103.902 E0.02702
G1 X99.328 Y75.569 E1.79914
G1 X100.176 Y75.569 E0.03808
G1 X128.115 Y103.507 E1.77409
G1 X128.568 Y103.113 E0.02696
G1 X101.025 Y75.569 E1.74901
G1 X101.873 Y75.569 E0.03808
G1 X129.022 Y102.717 E1.72393
G1 X129.476 Y102.323 E0.02699
G1 X102.722 Y75.569 E1.69888
G1 X103.57 Y75.569 E0.03808
G1 X129.929 Y101.928 E1.67379
G1 X130.383 Y101.533 E0.02702
G1 X104.419 Y75.569 E1.64871
G1 X105.267 Y75.569 E0.03808
G1 X130.836 Y101.138 E1.62363
G1 X131.29 Y100.743 E0.02702
G1 X106.116 Y75.569 E1.59855
G1 X106.964 Y75.569 E0.03808
G1 X131.743 Y100.348 E1.57346
G1 X132.197 Y99.953 E0.02702
G1 X107.813 Y75.569 E1.54838
G1 X108.661 Y75.569 E0.03808
G1 X132.651 Y99.558 E1.52333
G1 X133.104 Y99.163 E0.02699
G1 X109.51 Y75.569 E1.49822
G1 X110.358 Y75.569 E0.03808
G1 X133.558 Y98.768 E1.47317
G1 X134.011 Y98.373 E0.02699
G1 X111.207 Y75.569 E1.44805
G1 X112.055 Y75.569 E0.03808
G1 X134.465 Y97.978 E1.423
G1 X134.918 Y97.583 E0.02699
G1 X112.904 Y75.569 E1.39789
G1 X113.752 Y75.569 E0.03808
G1 X135.372 Y97.188 E1.37284
G1 X135.826 Y96.793 E0.02702
G1 X114.601 Y75.569 E1.34775
G1 X115.45 Y75.569 E0.03812
G1 X136.279 Y96.399 E1.32267
G1 X136.733 Y96.003 E0.02705
G1 X116.298 Y75.569 E1.29759
G1 X117.147 Y75.569 E0.03812
G1 X137.187 Y95.609 E1.27254
G1 X137.64 Y95.214 E0.02699
G1 X117.995 Y75.569 E1.24745
G1 X118.844 Y75.569 E0.03812
G1 X138.094 Y94.819 E1.22237
G1 X138.179 Y94.745 E0.00506
G1 X138.538 Y94.415 E0.0219
G1 X119.692 Y75.569 E1.19672
G1 X120.541 Y75.569 E0.03812
G1 X138.962 Y93.99 E1.16973
G1 X138.982 Y93.968 E0.00134
G1 X139.36 Y93.539 E0.02567
G1 X121.389 Y75.569 E1.14112
G1 X122.238 Y75.569 E0.03812
G1 X139.735 Y93.066 E1.11106
G1 X139.811 Y92.965 E0.00568
G1 X140.003 Y92.696 E0.01484
G1 X140.088 Y92.57 E0.00682
G1 X123.086 Y75.569 E1.07959
G1 X123.935 Y75.569 E0.03812
G1 X140.413 Y92.046 E1.04632
G1 X140.545 Y91.825 E0.01156
G1 X140.697 Y91.543 E0.01438
G1 X140.717 Y91.503 E0.00201
G1 X124.783 Y75.569 E1.01181
G1 X125.632 Y75.569 E0.03812
G1 X140.992 Y90.929 E0.97536
G0 F3600 X140.994 Y90.925
G1 F1350 X141.139 Y90.583 E0.01668
G1 X141.235 Y90.323 E0.01244
G1 X126.48 Y75.569 E0.93691
G1 X127.329 Y75.569 E0.03812
G1 X141.449 Y89.689 E0.89662
G1 X141.554 Y89.344 E0.01619
G1 X141.634 Y89.026 E0.01472
G1 X128.177 Y75.569 E0.85452
G1 X129.026 Y75.569 E0.03812
G1 X141.774 Y88.317 E0.8095
G1 X141.863 Y87.694 E0.02826
G1 X141.875 Y87.569 E0.00564
G1 X129.875 Y75.569 E0.762
G1 X130.723 Y75.569 E0.03808
G1 X141.921 Y86.767 E0.71107
G1 X141.928 Y86.611 E0.00701
G1 X141.926 Y86.282 E0.01477
G1 X141.909 Y85.907 E0.01686
G1 X131.596 Y75.593 E0.65491
G1 X131.855 Y75.603 E0.01164
G1 X132.202 Y75.637 E0.01566
G1 X132.534 Y75.683 E0.01505
G1 X141.821 Y84.97 E0.58972
G1 X141.819 Y84.958 E0.00055
G1 X141.727 Y84.4 E0.02539
G1 X141.617 Y83.917 E0.02224
G1 X133.58 Y75.88 E0.51035
G1 X133.885 Y75.958 E0.01414
G1 X134.52 Y76.153 E0.02983
G1 X134.809 Y76.26 E0.01384
G1 X141.246 Y82.698 E0.40878
G1 X141.227 Y82.643 E0.00261
G1 X141.136 Y82.409 E0.01127
G1 X140.994 Y82.073 E0.01638
G1 X140.844 Y81.751 E0.01595
G1 X140.586 Y81.25 E0.0253
G1 X140.506 Y81.109 E0.00728
G1 X136.386 Y76.989 E0.26162
G1 X136.593 Y77.109 E0.01074
G1 X137.115 Y77.44 E0.02775
G1 X137.501 Y77.715 E0.02128
G1 X138.003 Y78.109 E0.02865
G1 X138.269 Y78.337 E0.01573
G1 X138.734 Y78.774 E0.02865
G1 X139.21 Y79.287 E0.03142
G1 X139.57 Y79.717 E0.02518
G1 X139.81 Y80.033 E0.01782
G1 X140.002 Y80.303 E0.01488
G1 X140.219 Y80.629 E0.01758
G1 X140.378 Y80.885 E0.01353
G0 F3600 X62.023 Y78.085
;TIME_ELAPSED:268.530637
;LAYER:-5
G0 X62.023 Y78.085 Z0.74
G1 F1800 X61.666 Y78.4 E0.02138
G1 X138.338 Y78.4 E3.44266
G1 X138.735 Y78.774 E0.02449
G1 X138.76 Y78.8 E0.00162
G1 X61.241 Y78.8 E3.48069
G1 X61.016 Y79.032 E0.01451
G1 X60.865 Y79.2 E0.01014
G1 X139.132 Y79.2 E3.51428
G1 X139.212 Y79.287 E0.00531
G1 X139.475 Y79.6 E0.01836
G1 X60.528 Y79.6 E3.54481
G1 X60.428 Y79.718 E0.00695
G1 X60.215 Y80 E0.01587
G1 X139.787 Y80 E3.57288
G1 X139.811 Y80.032 E0.0018
G1 X140.004 Y80.302 E0.0149
G1 X140.07 Y80.4 E0.00531
G1 X59.935 Y80.4 E3.59816
G1 X59.779 Y80.629 E0.01244
G1 X59.673 Y80.8 E0.00903
G1 X140.328 Y80.8 E3.6215
G1 X140.379 Y80.884 E0.00441
G1 X140.56 Y81.2 E0.01635
G1 X59.441 Y81.2 E3.64234
G1 X59.412 Y81.25 E0.0026
G1 X59.234 Y81.6 E0.01763
