;FLAVOR:RepRap
;TIME:2999
;Filament used: 1.61823m
;Layer height: 0.06
;Generated with Cura_SteamEngine 3.1.0
T0
M190 S70
M104 S200
M109 S200
M82 ; absolute extrusion mode
;Sliced at: Sun 11-02-2018 08:49:37
G21 ;metric values
G90 ;absolute positioning
M82 ;set extruder to absolute mode
M107 ;start with the fan off
G28 X0 Y0 ;move X/Y to min endstops
G28 Z0 ;move Z to min endstops
G1 Z15.0 F{travel_speed} ;move the platform down 15mm
G92 E0 ;zero the extruded length
G1 F140 E30 ;extrude 3mm of feed stock
G1 X20 Y0 F140 E30
G92 E0 ;zero the extruded length again
G1 F{travel_speed}
M117 Printing...
M83 ; relative extrusion mode
;LAYER_COUNT:96
;LAYER:-11
M107
G0 F3600 X61.434 Y70.238 Z0.2
G1 F1350 X61.942 Y69.81 E0.04419
G1 X62.049 Y69.728 E0.00897
G1 X62.187 Y69.64 E0.01089
G1 X62.751 Y69.313 E0.04337
G1 X62.876 Y69.249 E0.00934
G1 X63.01 Y69.193 E0.00966
G1 X63.635 Y68.967 E0.04421
G1 X63.834 Y68.906 E0.01385
G1 X63.962 Y68.878 E0.00872
G1 X64.55 Y68.774 E0.03972
G1 X64.723 Y68.75 E0.01162
G1 X65.18 Y68.727 E0.03044
G1 X69.699 Y68.727 E0.30061
G1 X70.138 Y68.745 E0.02923
G1 X70.374 Y68.772 E0.0158
G1 X70.941 Y68.87 E0.03828
G1 X71.108 Y68.906 E0.01136
G1 X71.552 Y69.047 E0.03099
G1 X71.877 Y69.181 E0.02338
G1 X72.411 Y69.453 E0.03986
G1 X72.637 Y69.59 E0.01758
G1 X73.032 Y69.87 E0.03221
G1 X73.417 Y70.207 E0.03404
G1 X73.649 Y70.445 E0.02211
G1 X73.971 Y70.83 E0.03339
G1 X74.104 Y71.003 E0.01452
G1 X74.412 Y71.487 E0.03816
G1 X74.534 Y71.713 E0.01708
G1 X74.731 Y72.145 E0.03158
G1 X74.801 Y72.332 E0.01328
G1 X74.921 Y72.703 E0.02594
G1 X74.999 Y73.009 E0.02101
G1 X75.071 Y73.403 E0.02664
G1 X75.105 Y73.649 E0.01652
G1 X75.117 Y73.786 E0.00915
G1 X75.141 Y74.308 E0.03476
G1 X75.142 Y75.646 E0.089
G1 X75.184 Y76.314 E0.04452
G1 X75.314 Y76.985 E0.04547
G1 X75.527 Y77.634 E0.04544
G1 X75.82 Y78.251 E0.04544
G1 X76.189 Y78.825 E0.04539
G1 X76.626 Y79.349 E0.04539
G1 X77.128 Y79.814 E0.04552
G1 X77.683 Y80.211 E0.04539
G1 X78.276 Y80.53 E0.04479
G1 X80.015 Y81.335 E0.12747
G1 X81.657 Y82.157 E0.12215
G1 X83.36 Y83.091 E0.1292
G1 X84.908 Y84.024 E0.12023
G1 X85.561 Y84.446 E0.05172
G1 X86.766 Y85.269 E0.09707
G1 X87.969 Y86.167 E0.09986
G1 X88.187 Y86.338 E0.01843
G1 X89.425 Y87.366 E0.10704
G1 X90.409 Y88.259 E0.08839
G1 X91.5 Y89.343 E0.10231
G1 X92.469 Y90.408 E0.09578
G1 X92.684 Y90.656 E0.02183
G1 X93.609 Y91.791 E0.0974
G1 X94.223 Y92.614 E0.0683
G1 X94.907 Y93.605 E0.0801
G1 X95.407 Y94.399 E0.06242
G1 X95.798 Y94.944 E0.04462
G1 X96.262 Y95.443 E0.04533
G1 X96.785 Y95.882 E0.04542
G1 X97.36 Y96.25 E0.04541
G1 X97.976 Y96.544 E0.0454
G1 X98.626 Y96.757 E0.0455
G1 X99.296 Y96.886 E0.04539
G1 X99.977 Y96.93 E0.04539
G1 X100.659 Y96.888 E0.04545
G1 X101.329 Y96.759 E0.04539
G1 X101.978 Y96.547 E0.04542
G1 X102.596 Y96.255 E0.04547
G1 X103.172 Y95.887 E0.04547
G1 X103.695 Y95.45 E0.04534
G1 X104.161 Y94.951 E0.04542
G1 X104.555 Y94.4 E0.04506
G1 X105.061 Y93.601 E0.06291
G1 X105.744 Y92.609 E0.08012
G1 X106.356 Y91.789 E0.06806
G1 X107.452 Y90.455 E0.11485
G1 X108.448 Y89.36 E0.09846
G1 X109.561 Y88.252 E0.10447
G1 X110.704 Y87.222 E0.10235
G1 X111.95 Y86.2 E0.1072
G1 X113.218 Y85.254 E0.10524
G1 X114.563 Y84.337 E0.10829
G1 X115.131 Y83.975 E0.0448
G1 X116.458 Y83.173 E0.10314
G1 X118.284 Y82.167 E0.13868
G1 X120.065 Y81.275 E0.1325
G1 X121.689 Y80.528 E0.11891
G1 X122.279 Y80.21 E0.04458
G1 X122.834 Y79.813 E0.04539
G1 X123.335 Y79.349 E0.04542
G1 X123.774 Y78.825 E0.04547
G1 X124.142 Y78.252 E0.0453
G1 X124.436 Y77.635 E0.04546
G1 X124.65 Y76.986 E0.04546
G1 X124.78 Y76.316 E0.0454
G1 X124.823 Y75.643 E0.04486
G1 X124.829 Y74.151 E0.09925
G1 X124.865 Y73.616 E0.03567
G1 X124.898 Y73.383 E0.01565
G1 X124.963 Y73.028 E0.02401
G1 X125.036 Y72.729 E0.02047
G1 X125.19 Y72.257 E0.03303
G1 X125.404 Y71.764 E0.03575
G1 X125.528 Y71.527 E0.01779
G1 X125.736 Y71.182 E0.0268
G1 X125.868 Y70.986 E0.01572
G1 X126.165 Y70.606 E0.03208
G1 X126.385 Y70.367 E0.02161
G1 X126.799 Y69.982 E0.03761
G1 X126.967 Y69.839 E0.01468
G1 X127.308 Y69.596 E0.02785
G1 X127.5 Y69.474 E0.01513
G1 X127.851 Y69.278 E0.02674
G1 X128.105 Y69.156 E0.01874
G1 X128.391 Y69.038 E0.02058
G1 X128.885 Y68.888 E0.03434
G1 X129.107 Y68.838 E0.01514
G1 X129.748 Y68.738 E0.04316
G1 X130.178 Y68.715 E0.02864
G1 X134.669 Y68.71 E0.29874
G1 X135.28 Y68.738 E0.04069
G1 X136.001 Y68.861 E0.04865
G1 X136.261 Y68.923 E0.01778
G1 X136.668 Y69.056 E0.02848
G1 X137.006 Y69.19 E0.02419
G1 X137.273 Y69.324 E0.01987
G1 X137.911 Y69.701 E0.0493
G1 X138.051 Y69.808 E0.01172
G1 X138.569 Y70.244 E0.04504
G1 X138.676 Y70.342 E0.00965
G1 X138.806 Y70.486 E0.0129
G1 X139.171 Y70.921 E0.03777
G1 X139.277 Y71.058 E0.01152
G1 X139.372 Y71.207 E0.01175
G1 X139.678 Y71.735 E0.04059
G1 X139.761 Y71.893 E0.01187
G1 X139.815 Y72.02 E0.00918
G1 X140.043 Y72.643 E0.04413
G1 X140.091 Y72.794 E0.01054
G1 X140.126 Y72.949 E0.01057
G1 X140.241 Y73.619 E0.04522
G1 X140.271 Y73.857 E0.01596
G1 X140.286 Y74.293 E0.02902
G1 X140.284 Y83.82 E0.63374
G1 X140.255 Y84.325 E0.03365
G1 X140.169 Y84.84 E0.03473
G1 X140.082 Y85.192 E0.02412
G1 X139.959 Y85.576 E0.02682
G1 X139.857 Y85.839 E0.01876
G1 X139.69 Y86.198 E0.02634
G1 X139.419 Y86.656 E0.0354
G1 X139.213 Y86.95 E0.02388
G1 X138.955 Y87.266 E0.02714
G1 X138.726 Y87.515 E0.0225
G1 X138.499 Y87.735 E0.02103
G1 X138.253 Y87.943 E0.02143
G1 X137.981 Y88.145 E0.02254
G1 X137.742 Y88.302 E0.01902
G1 X137.312 Y88.547 E0.03292
G1 X137.031 Y88.682 E0.02074
G1 X136.516 Y88.882 E0.03675
G1 X136.32 Y88.939 E0.01358
G1 X135.961 Y89.031 E0.02465
G1 X135.728 Y89.079 E0.01582
G1 X135.38 Y89.128 E0.02338
G1 X134.837 Y89.164 E0.0362
G1 X134.667 Y89.169 E0.01131
G1 X132.416 Y89.168 E0.14974
G1 X131.748 Y89.21 E0.04452
G1 X131.075 Y89.339 E0.04558
G1 X130.927 Y89.389 E0.01039
G1 X130.919 Y89.368 E0.00149
G1 X129.121 Y90.036 E0.12759
G1 X127.732 Y90.589 E0.09945
G1 X126.395 Y91.159 E0.09668
G1 X125.114 Y91.747 E0.09376
G1 X123.916 Y92.344 E0.08904
G1 X122.718 Y92.989 E0.09051
G1 X121.655 Y93.613 E0.08199
G1 X120.496 Y94.359 E0.09169
G1 X119.643 Y94.961 E0.06945
G1 X118.895 Y95.533 E0.06264
G1 X118.116 Y96.185 E0.06757
G1 X117.411 Y96.835 E0.06379
G1 X116.764 Y97.489 E0.0612
G1 X116.152 Y98.171 E0.06095
G1 X115.558 Y98.901 E0.0626
G1 X115.288 Y99.263 E0.03004
G1 X114.838 Y99.907 E0.05226
G1 X114.692 Y100.128 E0.01762
G1 X114.123 Y101.049 E0.07201
G1 X113.63 Y101.941 E0.0678
G1 X113.118 Y102.968 E0.07634
G1 X112.659 Y104.001 E0.07519
G1 X112.266 Y104.994 E0.07104
G1 X111.975 Y105.824 E0.05851
G1 X111.708 Y106.692 E0.06041
G1 X111.494 Y107.51 E0.05624
G1 X111.37 Y108.063 E0.0377
G1 X111.234 Y108.824 E0.05142
G1 X111.196 Y109.081 E0.01728
G1 X111.139 Y109.546 E0.03116
G1 X111.097 Y110.073 E0.03517
G1 X111.08 Y110.637 E0.03753
G1 X111.095 Y111.206 E0.03786
G1 X111.136 Y111.704 E0.03324
G1 X111.206 Y112.188 E0.03253
G1 X111.329 Y112.752 E0.0384
G1 X111.45 Y113.172 E0.02907
G1 X111.652 Y113.734 E0.03973
G1 X111.883 Y114.267 E0.03864
G1 X112.146 Y114.782 E0.03847
G1 X112.292 Y115.04 E0.01972
G1 X112.462 Y115.318 E0.02168
G1 X112.812 Y115.838 E0.0417
G1 X113.006 Y116.101 E0.02174
G1 X113.193 Y116.339 E0.02013
G1 X113.623 Y116.841 E0.04397
G1 X113.859 Y117.092 E0.02292
G1 X114.08 Y117.314 E0.02084
G1 X114.537 Y117.732 E0.0412
G1 X114.866 Y118.005 E0.02844
G1 X115.321 Y118.349 E0.03794
G1 X115.802 Y118.665 E0.03828
G1 X116.294 Y118.948 E0.03776
G1 X116.779 Y119.186 E0.03594
G1 X117.091 Y119.318 E0.02254
G1 X117.632 Y119.516 E0.03832
G1 X118.199 Y119.684 E0.03934
G1 X118.556 Y119.773 E0.02447
G1 X118.862 Y119.839 E0.02082
G1 X119.305 Y119.921 E0.02997
G1 X119.622 Y119.97 E0.02134
G1 X120.148 Y120.035 E0.03526
G1 X120.427 Y120.062 E0.01865
G1 X120.999 Y120.1 E0.03813
G1 X121.272 Y120.111 E0.01817
G1 X122.143 Y120.121 E0.05794
G1 X122.769 Y120.101 E0.04166
G1 X123.8 Y120.031 E0.06874
G1 X124.811 Y119.918 E0.06767
G1 X125.772 Y119.771 E0.06467
G1 X126.741 Y119.578 E0.06572
G1 X127.617 Y119.359 E0.06007
G1 X128.516 Y119.09 E0.06242
G1 X129.428 Y118.77 E0.06429
G1 X129.941 Y118.564 E0.03677
G1 X130.79 Y118.179 E0.06201
G1 X131.333 Y117.905 E0.04046
G1 X131.569 Y117.778 E0.01783
G1 X132.104 Y117.472 E0.041
G1 X132.875 Y116.985 E0.06066
G1 X133.323 Y116.675 E0.03624
G1 X134.324 Y115.917 E0.08352
G1 X136.468 Y114.217 E0.18201
G1 X137.543 Y113.422 E0.08894
G1 X138.2 Y112.972 E0.05297
G1 X139.065 Y112.43 E0.0679
G1 X139.858 Y111.99 E0.06033
G1 X140.262 Y111.787 E0.03008
G1 X140.862 Y111.514 E0.04385
G1 X141.197 Y111.374 E0.02415
G1 X141.769 Y111.161 E0.0406
G1 X142.051 Y111.067 E0.01977
G1 X142.694 Y110.878 E0.04458
G1 X143.078 Y110.783 E0.02631
G1 X143.565 Y110.68 E0.03311
G1 X144.063 Y110.596 E0.0336
G1 X144.679 Y110.521 E0.04128
G1 X145.133 Y110.488 E0.03028
G1 X145.518 Y110.474 E0.02563
G1 X146.029 Y110.475 E0.03399
G1 X146.567 Y110.502 E0.03583
G1 X147.153 Y110.562 E0.03918
G1 X147.762 Y110.653 E0.04096
G1 X148.192 Y110.739 E0.02917
G1 X148.796 Y110.886 E0.04135
G1 X149.097 Y110.973 E0.02084
G1 X149.668 Y111.16 E0.03997
G1 X150.055 Y111.308 E0.02756
G1 X150.725 Y111.595 E0.04849
G1 X151.117 Y111.786 E0.02901
G1 X151.755 Y112.126 E0.04809
G1 X152.045 Y112.296 E0.02236
G1 X152.696 Y112.713 E0.05143
G1 X152.954 Y112.891 E0.02085
G1 X153.681 Y113.433 E0.06032
G1 X153.967 Y113.661 E0.02433
G1 X154.211 Y113.874 E0.02155
G1 X154.446 Y114.103 E0.02183
G1 X154.834 Y114.534 E0.03858
G1 X154.96 Y114.688 E0.01324
G1 X155.059 Y114.832 E0.01162
G1 X155.398 Y115.371 E0.04236
G1 X155.485 Y115.524 E0.01171
G1 X155.574 Y115.715 E0.01402
G1 X155.795 Y116.251 E0.03857
G1 X155.857 Y116.421 E0.01204
G1 X155.907 Y116.604 E0.01262
G1 X156.047 Y117.219 E0.04196
G1 X156.078 Y117.387 E0.01136
G1 X156.095 Y117.562 E0.0117
G1 X156.127 Y118.166 E0.04023
G1 X156.13 Y118.349 E0.01217
G1 X156.118 Y118.526 E0.0118
G1 X156.056 Y119.093 E0.03794
G1 X156.027 Y119.287 E0.01305
G1 X155.986 Y119.462 E0.01196
G1 X155.812 Y120.074 E0.04232
G1 X155.75 Y120.26 E0.01304
G1 X155.679 Y120.427 E0.01207
G1 X155.426 Y120.958 E0.03913
G1 X155.348 Y121.107 E0.01119
G1 X155.246 Y121.266 E0.01257
G1 X154.916 Y121.739 E0.03836
G1 X154.791 Y121.902 E0.01366
G1 X154.676 Y122.031 E0.0115
G1 X154.237 Y122.477 E0.04163
G1 X154.084 Y122.619 E0.01389
G1 X153.94 Y122.732 E0.01218
G1 X153.457 Y123.077 E0.03948
G1 X153.302 Y123.178 E0.01231
G1 X153.125 Y123.274 E0.01339
G1 X152.595 Y123.532 E0.03921
G1 X152.407 Y123.614 E0.01364
G1 X152.262 Y123.663 E0.01018
G1 X151.684 Y123.834 E0.0401
G1 X151.522 Y123.875 E0.01112
G1 X151.336 Y123.907 E0.01255
G1 X150.736 Y123.981 E0.04021
G1 X150.542 Y123.997 E0.01295
G1 X150.371 Y123.996 E0.01138
G1 X149.578 Y123.954 E0.05282
G1 X149.393 Y123.922 E0.01249
G1 X148.783 Y123.79 E0.04152
G1 X148.602 Y123.743 E0.01244
G1 X147.857 Y123.454 E0.05316
G1 X147.219 Y123.248 E0.0446
G1 X146.549 Y123.12 E0.04537
G1 X145.867 Y123.079 E0.04545
G1 X145.185 Y123.125 E0.04547
G1 X144.516 Y123.255 E0.04533
G1 X143.867 Y123.469 E0.04546
G1 X143.248 Y123.764 E0.04561
G1 X142.541 Y124.236 E0.05655
G1 X141.167 Y125.322 E0.1165
G1 X140.027 Y126.175 E0.09471
G1 X139.027 Y126.86 E0.08063
G1 X138.621 Y127.115 E0.03189
G1 X137.758 Y127.64 E0.0672
G1 X137.564 Y127.751 E0.01487
G1 X136.299 Y128.428 E0.09544
G1 X135.241 Y128.937 E0.0781
G1 X135.026 Y129.034 E0.01569
G1 X133.778 Y129.557 E0.09001
G1 X133.383 Y129.708 E0.02813
G1 X132.187 Y130.125 E0.08426
G1 X131.919 Y130.213 E0.01876
G1 X130.436 Y130.644 E0.10273
G1 X129.164 Y130.952 E0.08706
G1 X127.665 Y131.25 E0.10167
G1 X126.177 Y131.476 E0.10012
G1 X125.918 Y131.509 E0.01737
G1 X124.632 Y131.64 E0.08599
G1 X123.193 Y131.728 E0.0959
G1 X122.81 Y131.738 E0.02549
G1 X121.699 Y131.75 E0.07391
G1 X120.367 Y131.712 E0.08864
G1 X119.309 Y131.638 E0.07055
G1 X118.002 Y131.488 E0.08751
G1 X116.823 Y131.293 E0.07949
G1 X116.526 Y131.235 E0.02013
G1 X115.361 Y130.967 E0.07952
G1 X115.056 Y130.886 E0.02099
G1 X113.91 Y130.533 E0.07977
G1 X113.599 Y130.428 E0.02184
G1 X112.698 Y130.087 E0.06408
G1 X112.411 Y129.967 E0.02069
G1 X111.511 Y129.561 E0.06568
G1 X111.268 Y129.441 E0.01803
G1 X110.387 Y128.973 E0.06636
G1 X110.131 Y128.826 E0.01964
G1 X109.149 Y128.218 E0.07683
G1 X108.481 Y127.758 E0.05395
G1 X107.691 Y127.162 E0.06583
G1 X107.487 Y126.999 E0.01737
G1 X106.651 Y126.288 E0.073
G1 X106.462 Y126.117 E0.01695
G1 X105.702 Y125.388 E0.07005
G1 X105.527 Y125.21 E0.0166
G1 X104.848 Y124.478 E0.06642
G1 X104.625 Y124.225 E0.02243
G1 X104.139 Y123.637 E0.05074
G1 X103.682 Y123.148 E0.04452
G1 X103.155 Y122.713 E0.04546
G1 X102.579 Y122.348 E0.04536
G1 X101.961 Y122.058 E0.04541
G1 X101.311 Y121.849 E0.04542
G1 X100.64 Y121.722 E0.04543
G1 X99.958 Y121.682 E0.04544
G1 X99.277 Y121.729 E0.04541
G1 X98.607 Y121.86 E0.04541
G1 X97.959 Y122.075 E0.04542
G1 X97.343 Y122.371 E0.04546
G1 X96.77 Y122.742 E0.04541
G1 X96.249 Y123.181 E0.04532
G1 X95.827 Y123.634 E0.04118
G1 X95.339 Y124.226 E0.05103
G1 X94.476 Y125.168 E0.08498
G1 X94.286 Y125.363 E0.01811
G1 X93.543 Y126.077 E0.06855
G1 X93.323 Y126.278 E0.01982
G1 X92.557 Y126.932 E0.067
G1 X92.319 Y127.124 E0.02034
G1 X91.317 Y127.874 E0.08326
G1 X90.638 Y128.331 E0.05444
G1 X89.735 Y128.88 E0.0703
G1 X89.514 Y129.006 E0.01692
G1 X88.728 Y129.421 E0.05913
G1 X88.46 Y129.554 E0.0199
G1 X87.602 Y129.942 E0.06264
G1 X87.216 Y130.102 E0.0278
G1 X86.363 Y130.423 E0.06063
G1 X86.142 Y130.5 E0.01557
G1 X85.172 Y130.806 E0.06766
G1 X84.427 Y131.006 E0.05131
G1 X83.427 Y131.232 E0.0682
G1 X83.161 Y131.285 E0.01804
G1 X82.164 Y131.453 E0.06726
G1 X81.869 Y131.494 E0.01981
G1 X80.821 Y131.616 E0.07018
G1 X79.615 Y131.704 E0.08044
G1 X78.163 Y131.744 E0.09662
G1 X76.962 Y131.726 E0.0799
G1 X75.35 Y131.633 E0.10741
G1 X74.018 Y131.497 E0.08907
G1 X72.457 Y131.268 E0.10495
G1 X71 Y130.986 E0.09872
G1 X69.562 Y130.643 E0.09834
G1 X68.025 Y130.197 E0.10646
G1 X66.596 Y129.701 E0.10062
G1 X66.115 Y129.517 E0.03426
G1 X64.767 Y128.946 E0.09738
G1 X63.64 Y128.405 E0.08316
G1 X63.421 Y128.293 E0.01636
G1 X62.348 Y127.71 E0.08123
G1 X61.199 Y127.014 E0.08936
G1 X60.987 Y126.879 E0.01672
G1 X59.763 Y126.035 E0.0989
G1 X58.693 Y125.225 E0.08927
G1 X57.432 Y124.228 E0.10693
G1 X56.881 Y123.845 E0.04464
G1 X56.276 Y123.53 E0.04537
G1 X55.636 Y123.293 E0.0454
G1 X54.97 Y123.14 E0.04546
G1 X54.291 Y123.07 E0.04541
G1 X53.608 Y123.089 E0.04545
G1 X52.93 Y123.193 E0.04563
G1 X52.117 Y123.441 E0.05654
G1 X51.502 Y123.684 E0.04399
G1 X51.327 Y123.745 E0.01233
G1 X51.152 Y123.79 E0.01202
G1 X50.604 Y123.909 E0.0373
G1 X50.429 Y123.94 E0.01182
G1 X50.237 Y123.957 E0.01282
G1 X49.611 Y123.986 E0.04169
G1 X49.421 Y123.987 E0.01264
G1 X49.248 Y123.973 E0.01155
G1 X48.66 Y123.901 E0.03941
G1 X48.459 Y123.868 E0.01355
G1 X47.698 Y123.65 E0.05266
G1 X47.56 Y123.603 E0.0097
G1 X47.376 Y123.522 E0.01337
G1 X46.818 Y123.248 E0.04135
G1 X46.647 Y123.154 E0.01298
G1 X46.509 Y123.063 E0.011
G1 X46.01 Y122.702 E0.04097
G1 X45.877 Y122.596 E0.01131
G1 X45.744 Y122.473 E0.01205
G1 X45.334 Y122.058 E0.03881
G1 X45.208 Y121.919 E0.01248
G1 X45.087 Y121.761 E0.01324
G1 X44.724 Y121.243 E0.04208
G1 X44.628 Y121.093 E0.01185
G1 X44.546 Y120.934 E0.0119
G1 X44.292 Y120.395 E0.03964
G1 X44.218 Y120.221 E0.01258
G1 X44.167 Y120.066 E0.01085
G1 X44.008 Y119.511 E0.0384
G1 X43.966 Y119.337 E0.01191
G1 X43.936 Y119.143 E0.01306
G1 X43.865 Y118.51 E0.04237
G1 X43.853 Y118.331 E0.01193
G1 X43.856 Y118.141 E0.01264
G1 X43.891 Y117.549 E0.03945
G1 X43.911 Y117.352 E0.01317
G1 X44.071 Y116.624 E0.04958
G1 X44.12 Y116.445 E0.01235
G1 X44.183 Y116.269 E0.01244
G1 X44.411 Y115.714 E0.03991
G1 X44.493 Y115.535 E0.0131
G1 X44.582 Y115.379 E0.01195
G1 X44.913 Y114.852 E0.0414
G1 X45.021 Y114.694 E0.01273
G1 X45.114 Y114.579 E0.00984
G1 X45.502 Y114.139 E0.03902
G1 X45.694 Y113.947 E0.01806
G1 X46.052 Y113.633 E0.03168
G1 X46.297 Y113.439 E0.02079
G1 X46.983 Y112.924 E0.05706
G1 X47.25 Y112.738 E0.02165
G1 X47.965 Y112.282 E0.05641
G1 X48.232 Y112.125 E0.0206
G1 X48.87 Y111.785 E0.04809
G1 X49.276 Y111.589 E0.02999
G1 X49.998 Y111.284 E0.05214
G1 X50.376 Y111.144 E0.02681
G1 X50.861 Y110.984 E0.03397
G1 X51.298 Y110.862 E0.03018
G1 X51.892 Y110.722 E0.0406
G1 X52.305 Y110.645 E0.02795
