;FLAVOR:RepRap
;TIME:4911
;Filament used: 5.79717m
;Layer height: 0.2
;Generated with Cura_SteamEngine 3.1.0
T0
M190 S70
M104 S200
M109 S200
M82 ; absolute extrusion mode
;Sliced at: Sat 13-01-2018 20:23:26
G21 ;metric values
G90 ;absolute positioning
M82 ;set extruder to absolute mode
M107 ;start with the fan off
G28 X0 Y0 ;move X/Y to min endstops
G28 Z0 ;move Z to min endstops
G1 Z15.0 F{travel_speed} ;move the platform down 15mm
G92 E0 ;zero the extruded length
G1 F140 E30 ;extrude 3mm of feed stock
G1 X20 Y0 F140 E30
G92 E0 ;zero the extruded length again
G1 F{travel_speed}
M117 Printing...
M83 ; relative extrusion mode
;LAYER_COUNT:40
;LAYER:-6
M107
G0 F3600 X77.505 Y96.747 Z0.2
G1 F1350 X78.182 Y96.202 E0.05781
G1 X78.69 Y95.806 E0.04285
G1 X79.491 Y95.208 E0.06649
G1 X80.066 Y94.803 E0.04678
G1 X80.631 Y94.421 E0.04537
G1 X81.398 Y93.928 E0.06065
G1 X81.922 Y93.606 E0.04091
G1 X83.324 Y92.812 E0.10718
G1 X83.906 Y92.509 E0.04365
G1 X84.785 Y92.07 E0.06536
G1 X85.418 Y91.773 E0.04651
G1 X86.384 Y91.352 E0.0701
G1 X87.115 Y91.056 E0.05246
G1 X87.993 Y90.724 E0.06244
G1 X88.442 Y90.565 E0.03169
G1 X89.382 Y90.253 E0.06588
G1 X90.133 Y90.027 E0.05217
G1 X91.209 Y89.726 E0.07432
G1 X91.473 Y89.659 E0.01812
G1 X93.085 Y89.295 E0.10993
G1 X93.478 Y89.221 E0.0266
G1 X94.561 Y89.034 E0.07311
G1 X95.37 Y88.919 E0.05436
G1 X96.848 Y88.755 E0.09892
G1 X97.125 Y88.73 E0.0185
G1 X98.633 Y88.639 E0.1005
G1 X99.753 Y88.612 E0.07452
G1 X100.291 Y88.612 E0.03579
G1 X101.274 Y88.638 E0.06541
G1 X102.332 Y88.7 E0.0705
G1 X103.267 Y88.767 E0.06236
G1 X103.546 Y88.797 E0.01867
G1 X105.434 Y89.044 E0.12666
G1 X106.591 Y89.246 E0.07813
G1 X107.071 Y89.341 E0.03255
G1 X108.558 Y89.681 E0.10147
G1 X109.896 Y90.051 E0.09234
G1 X110.566 Y90.255 E0.04659
G1 X111.361 Y90.518 E0.0557
G1 X111.868 Y90.696 E0.03574
G1 X112.861 Y91.07 E0.07058
G1 X113.518 Y91.337 E0.04717
G1 X114.368 Y91.703 E0.06156
G1 X115.055 Y92.02 E0.05033
G1 X116.347 Y92.668 E0.09615
G1 X117.86 Y93.512 E0.11525
G1 X118.445 Y93.866 E0.04548
G1 X119.072 Y94.267 E0.04951
G1 X119.801 Y94.754 E0.05832
G1 X120.364 Y95.148 E0.04571
G1 X121.247 Y95.806 E0.07325
G1 X122.253 Y96.598 E0.08517
G1 X123.323 Y97.512 E0.09361
G1 X124.434 Y98.547 E0.101
G1 X125.432 Y99.565 E0.09483
G1 X125.897 Y100.059 E0.04513
G1 X126.493 Y100.735 E0.05995
G1 X126.976 Y101.302 E0.04955
G1 X127.589 Y102.065 E0.06511
G1 X128.366 Y103.098 E0.08598
G1 X129 Y104.004 E0.07356
G1 X129.447 Y104.679 E0.05385
G1 X129.82 Y105.267 E0.04632
G1 X130.234 Y105.957 E0.05353
G1 X130.881 Y107.115 E0.08824
G1 X131.127 Y107.589 E0.03552
G1 X131.798 Y108.96 E0.10154
G1 X132.242 Y109.967 E0.07321
G1 X132.489 Y110.568 E0.04322
G1 X132.743 Y111.221 E0.04661
G1 X132.991 Y111.892 E0.04759
G1 X133.201 Y112.498 E0.04266
G1 X133.524 Y113.506 E0.07041
G1 X133.877 Y114.745 E0.0857
G1 X134.069 Y115.52 E0.05311
G1 X134.347 Y116.775 E0.08551
G1 X134.445 Y117.289 E0.03481
G1 X134.618 Y118.292 E0.06771
G1 X134.775 Y119.444 E0.07734
G1 X134.862 Y120.174 E0.0489
G1 X134.906 Y120.672 E0.03326
G1 X135.018 Y122.582 E0.12727
G1 X135.037 Y123.591 E0.06713
G1 X135.031 Y124.221 E0.04191
G1 X135.005 Y125.055 E0.0555
G1 X134.916 Y126.55 E0.09962
G1 X134.872 Y127.089 E0.03597
G1 X134.744 Y128.144 E0.07069
G1 X134.585 Y129.265 E0.07532
G1 X134.435 Y130.127 E0.0582
G1 X134.243 Y131.072 E0.06415
G1 X134.007 Y132.098 E0.07003
G1 X133.907 Y132.494 E0.02717
G1 X133.634 Y133.466 E0.06716
G1 X133.384 Y134.298 E0.05779
G1 X133.143 Y135.033 E0.05145
G1 X132.855 Y135.838 E0.05687
G1 X132.383 Y137.046 E0.08627
G1 X132.015 Y137.916 E0.06284
G1 X131.767 Y138.468 E0.04025
G1 X131.01 Y139.996 E0.11343
G1 X130.885 Y140.231 E0.01771
G1 X130.113 Y141.605 E0.10484
G1 X129.85 Y142.04 E0.03381
G1 X129.367 Y142.802 E0.06001
G1 X128.954 Y143.421 E0.0495
G1 X128.404 Y144.208 E0.06387
G1 X127.6 Y145.278 E0.08903
G1 X127.157 Y145.835 E0.04734
G1 X126.731 Y146.346 E0.04425
G1 X126.191 Y146.966 E0.05469
G1 X125.715 Y147.492 E0.04719
G1 X124.887 Y148.343 E0.07898
G1 X124.135 Y149.092 E0.0706
G1 X123.708 Y149.499 E0.03924
G1 X123.166 Y149.994 E0.04883
G1 X123.016 Y150.126 E0.01329
G1 X122.041 Y150.933 E0.08419
G1 X121.068 Y151.69 E0.08201
G1 X120.408 Y152.177 E0.05456
G1 X119.305 Y152.941 E0.08925
G1 X118.305 Y153.573 E0.07869
G1 X117.827 Y153.862 E0.03716
G1 X116.919 Y154.377 E0.06944
G1 X116.384 Y154.668 E0.04051
G1 X114.929 Y155.394 E0.10817
G1 X114.366 Y155.653 E0.04122
G1 X113.474 Y156.037 E0.0646
G1 X112.932 Y156.258 E0.03894
G1 X111.503 Y156.786 E0.10134
G1 X110.809 Y157.019 E0.0487
G1 X109.783 Y157.333 E0.07137
G1 X108.681 Y157.643 E0.07615
G1 X108.486 Y157.693 E0.01339
G1 X107.118 Y158.004 E0.09332
G1 X106.443 Y158.141 E0.04582
G1 X105.62 Y158.282 E0.05554
G1 X105.037 Y158.37 E0.03922
G1 X103.589 Y158.558 E0.09713
G1 X102.82 Y158.625 E0.05135
G1 X101.151 Y158.723 E0.11121
G1 X99.791 Y158.745 E0.09048
G1 X98.868 Y158.725 E0.06141
G1 X97.844 Y158.673 E0.0682
G1 X96.62 Y158.586 E0.08163
G1 X95.799 Y158.489 E0.05499
G1 X94.537 Y158.316 E0.08473
G1 X93.201 Y158.081 E0.09024
G1 X91.927 Y157.806 E0.0867
G1 X91.206 Y157.632 E0.04934
G1 X90.089 Y157.314 E0.07726
G1 X89.03 Y156.986 E0.07375
G1 X88.088 Y156.664 E0.06622
G1 X87.401 Y156.408 E0.04877
G1 X86.775 Y156.163 E0.04472
G1 X86.194 Y155.922 E0.04184
G1 X85.363 Y155.558 E0.06035
G1 X84.642 Y155.217 E0.05305
G1 X83.634 Y154.71 E0.07506
G1 X83.41 Y154.59 E0.0169
G1 X81.918 Y153.746 E0.11403
G1 X81.117 Y153.249 E0.06271
G1 X80.545 Y152.881 E0.04524
G1 X79.274 Y151.993 E0.10314
G1 X78.449 Y151.367 E0.06889
G1 X77.651 Y150.737 E0.06763
G1 X76.688 Y149.923 E0.08388
G1 X75.825 Y149.114 E0.07869
G1 X75.266 Y148.561 E0.05231
G1 X74.17 Y147.437 E0.10443
G1 X73.095 Y146.213 E0.10836
G1 X72.392 Y145.346 E0.07425
G1 X71.65 Y144.365 E0.08182
G1 X71.18 Y143.705 E0.0539
G1 X70.813 Y143.164 E0.04349
G1 X70.424 Y142.57 E0.04723
G1 X69.985 Y141.872 E0.05485
G1 X69.634 Y141.273 E0.04618
G1 X69.025 Y140.178 E0.08335
G1 X68.338 Y138.82 E0.10124
G1 X67.985 Y138.055 E0.05604
G1 X67.605 Y137.171 E0.06401
G1 X67.375 Y136.601 E0.04089
G1 X66.97 Y135.526 E0.07642
G1 X66.583 Y134.387 E0.08002
G1 X66.329 Y133.56 E0.05755
G1 X66.041 Y132.534 E0.07089
G1 X65.873 Y131.855 E0.04653
G1 X65.62 Y130.719 E0.07742
G1 X65.511 Y130.163 E0.03769
G1 X65.289 Y128.837 E0.08943
G1 X65.17 Y127.953 E0.05933
G1 X65.066 Y127.063 E0.05961
G1 X65.015 Y126.436 E0.04185
G1 X64.929 Y124.952 E0.09888
G1 X64.902 Y123.633 E0.08776
G1 X64.922 Y122.523 E0.07385
G1 X64.958 Y121.841 E0.04543
G1 X65.071 Y120.265 E0.10511
G1 X65.184 Y119.291 E0.06523
G1 X65.295 Y118.475 E0.05478
G1 X65.452 Y117.516 E0.06464
G1 X65.603 Y116.721 E0.05383
G1 X65.915 Y115.325 E0.09515
G1 X66.056 Y114.768 E0.03822
G1 X66.446 Y113.41 E0.09399
G1 X66.607 Y112.895 E0.03589
G1 X66.999 Y111.748 E0.08063
G1 X67.282 Y110.99 E0.05382
G1 X67.592 Y110.213 E0.05565
G1 X67.997 Y109.275 E0.06796
G1 X68.337 Y108.536 E0.05411
G1 X68.582 Y108.041 E0.03674
G1 X69.126 Y106.989 E0.07878
G1 X69.876 Y105.667 E0.10111
G1 X70.134 Y105.241 E0.03313
G1 X70.539 Y104.606 E0.0501
G1 X71.294 Y103.487 E0.08979
G1 X72.238 Y102.211 E0.10558
G1 X72.757 Y101.552 E0.0558
G1 X73.108 Y101.124 E0.03682
G1 X73.741 Y100.392 E0.06437
G1 X74.215 Y99.871 E0.04685
G1 X75.454 Y98.597 E0.11822
G1 X76.443 Y97.668 E0.09026
G1 X77.505 Y96.747 E0.09351
G0 F3600 X78 Y96.348
G1 F1350 X78 Y151.012 E3.63626
G0 F3600 X81 Y153.173
G1 F1350 X81 Y94.183 E3.92403
G0 F3600 X84 Y92.462
G1 F1350 X84 Y154.894 E4.15299
G0 F3600 X87 Y156.251
G1 F1350 X87 Y91.102 E4.33373
G0 F3600 X90 Y90.067
G1 F1350 X90 Y157.286 E4.47143
G0 F3600 X93 Y158.037
G1 F1350 X93 Y89.314 E4.57147
G0 F3600 X96 Y88.849
G1 F1350 X96 Y158.512 E4.634
G0 F3600 X99 Y158.727
G1 F1350 X99 Y88.63 E4.66287
G0 F3600 X102 Y88.681
G1 F1350 X102 Y158.674 E4.65595
G0 F3600 X105 Y158.375
G1 F1350 X105 Y88.988 E4.61564
G0 F3600 X108 Y89.554
G1 F1350 X108 Y157.804 E4.54001
G0 F3600 X111 Y156.955
G1 F1350 X111 Y90.399 E4.42732
G0 F3600 X114 Y91.545
G1 F1350 X114 Y155.811 E4.27499
G0 F3600 X117 Y154.332
G1 F1350 X117 Y93.033 E4.07763
G0 F3600 X120 Y94.894
G1 F1350 X120 Y152.46 E3.82931
G0 F3600 X123 Y150.14
G1 F1350 X123 Y97.237 E3.51912
G0 F3600 X126 Y100.176
G1 F1350 X126 Y147.178 E3.12659
G0 F3600 X129 Y143.353
G1 F1350 X129 Y104.004 E2.61751
G0 F3600 X132 Y109.419
G1 F1350 X132 Y137.95 E1.89789
G0 F3600 X135 Y125.139
G1 F1350 X135 Y122.276 E0.19045
G0 F3600 X75 Y99.063
G1 F1350 X75 Y148.288 E3.27446
G0 F3600 X72 Y144.827
G1 F1350 X72 Y102.532 E2.81347
G0 F3600 X69 Y107.232
G1 F1350 X69 Y140.128 E2.18825
G0 F3600 X66 Y132.368
G1 F1350 X66 Y114.989 E1.15606
G0 F3600 X77.679 Y96.347
;TIME_ELAPSED:72.366607
;LAYER:-5
M140 S70
G0 X77.679 Y96.347 Z0.47
;TYPE:SUPPORT
G1 F1350 X77.969 Y96.113 E0.01673
G1 X78.152 Y95.971 E0.0104
G1 X127.679 Y145.498 E3.14496
G1 X127.773 Y145.38 E0.00677
G1 X128.046 Y145.016 E0.02043
G1 X78.629 Y95.6 E3.13794
G1 X79.116 Y95.238 E0.02725
G1 X128.41 Y144.532 E3.13016
G1 X128.549 Y144.347 E0.01039
G1 X128.766 Y144.039 E0.01692
G1 X79.606 Y94.88 E3.12162
G1 X80.025 Y94.587 E0.02296
G1 X80.108 Y94.533 E0.00445
G1 X129.114 Y143.539 E3.11187
G1 X129.454 Y143.031 E0.02745
G1 X80.616 Y94.192 E3.10124
G1 X81.132 Y93.86 E0.02755
G1 X129.785 Y142.513 E3.08946
G1 X130.019 Y142.145 E0.01958
G1 X130.112 Y141.991 E0.00808
G1 X81.655 Y93.535 E3.07698
G1 X81.969 Y93.345 E0.01648
G1 X82.19 Y93.221 E0.01138
G1 X130.426 Y141.457 E3.06298
G1 X130.731 Y140.913 E0.028
G1 X82.733 Y92.915 E3.04787
G1 X83.232 Y92.634 E0.02571
G1 X83.278 Y92.611 E0.00231
G1 X131.036 Y140.37 E3.03266
G1 X131.097 Y140.26 E0.00565
G1 X131.323 Y139.809 E0.02265
G1 X83.834 Y92.319 E3.01558
G1 X84.4 Y92.037 E0.02839
G1 X131.606 Y139.242 E2.99754
G1 X131.876 Y138.7 E0.02719
G1 X131.888 Y138.676 E0.0012
G1 X84.972 Y91.76 E2.97916
G1 X85.284 Y91.612 E0.01551
G1 X85.555 Y91.495 E0.01325
G1 X132.154 Y138.093 E2.959
G1 X132.181 Y138.032 E0.003
G1 X132.406 Y137.497 E0.02606
G1 X86.146 Y91.237 E2.9375
G1 X86.31 Y91.165 E0.00804
G1 X86.746 Y90.989 E0.02111
G1 X132.658 Y136.9 E2.91537
G1 X132.668 Y136.873 E0.00129
G1 X132.895 Y136.289 E0.02813
G1 X87.356 Y90.75 E2.89172
G1 X87.836 Y90.566 E0.02308
G1 X87.973 Y90.518 E0.00652
G1 X133.126 Y135.672 E2.86724
G1 X133.33 Y135.101 E0.02723
G1 X133.349 Y135.046 E0.00261
G1 X88.603 Y90.3 E2.84136
G1 X89.207 Y90.097 E0.02861
G1 X89.239 Y90.088 E0.00149
G1 X133.558 Y134.406 E2.81422
G1 X133.585 Y134.322 E0.00396
G1 X133.755 Y133.755 E0.02658
G1 X89.891 Y89.891 E2.78536
G1 X90.058 Y89.84 E0.00784
G1 X90.552 Y89.703 E0.02302
G1 X133.945 Y133.097 E2.75548
G1 X134.052 Y132.721 E0.01755
G1 X134.127 Y132.43 E0.01349
G1 X91.216 Y89.519 E2.72484
G1 X91.423 Y89.464 E0.00962
G1 X91.901 Y89.356 E0.022
G1 X134.293 Y131.747 E2.69185
G1 X134.445 Y131.077 E0.03085
G1 X134.45 Y131.056 E0.00097
G1 X92.593 Y89.199 E2.65791
G1 X92.903 Y89.128 E0.01428
G1 X93.293 Y89.05 E0.01786
G1 X134.594 Y130.351 E2.62261
G1 X134.626 Y130.191 E0.00733
G1 X134.723 Y129.632 E0.02547
G1 X94.016 Y88.925 E2.58489
G1 X94.516 Y88.838 E0.02279
G1 X94.745 Y88.806 E0.01038
G1 X134.838 Y128.898 E2.54587
G1 X134.941 Y128.171 E0.03297
G1 X134.943 Y128.155 E0.00072
G1 X95.491 Y88.703 E2.5052
G1 X95.501 Y88.701 E0.00046
G1 X96.255 Y88.618 E0.03406
G1 X135.037 Y127.4 E2.46265
G1 X135.05 Y127.293 E0.00484
G1 X135.11 Y126.625 E0.03011
G1 X97.023 Y88.538 E2.41852
G1 X97.102 Y88.531 E0.00356
G1 X97.823 Y88.489 E0.03243
G1 X135.159 Y125.825 E2.37083
G1 X135.202 Y125.083 E0.03337
G1 X135.204 Y125.022 E0.00274
G1 X98.624 Y88.442 E2.32282
G1 X98.777 Y88.432 E0.00688
G1 X99.448 Y88.417 E0.03014
G1 X135.231 Y124.2 E2.27222
G1 X135.236 Y123.591 E0.02735
G1 X135.232 Y123.352 E0.01073
G1 X100.292 Y88.413 E2.21865
G1 X100.976 Y88.425 E0.03072
G1 X101.164 Y88.436 E0.00846
G1 X135.212 Y122.484 E2.16204
G1 X135.16 Y121.584 E0.04048
G1 X102.061 Y88.485 E2.10178
G1 X102.284 Y88.497 E0.01003
G1 X102.971 Y88.546 E0.03093
G1 X135.105 Y120.68 E2.0405
G1 X135.064 Y120.194 E0.0219
G1 X135.011 Y119.737 E0.02066
G1 X103.919 Y88.646 E1.97431
G1 X104.887 Y88.765 E0.04379
G1 X134.882 Y118.76 E1.90468
G1 X134.815 Y118.269 E0.02225
G1 X134.728 Y117.758 E0.02327
G1 X105.894 Y88.924 E1.83095
G1 X106.625 Y89.049 E0.0333
G1 X106.928 Y89.109 E0.01387
G1 X134.537 Y116.718 E1.75317
G1 X134.512 Y116.588 E0.00594
G1 X134.297 Y115.629 E0.04413
G1 X108.016 Y89.349 E1.66881
G1 X108.39 Y89.432 E0.0172
G1 X109.158 Y89.642 E0.03575
G1 X134.013 Y114.497 E1.57829
G1 X133.67 Y113.305 E0.05569
G1 X110.343 Y89.978 E1.48126
G1 X110.622 Y90.062 E0.01308
G1 X111.434 Y90.332 E0.03842
G1 X111.606 Y90.393 E0.00819
G1 X133.253 Y112.04 E1.37458
G1 X133.178 Y111.823 E0.01031
G1 X132.93 Y111.151 E0.03216
G1 X132.748 Y110.686 E0.02242
G1 X112.953 Y90.892 E1.25695
G1 X113.668 Y91.182 E0.03464
G1 X114.419 Y91.509 E0.03678
G1 X132.131 Y109.221 E1.12471
G1 X131.977 Y108.871 E0.01717
G1 X131.35 Y107.591 E0.064
G1 X116.063 Y92.304 E0.97072
G1 X116.609 Y92.58 E0.02747
G1 X117.931 Y93.323 E0.06809
G1 X130.324 Y105.717 E0.78699
G1 X130.056 Y105.267 E0.02352
G1 X129.614 Y104.571 E0.03702
G1 X129.131 Y103.842 E0.03927
G1 X128.734 Y103.278 E0.03097
G1 X120.348 Y94.892 E0.53251
G1 X120.479 Y94.984 E0.00719
G1 X121.347 Y95.631 E0.04861
G1 X122.381 Y96.445 E0.05909
G1 X123.346 Y97.268 E0.05695
G1 X124.576 Y98.408 E0.0753
G1 X125.528 Y99.378 E0.06103
G1 X126.041 Y99.919 E0.03348
G1 X126.692 Y100.66 E0.04429
G1 X127.129 Y101.174 E0.03029
G1 X127.748 Y101.944 E0.04436
G1 X128.41 Y102.818 E0.04923
G0 F3600 X127.303 Y145.97
G1 F1350 X77.679 Y96.347 E3.15109
G0 F3600 X77.216 Y96.732
G1 F1350 X126.917 Y146.434 E3.15604
G1 X127.248 Y146.038 E0.02317
G1 X127.303 Y145.97 E0.00393
G0 F3600 X126.521 Y146.886
G1 F1350 X126.124 Y147.337 E0.02698
G1 X76.307 Y97.52 E3.16337
G0 F3600 X76.306 Y97.52
G1 F1350 X75.869 Y97.93 E0.02691
G1 X125.714 Y147.776 E3.16518
G1 X125.297 Y148.207 E0.02693
G1 X75.431 Y98.341 E3.16648
G1 X75.366 Y98.402 E0.004
G1 X75.009 Y98.768 E0.02296
G1 X124.876 Y148.635 E3.16655
G1 X124.451 Y149.058 E0.02692
G1 X74.591 Y99.198 E3.1661
G1 X74.173 Y99.629 E0.02696
G1 X124.022 Y149.478 E3.1654
G1 X123.928 Y149.568 E0.00584
G1 X123.581 Y149.885 E0.0211
G1 X73.763 Y100.068 E3.1634
G1 X73.592 Y100.258 E0.01148
G1 X73.365 Y100.518 E0.0155
G1 X123.129 Y150.282 E3.16001
G1 X122.668 Y150.669 E0.02703
G1 X72.972 Y100.974 E3.15566
G1 X72.956 Y100.993 E0.00112
G1 X72.6 Y101.426 E0.02517
G1 X72.59 Y101.44 E0.00077
G1 X122.204 Y151.054 E3.15048
G1 X121.728 Y151.426 E0.02713
G1 X72.216 Y101.914 E3.14401
G1 X72.08 Y102.088 E0.00992
G1 X71.85 Y102.397 E0.0173
G1 X121.251 Y151.798 E3.13696
G1 X121.207 Y151.834 E0.00255
G1 X120.766 Y152.161 E0.02465
G1 X71.489 Y102.885 E3.12905
G1 X71.128 Y103.372 E0.02722
G1 X120.269 Y152.513 E3.12045
G1 X119.77 Y152.863 E0.02737
G1 X70.786 Y103.878 E3.11051
G1 X70.444 Y104.385 E0.02746
G1 X119.259 Y153.2 E3.09975
G1 X118.741 Y153.531 E0.0276
G1 X70.112 Y104.902 E3.08793
G1 X69.963 Y105.135 E0.01242
G1 X69.788 Y105.426 E0.01525
G1 X118.218 Y153.856 E3.0753
G1 X118.023 Y153.976 E0.01028
G1 X117.683 Y154.169 E0.01755
G1 X69.473 Y105.96 E3.0613
G1 X69.169 Y106.505 E0.02802
G1 X117.142 Y154.478 E3.04628
G1 X117.019 Y154.548 E0.00635
G1 X116.596 Y154.78 E0.02166
G1 X68.865 Y107.048 E3.03094
G0 F3600 X68.863 Y107.053
G1 F1350 X68.578 Y107.61 E0.02809
G1 X116.033 Y155.065 E3.01339
G1 X115.468 Y155.349 E0.02839
G1 X68.292 Y108.173 E2.99567
G1 X68.158 Y108.445 E0.01361
G1 X68.018 Y108.748 E0.01499
G1 X114.897 Y155.627 E2.97681
G1 X114.573 Y155.78 E0.01609
G1 X114.313 Y155.891 E0.01269
G1 X67.754 Y109.332 E2.95649
G1 X67.498 Y109.924 E0.02896
G1 X113.721 Y156.147 E2.93515
G1 X113.553 Y156.22 E0.00822
G1 X113.12 Y156.395 E0.02097
G1 X67.25 Y110.525 E2.91274
G1 X67.139 Y110.804 E0.01348
G1 X67.013 Y111.137 E0.01599
G1 X112.504 Y156.627 E2.88864
G1 X111.884 Y156.856 E0.02968
G1 X66.783 Y111.755 E2.86391
G1 X66.762 Y111.811 E0.00269
G1 X66.566 Y112.386 E0.02728
G1 X111.256 Y157.077 E2.83784
G1 X110.749 Y157.247 E0.02401
G1 X110.617 Y157.286 E0.00618
G1 X66.357 Y113.026 E2.8105
G1 X66.253 Y113.351 E0.01532
G1 X66.16 Y113.678 E0.01526
G1 X109.967 Y157.484 E2.78171
G1 X109.838 Y157.524 E0.00606
