;FLAVOR:RepRap
;TIME:1165
;Filament used: 0.329007m
;Layer height: 0.06
;Generated with Cura_SteamEngine 3.1.0
T0
M190 S70
M104 S200
M109 S200
M82 ; absolute extrusion mode
;Sliced at: Sun 14-01-2018 13:57:09
G21 ;metric values
G90 ;absolute positioning
M82 ;set extruder to absolute mode
M107 ;start with the fan off
G28 X0 Y0 ;move X/Y to min endstops
G28 Z0 ;move Z to min endstops
G1 Z15.0 F{travel_speed} ;move the platform down 15mm
G92 E0 ;zero the extruded length
G1 F140 E30 ;extrude 3mm of feed stock
G1 X20 Y0 F140 E30
G92 E0 ;zero the extruded length again
G1 F{travel_speed}
M117 Printing...
M83 ; relative extrusion mode
;LAYER_COUNT:201
;LAYER:-11
M107
G0 F3600 X90.165 Y96.144 Z0.2
G1 F1350 X90.41 Y95.922 E0.02199
G1 X91.907 Y94.728 E0.12738
G1 X92.322 Y94.433 E0.03387
G1 X92.578 Y94.277 E0.01994
G1 X92.837 Y94.142 E0.01943
G1 X93.748 Y93.738 E0.06629
G1 X94.331 Y93.384 E0.04537
G1 X94.865 Y92.958 E0.04544
G1 X95.344 Y92.466 E0.04568
G1 X95.539 Y92.198 E0.02205
G1 X95.562 Y92.214 E0.00186
G1 X96.035 Y91.486 E0.05775
G1 X96.213 Y91.246 E0.01988
G1 X96.384 Y91.044 E0.01761
G1 X96.606 Y90.814 E0.02126
G1 X97.032 Y90.434 E0.03797
G1 X97.248 Y90.265 E0.01824
G1 X97.566 Y90.035 E0.02611
G1 X97.929 Y89.796 E0.02891
G1 X98.298 Y89.581 E0.02841
G1 X98.498 Y89.477 E0.015
G1 X98.944 Y89.282 E0.03238
G1 X99.461 Y89.096 E0.03655
G1 X99.914 Y88.974 E0.03121
G1 X100.145 Y88.927 E0.01568
G1 X100.346 Y88.898 E0.01351
G1 X101 Y88.839 E0.04368
G1 X101.22 Y88.829 E0.01465
G1 X101.43 Y88.838 E0.01398
G1 X102.097 Y88.9 E0.04456
G1 X102.397 Y88.946 E0.02019
G1 X102.785 Y89.034 E0.02647
G1 X103.048 Y89.105 E0.01812
G1 X103.443 Y89.233 E0.02762
G1 X103.665 Y89.319 E0.01584
G1 X103.951 Y89.448 E0.02087
G1 X104.443 Y89.711 E0.03711
G1 X104.718 Y89.886 E0.02168
G1 X105.165 Y90.221 E0.03716
G1 X105.51 Y90.523 E0.0305
G1 X105.969 Y90.968 E0.04253
G1 X106.181 Y91.205 E0.02115
G1 X106.635 Y91.785 E0.049
G1 X107.17 Y92.579 E0.06369
G1 X107.187 Y92.57 E0.00128
G1 X107.326 Y92.759 E0.01561
G1 X107.528 Y92.964 E0.01914
G1 X107.52 Y92.972 E0.00075
G1 X108.094 Y93.531 E0.0533
G1 X108.469 Y93.854 E0.03292
G1 X108.46 Y93.868 E0.00111
G1 X109.163 Y94.362 E0.05716
G1 X109.382 Y94.536 E0.01861
G1 X109.593 Y94.728 E0.01898
G1 X109.798 Y94.94 E0.01962
G1 X109.988 Y95.163 E0.01949
G1 X110.163 Y95.396 E0.01938
G1 X110.316 Y95.631 E0.01865
G1 X110.466 Y95.895 E0.0202
G1 X110.593 Y96.154 E0.01919
G1 X110.696 Y96.406 E0.01811
G1 X110.794 Y96.697 E0.02043
G1 X110.873 Y96.987 E0.01999
G1 X110.928 Y97.261 E0.01859
G1 X110.967 Y97.545 E0.01907
G1 X110.989 Y97.828 E0.01888
G1 X110.992 Y98.294 E0.031
G1 X110.876 Y100.825 E0.16854
G1 X110.834 Y101.208 E0.02563
G1 X110.794 Y101.444 E0.01592
G1 X110.724 Y102.103 E0.04408
G1 X110.707 Y102.43 E0.02178
G1 X110.515 Y104.285 E0.12405
G1 X110.453 Y104.654 E0.02489
G1 X110.385 Y104.95 E0.0202
G1 X110.302 Y105.226 E0.01917
G1 X110.208 Y105.482 E0.01814
G1 X110.084 Y105.762 E0.02037
G1 X109.944 Y106.031 E0.02017
G1 X109.822 Y106.232 E0.01564
G1 X109.611 Y106.529 E0.02423
G1 X109.294 Y106.913 E0.03312
G1 X109.158 Y107.065 E0.01357
G1 X108.726 Y107.506 E0.04107
G1 X108.318 Y107.879 E0.03677
G1 X108.129 Y108.032 E0.01618
G1 X107.825 Y108.247 E0.02477
G1 X106.388 Y109.177 E0.11386
G1 X105.935 Y109.435 E0.03468
G1 X105.688 Y109.554 E0.01824
G1 X104.69 Y109.952 E0.07147
G1 X104.295 Y110.163 E0.02979
G1 X103.935 Y110.376 E0.02782
G1 X103.701 Y110.496 E0.01749
G1 X103.435 Y110.607 E0.01917
G1 X102.946 Y110.842 E0.03609
G1 X102.819 Y110.912 E0.00965
G1 X102.561 Y111.032 E0.01893
G1 X102.264 Y111.148 E0.02121
G1 X102.012 Y111.228 E0.01759
G1 X101.719 Y111.302 E0.0201
G1 X101.439 Y111.355 E0.01896
G1 X101.144 Y111.39 E0.01976
G1 X100.866 Y111.406 E0.01852
G1 X100.568 Y111.404 E0.01982
G1 X99.575 Y111.335 E0.06621
G1 X98.68 Y111.408 E0.05973
G1 X98.063 Y111.495 E0.04145
G1 X97.559 Y111.529 E0.0336
G1 X97.261 Y111.528 E0.01982
G1 X96.99 Y111.51 E0.01807
G1 X96.666 Y111.468 E0.02173
G1 X96.412 Y111.418 E0.01722
G1 X96.112 Y111.339 E0.02064
G1 X95.853 Y111.253 E0.01815
G1 X95.573 Y111.14 E0.02009
G1 X95.087 Y110.9 E0.03606
G1 X94.725 Y110.69 E0.02784
G1 X94.4 Y110.479 E0.02578
G1 X94.171 Y110.308 E0.01901
G1 X93.954 Y110.124 E0.01893
G1 X93.74 Y109.916 E0.01985
G1 X93.557 Y109.716 E0.01803
G1 X93.372 Y109.486 E0.01963
G1 X93.303 Y109.388 E0.00797
G1 X92.884 Y108.864 E0.04463
G1 X92.393 Y108.39 E0.0454
G1 X91.889 Y108.013 E0.04187
G1 X91.893 Y108.007 E0.00048
G1 X91.124 Y107.56 E0.05917
G1 X90.901 Y107.41 E0.01788
G1 X90.659 Y107.226 E0.02022
G1 X90.433 Y107.029 E0.01994
G1 X90.228 Y106.826 E0.01919
G1 X90.039 Y106.614 E0.01889
G1 X89.856 Y106.381 E0.01971
G1 X89.691 Y106.14 E0.01943
G1 X89.542 Y105.889 E0.01942
G1 X89.409 Y105.631 E0.01931
G1 X89.296 Y105.371 E0.01886
G1 X89.192 Y105.082 E0.02043
G1 X89.118 Y104.826 E0.01773
G1 X89.049 Y104.526 E0.02048
G1 X89.006 Y104.249 E0.01865
G1 X88.979 Y103.965 E0.01898
G1 X88.969 Y103.674 E0.01937
G1 X88.978 Y103.389 E0.01897
G1 X89.088 Y102.359 E0.06891
G1 X89.073 Y101.673 E0.04564
G1 X88.94 Y100.859 E0.05487
G1 X88.836 Y100.436 E0.02898
G1 X88.782 Y100.134 E0.02041
G1 X88.75 Y99.856 E0.01861
G1 X88.736 Y99.583 E0.01818
G1 X88.739 Y99.282 E0.02002
G1 X88.763 Y98.965 E0.02115
G1 X88.799 Y98.712 E0.017
G1 X88.86 Y98.412 E0.02036
G1 X88.937 Y98.125 E0.01977
G1 X89.027 Y97.866 E0.01824
G1 X89.141 Y97.589 E0.01993
G1 X89.268 Y97.327 E0.01937
G1 X89.408 Y97.081 E0.01883
G1 X89.567 Y96.84 E0.01921
G1 X89.74 Y96.609 E0.0192
G1 X89.934 Y96.381 E0.01991
G1 X90.165 Y96.144 E0.02202
G0 F3600 X90 Y96.313
G1 F1350 X90 Y106.564 E0.6819
G0 F3600 X93 Y109.009
G1 F1350 X93 Y94.069 E0.99381
G0 F3600 X96 Y91.539
G1 F1350 X96 Y111.301 E1.31457
G0 F3600 X99 Y111.382
G1 F1350 X99 Y89.261 E1.47149
G0 F3600 X102 Y88.891
G1 F1350 X102 Y111.232 E1.48613
G0 F3600 X105 Y109.829
G1 F1350 X105 Y90.098 E1.31251
G0 F3600 X108 Y93.44
G1 F1350 X108 Y108.124 E0.97678
G0 F3600 X90.028 Y95.996
;TIME_ELAPSED:11.668030
;LAYER:-10
M140 S70
G0 X90.028 Y95.996 Z0.47
;TYPE:SUPPORT
G1 F1350 X89.792 Y96.238 E0.01518
G1 X89.634 Y96.422 E0.01089
G1 X103.852 Y110.64 E0.90284
G1 X103.774 Y110.68 E0.00394
G1 X103.516 Y110.788 E0.01256
G1 X103.27 Y110.906 E0.01225
G1 X89.277 Y96.913 E0.88855
G1 X89.247 Y96.959 E0.00247
G1 X89.087 Y97.239 E0.01448
G1 X88.978 Y97.463 E0.01119
G1 X102.701 Y111.186 E0.87141
G1 X102.644 Y111.214 E0.00285
G1 X102.348 Y111.329 E0.01426
G1 X102.08 Y111.413 E0.01261
G1 X88.741 Y98.075 E0.84699
G1 X88.666 Y98.36 E0.01323
G1 X88.601 Y98.678 E0.01457
G1 X88.588 Y98.77 E0.00417
G1 X101.379 Y111.561 E0.81223
G1 X101.161 Y111.587 E0.00986
G1 X100.86 Y111.605 E0.01354
G1 X100.572 Y111.603 E0.01293
G1 X88.536 Y99.566 E0.76432
G0 F3600 X88.536 Y99.568
G1 F1350 X88.55 Y99.868 E0.01349
G1 X88.587 Y100.177 E0.01397
G1 X88.639 Y100.473 E0.01349
G1 X88.653 Y100.532 E0.00272
G1 X99.66 Y111.539 E0.69894
G1 X99.576 Y111.534 E0.00378
G1 X98.864 Y111.592 E0.03208
G1 X88.856 Y101.584 E0.63551
G1 X88.874 Y101.691 E0.00487
G1 X88.887 Y102.349 E0.02955
G1 X88.876 Y102.452 E0.00465
G1 X98.11 Y111.686 E0.58636
G1 X97.959 Y111.704 E0.00683
G1 X97.555 Y111.728 E0.01817
G1 X97.302 Y111.727 E0.01136
G1 X88.794 Y103.219 E0.54026
G1 X88.777 Y103.371 E0.00687
G1 X88.768 Y103.68 E0.01388
G1 X88.778 Y103.972 E0.01312
G1 X88.786 Y104.059 E0.00392
G1 X96.329 Y111.602 E0.47898
G1 X96.068 Y111.534 E0.01211
G1 X95.766 Y111.432 E0.01431
G1 X95.501 Y111.326 E0.01282
G1 X94.989 Y111.074 E0.02562
G1 X94.904 Y111.026 E0.00438
G1 X88.995 Y105.117 E0.37522
G0 F3600 X89.003 Y105.145
G1 F1350 X89.116 Y105.459 E0.01498
G1 X89.222 Y105.703 E0.01195
G1 X89.362 Y105.976 E0.01378
G1 X89.533 Y106.261 E0.01492
G1 X89.689 Y106.49 E0.01244
G1 X89.893 Y106.752 E0.01491
G1 X90.08 Y106.96 E0.01256
G1 X90.301 Y107.179 E0.01397
G1 X90.53 Y107.379 E0.01365
G1 X90.774 Y107.565 E0.01378
G1 X91.026 Y107.734 E0.01362
G1 X91.737 Y108.147 E0.03692
G1 X92.263 Y108.54 E0.02948
G1 X92.736 Y108.998 E0.02956
G1 X93.142 Y109.506 E0.0292
G1 X93.212 Y109.606 E0.00548
G1 X93.396 Y109.834 E0.01316
G1 X93.608 Y110.067 E0.01414
G1 X93.806 Y110.259 E0.01238
G1 X94.057 Y110.471 E0.01475
G1 X94.286 Y110.643 E0.01286
G1 X94.749 Y110.939 E0.02467
G1 X94.904 Y111.026 E0.00798
G0 F3600 X104.395 Y110.334
G1 F1350 X90.043 Y95.983 E0.91132
G1 X90.028 Y95.996 E0.00089
G0 F3600 X90.501 Y95.592
G1 F1350 X104.965 Y110.056 E0.91846
G1 X104.774 Y110.133 E0.00925
G1 X104.395 Y110.334 E0.01926
G0 F3600 X105.572 Y109.815
G1 F1350 X90.973 Y95.216 E0.92703
G1 X90.501 Y95.592 E0.0271
G0 F3600 X91.445 Y94.839
G1 F1350 X106.148 Y109.542 E0.93364
G1 X106.027 Y109.61 E0.00623
G1 X105.752 Y109.743 E0.01372
G1 X105.572 Y109.815 E0.0087
G0 F3600 X106.676 Y109.222
G1 F1350 X91.924 Y94.47 E0.93675
G1 X91.786 Y94.567 E0.00757
G1 X91.445 Y94.839 E0.01959
G0 F3600 X92.434 Y94.131
G1 F1350 X107.193 Y108.89 E0.93719
G1 X106.676 Y109.222 E0.02759
G0 F3600 X107.709 Y108.557
G1 F1350 X93.001 Y93.85 E0.93392
G1 X92.742 Y93.965 E0.01272
G1 X92.48 Y94.102 E0.01328
G1 X92.434 Y94.131 E0.00244
G0 F3600 X93.589 Y93.589
G1 F1350 X108.215 Y108.215 E0.92875
G1 X107.933 Y108.414 E0.0155
G1 X107.709 Y108.557 E0.01193
G0 F3600 X108.673 Y107.824
G1 F1350 X94.124 Y93.275 E0.92386
G1 X93.654 Y93.559 E0.02466
G1 X93.589 Y93.589 E0.00321
G0 F3600 X94.606 Y92.909
G1 F1350 X109.103 Y107.406 E0.92056
G1 X108.863 Y107.651 E0.0154
G1 X108.673 Y107.824 E0.01154
G0 F3600 X109.51 Y106.964
G1 F1350 X95.037 Y92.492 E0.919
G1 X94.73 Y92.809 E0.01981
G1 X94.606 Y92.909 E0.00715
G0 F3600 X95.416 Y92.022
G1 F1350 X109.884 Y106.49 E0.91872
G1 X109.768 Y106.652 E0.00895
G1 X109.51 Y106.964 E0.01818
G0 F3600 X110.205 Y105.962
G1 F1350 X95.769 Y91.526 E0.91668
G1 X95.504 Y91.935 E0.02188
G1 X95.489 Y91.925 E0.00081
G1 X95.416 Y92.022 E0.00545
G0 F3600 X96.127 Y91.036
G1 F1350 X110.461 Y105.37 E0.91021
G1 X110.387 Y105.571 E0.00962
G1 X110.261 Y105.854 E0.01391
G1 X110.205 Y105.962 E0.00546
G0 F3600 X110.645 Y104.706
G1 F1350 X96.541 Y90.602 E0.8956
G1 X96.456 Y90.677 E0.00509
G1 X96.241 Y90.902 E0.01397
G1 X96.127 Y91.036 E0.0079
G0 F3600 X96.996 Y90.208
G1 F1350 X110.749 Y103.96 E0.87328
G1 X110.711 Y104.318 E0.01616
G1 X110.647 Y104.699 E0.01735
G0 F3600 X110.829 Y103.192
G1 F1350 X97.486 Y89.849 E0.84728
G1 X97.391 Y89.912 E0.00512
G1 X97.129 Y90.103 E0.01456
G1 X96.996 Y90.208 E0.00761
G0 F3600 X98.004 Y89.519
G1 F1350 X110.906 Y102.421 E0.81928
G1 X110.904 Y102.456 E0.00157
G1 X110.829 Y103.192 E0.03322
G0 F3600 X110.973 Y101.639
G1 F1350 X98.563 Y89.229 E0.78803
G1 X98.408 Y89.297 E0.0076
G1 X98.197 Y89.406 E0.01066
G1 X98.004 Y89.519 E0.01004
G0 F3600 X99.171 Y88.988
G1 F1350 X111.067 Y100.885 E0.75543
G1 X111.032 Y101.228 E0.01548
G1 X110.991 Y101.471 E0.01107
G1 X110.973 Y101.639 E0.00759
G0 F3600 X111.114 Y100.083
G1 F1350 X99.821 Y88.79 E0.7171
G1 X99.641 Y88.833 E0.00831
G1 X99.398 Y88.905 E0.01138
G1 X99.171 Y88.988 E0.01085
G0 F3600 X100.557 Y88.678
G1 F1350 X111.149 Y99.27 E0.67259
G1 X111.114 Y100.083 E0.03654
G0 F3600 X111.184 Y98.456
G1 F1350 X101.363 Y88.635 E0.62363
G1 X101.217 Y88.628 E0.00656
G1 X100.988 Y88.638 E0.01029
G1 X100.557 Y88.678 E0.01944
G0 F3600 X102.309 Y88.733
G1 F1350 X111.172 Y97.595 E0.56277
G1 X111.188 Y97.809 E0.00964
G1 X111.191 Y98.303 E0.02218
G1 X111.184 Y98.456 E0.00688
G0 F3600 X110.945 Y96.52
G1 F1350 X103.451 Y89.026 E0.47587
G1 X103.103 Y88.913 E0.01643
G1 X102.544 Y88.773 E0.02587
G1 X102.309 Y88.733 E0.0107
G0 F3600 X105.702 Y90.429
G1 F1350 X106.232 Y90.958 E0.03362
G1 X106.336 Y91.079 E0.00716
G1 X106.707 Y91.546 E0.02678
G1 X106.8 Y91.674 E0.0071
G1 X107.236 Y92.32 E0.03499
G1 X107.246 Y92.316 E0.00048
G1 X107.477 Y92.629 E0.01747
G1 X107.808 Y92.964 E0.02115
G1 X108.228 Y93.383 E0.02664
G1 X108.734 Y93.816 E0.0299
G1 X109.289 Y94.207 E0.03048
G1 X109.506 Y94.379 E0.01243
G1 X109.74 Y94.592 E0.01421
G1 X109.945 Y94.806 E0.01331
G1 X110.147 Y95.042 E0.01395
G1 X110.319 Y95.272 E0.0129
G1 X110.495 Y95.541 E0.01443
G1 X110.633 Y95.785 E0.01259
G1 X110.778 Y96.081 E0.0148
G1 X110.889 Y96.353 E0.01319
G1 X110.945 Y96.52 E0.00791
G0 F3600 X106.214 Y90.938
G1 F1350 X106.015 Y90.73 E0.01293
G1 X105.702 Y90.429 E0.0195
G0 F3600 X90.026 Y96
;TIME_ELAPSED:44.272267
;LAYER:-9
G0 X90.026 Y96 Z0.74
G1 F1800 X90.285 Y95.765 E0.0157
G1 X90.493 Y95.6 E0.01192
G1 X110.529 Y95.6 E0.89964
G1 X110.496 Y95.542 E0.003
G1 X110.32 Y95.272 E0.01447
G1 X110.267 Y95.2 E0.00401
G1 X90.994 Y95.2 E0.86538
G1 X91.496 Y94.8 E0.02882
G1 X109.941 Y94.8 E0.8282
G1 X109.741 Y94.593 E0.01292
G1 X109.529 Y94.4 E0.01287
G1 X92.024 Y94.4 E0.786
G1 X92.218 Y94.262 E0.01069
G1 X92.48 Y94.103 E0.01376
G1 X92.677 Y94 E0.00998
G1 X108.997 Y94 E0.73279
G1 X108.735 Y93.816 E0.01438
G1 X108.482 Y93.6 E0.01494
G1 X93.566 Y93.6 E0.66975
G1 X93.655 Y93.56 E0.00438
G1 X94.217 Y93.219 E0.02952
G1 X94.241 Y93.2 E0.00137
G1 X108.041 Y93.2 E0.61964
G1 X107.809 Y92.965 E0.01483
G1 X107.647 Y92.8 E0.01038
G1 X94.741 Y92.8 E0.57949
G1 X95.129 Y92.4 E0.02502
G1 X107.309 Y92.4 E0.5469
G1 X107.247 Y92.316 E0.00469
G1 X107.237 Y92.321 E0.0005
G1 X107.021 Y92 E0.01737
G1 X95.436 Y92 E0.52018
G1 X95.49 Y91.925 E0.00415
G1 X95.505 Y91.935 E0.00081
G1 X95.723 Y91.6 E0.01795
G1 X106.747 Y91.6 E0.49499
G1 X106.708 Y91.547 E0.00295
G1 X106.433 Y91.2 E0.01988
G1 X95.998 Y91.2 E0.46854
G1 X96.052 Y91.127 E0.00408
G1 X96.242 Y90.903 E0.01319
G1 X96.341 Y90.8 E0.00641
G1 X106.083 Y90.8 E0.43743
G1 X106.017 Y90.731 E0.00429
G1 X105.703 Y90.429 E0.01956
G1 X105.671 Y90.4 E0.00194
G1 X96.771 Y90.4 E0.39962
G1 X96.909 Y90.277 E0.0083
G1 X97.13 Y90.104 E0.0126
G1 X97.273 Y90 E0.00794
G1 X105.204 Y90 E0.35611
G1 X104.838 Y89.726 E0.02053
G1 X104.641 Y89.6 E0.0105
G1 X97.869 Y89.6 E0.30407
G1 X98.198 Y89.407 E0.01713
G1 X98.409 Y89.298 E0.01066
G1 X98.633 Y89.2 E0.01098
G1 X103.888 Y89.2 E0.23596
G1 X103.75 Y89.138 E0.00679
G1 X103.5 Y89.042 E0.01202
G1 X103.104 Y88.913 E0.0187
G1 X102.654 Y88.8 E0.02083
G1 X99.783 Y88.8 E0.12891
G1 X99.873 Y88.778 E0.00416
G1 X100.118 Y88.729 E0.01122
G1 X100.319 Y88.7 E0.00912
G1 X100.99 Y88.639 E0.03025
G1 X101.218 Y88.628 E0.01025
G1 X101.438 Y88.638 E0.00989
G1 X102.121 Y88.701 E0.0308
G1 X102.546 Y88.773 E0.01935
G0 F3600 X110.739 Y96
G1 F1800 X90.026 Y96 E0.93004
G0 F3600 X89.656 Y96.4
G1 F1800 X110.906 Y96.4 E0.95415
G1 X110.89 Y96.354 E0.00219
G1 X110.779 Y96.082 E0.01319
G1 X110.739 Y96 E0.0041
G0 F3600 X111.03 Y96.8
G1 F1800 X111.069 Y96.945 E0.00674
G1 X111.121 Y97.2 E0.01169
G1 X89.111 Y97.2 E0.98828
G1 X89.088 Y97.24 E0.00207
G1 X88.957 Y97.509 E0.01343
G1 X88.92 Y97.6 E0.00441
G1 X111.173 Y97.6 E0.99919
G1 X111.189 Y97.81 E0.00946
G1 X111.191 Y98 E0.00853
G1 X88.769 Y98 E1.00677
G1 X88.744 Y98.072 E0.00342
G1 X88.666 Y98.361 E0.01344
G1 X88.659 Y98.4 E0.00178
G1 X111.187 Y98.4 E1.01153
G1 X111.17 Y98.8 E0.01798
G1 X88.585 Y98.8 E1.01409
G1 X88.562 Y98.963 E0.00739
G1 X88.544 Y99.2 E0.01067
G1 X111.152 Y99.2 E1.01513
G1 X111.135 Y99.6 E0.01798
G1 X88.537 Y99.6 E1.01468
G1 X88.551 Y99.869 E0.01209
G1 X88.566 Y100 E0.00592
G1 X111.117 Y100 E1.01257
G1 X111.1 Y100.4 E0.01798
G1 X88.625 Y100.4 E1.00915
G1 X88.639 Y100.474 E0.00338
G1 X88.719 Y100.8 E0.01507
G1 X111.076 Y100.8 E1.00386
G1 X111.035 Y101.2 E0.01805
G1 X88.793 Y101.2 E0.99869
G1 X88.858 Y101.6 E0.0182
G1 X110.978 Y101.6 E0.99321
G1 X110.935 Y102 E0.01806
G1 X88.88 Y102 E0.9903
G1 X88.888 Y102.35 E0.01572
G1 X88.883 Y102.4 E0.00226
G1 X110.907 Y102.4 E0.9889
G1 X110.905 Y102.456 E0.00252
G1 X110.869 Y102.8 E0.01553
G1 X88.84 Y102.8 E0.98913
G1 X88.797 Y103.2 E0.01806
G1 X110.827 Y103.2 E0.98917
G1 X110.786 Y103.6 E0.01805
G1 X88.772 Y103.6 E0.98845
G1 X88.769 Y103.681 E0.00364
G1 X88.779 Y103.974 E0.01316
G1 X88.781 Y104 E0.00117
G1 X110.744 Y104 E0.98616
G1 X110.712 Y104.318 E0.01435
G1 X110.698 Y104.4 E0.00374
G1 X88.827 Y104.4 E0.98203
G1 X88.855 Y104.573 E0.00787
G1 X88.906 Y104.8 E0.01045
G1 X110.624 Y104.8 E0.97516
G1 X110.581 Y104.99 E0.00875
G1 X110.518 Y105.2 E0.00984
G1 X89.022 Y105.2 E0.9652
G1 X89.116 Y105.46 E0.01241
G1 X89.176 Y105.6 E0.00684
G1 X110.375 Y105.6 E0.95186
G1 X110.262 Y105.855 E0.01252
G1 X110.186 Y106 E0.00735
G1 X89.375 Y106 E0.93444
