;FLAVOR:RepRap
;TIME:914
;Filament used: 0.789895m
;Layer height: 0.2
;Generated with Cura_SteamEngine 3.1.0
T0
M190 S70
M104 S200
M109 S200
M82 ; absolute extrusion mode
;Sliced at: Sun 14-01-2018 09:29:53
G21 ;metric values
G90 ;absolute positioning
M82 ;set extruder to absolute mode
M107 ;start with the fan off
G28 X0 Y0 ;move X/Y to min endstops
G28 Z0 ;move Z to min endstops
G1 Z15.0 F{travel_speed} ;move the platform down 15mm
G92 E0 ;zero the extruded length
G1 F140 E30 ;extrude 3mm of feed stock
G1 X20 Y0 F140 E30
G92 E0 ;zero the extruded length again
G1 F{travel_speed}
M117 Printing...
M83 ; relative extrusion mode
;LAYER_COUNT:107
;LAYER:-6
M107
G0 F3600 X92.014 Y89.199 Z0.2
G1 F1350 X92.223 Y88.985 E0.0199
G1 X92.438 Y88.792 E0.01922
G1 X92.668 Y88.609 E0.01955
G1 X92.893 Y88.451 E0.01829
G1 X93.159 Y88.291 E0.02065
G1 X93.41 Y88.16 E0.01883
G1 X93.664 Y88.046 E0.01852
G1 X93.949 Y87.94 E0.02023
G1 X94.509 Y87.752 E0.03929
G1 X94.773 Y87.675 E0.01829
G1 X95.069 Y87.61 E0.02016
G1 X95.364 Y87.564 E0.01986
G1 X95.639 Y87.538 E0.01837
G1 X95.932 Y87.53 E0.0195
G1 X96.119 Y87.536 E0.01245
G1 X96.786 Y87.517 E0.04439
G1 X97.777 Y87.364 E0.0667
G1 X98.056 Y87.338 E0.01864
G1 X98.362 Y87.327 E0.02037
G1 X98.629 Y87.335 E0.01777
G1 X99.089 Y87.377 E0.03073
G1 X99.408 Y87.428 E0.02149
G1 X99.938 Y87.557 E0.03629
G1 X100.118 Y87.612 E0.01252
G1 X100.777 Y87.854 E0.0467
G1 X101.417 Y88.072 E0.04497
G1 X102.334 Y88.234 E0.06194
G1 X102.443 Y88.243 E0.00728
G1 X102.975 Y88.328 E0.03584
G1 X103.202 Y88.378 E0.01546
G1 X104.539 Y88.731 E0.09199
G1 X104.885 Y88.844 E0.02421
G1 X105.145 Y88.948 E0.01863
G1 X105.414 Y89.076 E0.01982
G1 X105.675 Y89.221 E0.01986
G1 X106.059 Y89.469 E0.03041
G1 X108.307 Y91.081 E0.18401
G1 X108.588 Y91.311 E0.02416
G1 X108.826 Y91.531 E0.02156
G1 X109.009 Y91.723 E0.01764
G1 X109.189 Y91.937 E0.0186
G1 X109.357 Y92.166 E0.01889
G1 X109.531 Y92.446 E0.02193
G1 X109.682 Y92.735 E0.02169
G1 X109.828 Y92.998 E0.02001
G1 X109.931 Y93.217 E0.0161
G1 X110.139 Y93.706 E0.03535
G1 X110.213 Y93.904 E0.01406
G1 X110.655 Y95.235 E0.09329
G1 X110.793 Y95.747 E0.03527
G1 X110.846 Y96.012 E0.01798
G1 X110.888 Y96.334 E0.0216
G1 X110.905 Y96.601 E0.0178
G1 X110.906 Y96.835 E0.01557
G1 X110.988 Y97.744 E0.06071
G1 X111.025 Y97.946 E0.01366
G1 X111.187 Y98.602 E0.04495
G1 X111.552 Y99.478 E0.06313
G1 X111.684 Y99.729 E0.01886
G1 X111.802 Y99.991 E0.01911
G1 X111.903 Y100.262 E0.01924
G1 X111.99 Y100.547 E0.01982
G1 X112.05 Y100.806 E0.01769
G1 X112.167 Y101.479 E0.04544
G1 X112.291 Y102.054 E0.03913
G1 X112.349 Y102.443 E0.02616
G1 X112.397 Y102.967 E0.035
G1 X112.403 Y103.251 E0.0189
G1 X112.389 Y103.585 E0.02224
G1 X112.369 Y103.794 E0.01397
G1 X112.32 Y104.116 E0.02167
G1 X112.166 Y104.899 E0.05308
G1 X111.998 Y105.523 E0.04299
G1 X111.733 Y106.31 E0.05524
G1 X111.586 Y106.672 E0.02599
G1 X111.46 Y106.937 E0.01952
G1 X111.326 Y107.177 E0.01828
G1 X111.161 Y107.434 E0.02032
G1 X110.99 Y107.666 E0.01917
G1 X110.803 Y107.887 E0.01926
G1 X110.604 Y108.095 E0.01915
G1 X110.383 Y108.298 E0.01996
G1 X110.17 Y108.472 E0.0183
G1 X109.936 Y108.639 E0.01912
G1 X109.706 Y108.782 E0.01802
G1 X109.397 Y108.942 E0.02315
G1 X108.824 Y109.287 E0.04449
G1 X108.288 Y109.711 E0.04546
G1 X107.81 Y110.199 E0.04544
G1 X107.42 Y110.713 E0.04292
G1 X107.415 Y110.71 E0.00039
G1 X106.988 Y111.429 E0.05563
G1 X106.824 Y111.669 E0.01934
G1 X106.66 Y111.88 E0.01778
G1 X106.451 Y112.115 E0.02092
G1 X106.245 Y112.319 E0.01929
G1 X106.037 Y112.502 E0.01843
G1 X105.789 Y112.691 E0.02074
G1 X105.559 Y112.845 E0.01841
G1 X105.309 Y112.992 E0.01929
G1 X105.045 Y113.124 E0.01963
G1 X104.802 Y113.227 E0.01756
G1 X104.491 Y113.335 E0.0219
G1 X104.06 Y113.451 E0.02969
G1 X103.878 Y113.493 E0.01242
G1 X101.397 Y113.97 E0.16806
G1 X100.857 Y114.044 E0.03626
G1 X100.579 Y114.062 E0.01853
G1 X100.279 Y114.062 E0.01996
G1 X99.995 Y114.044 E0.01893
G1 X99.581 Y113.992 E0.02776
G1 X98.91 Y113.949 E0.04473
G1 X98.113 Y114.009 E0.05317
G1 X97.664 Y114.078 E0.03022
G1 X97.395 Y114.102 E0.01797
G1 X97.104 Y114.11 E0.01936
G1 X96.807 Y114.099 E0.01977
G1 X96.514 Y114.07 E0.01959
G1 X96.23 Y114.023 E0.01915
G1 X95.937 Y113.956 E0.01999
G1 X95.664 Y113.874 E0.01896
G1 X95.403 Y113.778 E0.0185
G1 X95.093 Y113.641 E0.02255
G1 X94.7 Y113.443 E0.02927
G1 X94.705 Y113.43 E0.00093
G1 X94.408 Y113.295 E0.0217
G1 X94.005 Y113.122 E0.02917
G1 X92.356 Y112.329 E0.12172
G1 X92.03 Y112.148 E0.0248
G1 X91.79 Y111.993 E0.019
G1 X91.543 Y111.811 E0.02041
G1 X91.338 Y111.639 E0.0178
G1 X91.108 Y111.419 E0.02117
G1 X90.922 Y111.218 E0.01822
G1 X90.741 Y110.995 E0.01911
G1 X90.576 Y110.766 E0.01878
G1 X90.41 Y110.498 E0.02097
G1 X90.283 Y110.261 E0.01789
G1 X90.151 Y109.972 E0.02113
G1 X90.059 Y109.732 E0.0171
G1 X89.966 Y109.434 E0.02077
G1 X89.899 Y109.16 E0.01876
G1 X89.759 Y108.375 E0.05304
G1 X89.736 Y108.258 E0.00793
G1 X89.533 Y107.606 E0.04542
G1 X89.249 Y106.985 E0.04542
G1 X88.886 Y106.4 E0.0458
G1 X88.716 Y106.201 E0.01741
G1 X88.732 Y106.187 E0.00141
G1 X88.158 Y105.546 E0.05724
G1 X87.975 Y105.31 E0.01987
G1 X87.816 Y105.079 E0.01865
G1 X87.661 Y104.819 E0.02014
G1 X87.531 Y104.568 E0.0188
G1 X87.416 Y104.302 E0.01928
G1 X87.317 Y104.03 E0.01925
G1 X87.227 Y103.724 E0.02122
G1 X87.172 Y103.492 E0.01586
G1 X87.126 Y103.241 E0.01697
G1 X86.793 Y100.845 E0.16091
G1 X86.774 Y100.674 E0.01144
G1 X86.746 Y100.306 E0.02455
G1 X86.743 Y99.987 E0.02122
G1 X86.754 Y99.781 E0.01372
G1 X86.802 Y99.414 E0.02462
G1 X86.928 Y98.812 E0.04091
G1 X86.97 Y98.649 E0.0112
G1 X87.109 Y98.206 E0.03089
G1 X87.318 Y97.638 E0.04026
G1 X87.507 Y97.204 E0.03149
G1 X87.882 Y96.442 E0.05649
G1 X88.054 Y96.14 E0.02312
G1 X88.248 Y95.847 E0.02338
G1 X88.539 Y95.471 E0.03163
G1 X88.661 Y95.326 E0.01261
G1 X89.23 Y94.7 E0.05627
G1 X89.648 Y94.176 E0.04459
G1 X90.004 Y93.592 E0.0455
G1 X90.282 Y92.97 E0.04532
G1 X90.481 Y92.314 E0.0456
G1 X90.611 Y91.838 E0.03282
G1 X90.829 Y91.169 E0.04681
G1 X90.955 Y90.844 E0.02319
G1 X91.088 Y90.562 E0.02074
G1 X91.393 Y90.025 E0.04108
G1 X91.612 Y89.702 E0.02596
G1 X91.824 Y89.421 E0.02342
G1 X92.014 Y89.199 E0.01944
G0 F3600 X93 Y88.386
G1 F1350 X93 Y112.638 E1.61325
G0 F3600 X96 Y113.97
G1 F1350 X96 Y87.533 E1.7586
G0 F3600 X99 Y87.369
G1 F1350 X99 Y113.954 E1.76844
G0 F3600 X102 Y113.855
G1 F1350 X102 Y88.175 E1.70824
G0 F3600 X105 Y88.89
G1 F1350 X105 Y113.144 E1.61338
G0 F3600 X108 Y110.006
G1 F1350 X108 Y90.861 E1.27353
G0 F3600 X111 Y97.81
G1 F1350 X111 Y107.653 E0.65476
G0 F3600 X90 Y109.542
G1 F1350 X90 Y93.598 E1.0606
G0 F3600 X87 Y98.553
G1 F1350 X87 Y102.334 E0.25151
G0 F3600 X92.163 Y88.769
;TIME_ELAPSED:14.888659
;LAYER:-5
M140 S70
G0 X92.163 Y88.769 Z0.47
;TYPE:SUPPORT
G1 F1350 X92.311 Y88.635 E0.00896
G1 X92.544 Y88.451 E0.01333
G1 X92.632 Y88.389 E0.00483
G1 X111.505 Y107.262 E1.19843
G1 X111.642 Y107.015 E0.01268
G1 X111.767 Y106.756 E0.01291
G1 X111.79 Y106.699 E0.00276
G1 X93.157 Y88.066 E1.18319
G1 X93.314 Y87.983 E0.00797
G1 X93.596 Y87.858 E0.01385
G1 X93.743 Y87.804 E0.00703
G1 X112.021 Y106.081 E1.16062
G1 X112.187 Y105.585 E0.02349
G1 X112.229 Y105.441 E0.00674
G1 X94.374 Y87.586 E1.13379
G1 X94.443 Y87.563 E0.00327
G1 X94.737 Y87.478 E0.01374
G1 X95.017 Y87.416 E0.01288
G1 X95.048 Y87.411 E0.00141
G1 X112.4 Y104.763 E1.10185
G1 X112.514 Y104.158 E0.02764
G1 X112.532 Y104.047 E0.00505
G1 X95.818 Y87.333 E1.06134
G1 X95.933 Y87.33 E0.00517
G1 X96.119 Y87.335 E0.00835
G1 X96.655 Y87.322 E0.02407
G1 X112.602 Y103.268 E1.0126
G1 X112.602 Y103.257 E0.00049
G1 X112.595 Y102.937 E0.01437
G1 X112.547 Y102.421 E0.02327
G1 X112.537 Y102.355 E0.003
G1 X97.402 Y87.22 E0.96107
G1 X97.739 Y87.167 E0.01532
G1 X98.047 Y87.138 E0.01389
G1 X98.164 Y87.133 E0.00526
G1 X112.34 Y101.31 E0.90021
G1 X112.243 Y100.752 E0.02543
G1 X112.182 Y100.492 E0.01199
G1 X112.1 Y100.221 E0.01271
G1 X99.055 Y87.175 E0.82839
G1 X99.448 Y87.232 E0.01783
G1 X100.05 Y87.38 E0.02784
G1 X100.136 Y87.408 E0.00406
G1 X111.456 Y98.728 E0.71882
G1 X111.377 Y98.538 E0.00924
G1 X111.218 Y97.903 E0.02939
G1 X111.186 Y97.717 E0.00847
G1 X111.175 Y97.599 E0.00532
G1 X101.447 Y87.87 E0.61776
G1 X101.466 Y87.877 E0.00091
G1 X102.359 Y88.034 E0.04071
G1 X102.465 Y88.044 E0.00478
G0 F3600 X102.471 Y88.046
G1 F1350 X111.104 Y96.679 E0.54819
G1 X111.104 Y96.602 E0.00346
G1 X111.084 Y96.294 E0.01386
G1 X111.046 Y95.998 E0.0134
G1 X110.991 Y95.717 E0.01286
G1 X103.531 Y88.258 E0.47368
G1 X104.595 Y88.538 E0.0494
G1 X104.692 Y88.57 E0.00459
G1 X110.62 Y94.498 E0.37643
G1 X110.402 Y93.84 E0.03112
G1 X110.325 Y93.635 E0.00983
G1 X110.118 Y93.147 E0.0238
G1 X106.534 Y89.564 E0.22755
G1 X108.42 Y90.916 E0.10419
G1 X108.728 Y91.167 E0.01784
G1 X108.961 Y91.384 E0.0143
G1 X109.161 Y91.593 E0.01299
G1 X109.358 Y91.829 E0.0138
G1 X109.508 Y92.034 E0.01141
G1 X109.708 Y92.354 E0.01694
G1 X110.003 Y92.906 E0.0281
G1 X110.108 Y93.125 E0.01091
G0 F3600 X111.162 Y107.768
G1 F1350 X92.163 Y88.769 E1.20643
G0 F3600 X91.747 Y89.201
G1 F1350 X110.762 Y108.217 E1.20748
G1 X110.959 Y108.009 E0.01286
G1 X111.142 Y107.794 E0.01268
G1 X111.162 Y107.768 E0.00147
G0 F3600 X110.31 Y108.613
G1 F1350 X110.285 Y108.634 E0.00147
G1 X110.051 Y108.802 E0.01293
G1 X109.807 Y108.954 E0.01291
G0 F3600 X109.804 Y108.955
G1 F1350 X91.054 Y90.206 E1.19059
G1 X90.912 Y90.463 E0.01318
G1 X90.769 Y90.769 E0.01517
G1 X109.257 Y109.257 E1.17399
G1 X108.938 Y109.451 E0.01676
G1 X108.75 Y109.599 E0.01074
G1 X90.542 Y91.391 E1.15621
G1 X90.417 Y91.785 E0.01856
G1 X90.346 Y92.043 E0.01202
G1 X108.293 Y109.99 E1.13963
G1 X107.961 Y110.329 E0.02131
G1 X107.885 Y110.43 E0.00568
G1 X90.154 Y92.7 E1.12588
G1 X90.095 Y92.899 E0.00932
G1 X89.912 Y93.306 E0.02004
G1 X107.524 Y110.918 E1.11836
G1 X107.207 Y111.45 E0.02781
G1 X89.609 Y93.852 E1.11747
G1 X89.483 Y94.06 E0.01092
G1 X89.255 Y94.346 E0.01642
G1 X106.857 Y111.949 E1.11776
G1 X106.8 Y112.021 E0.00412
G1 X106.599 Y112.248 E0.01361
G1 X106.453 Y112.393 E0.00924
G1 X88.864 Y94.803 E1.11693
G1 X88.508 Y95.196 E0.02381
G1 X88.462 Y95.25 E0.00319
G1 X105.996 Y112.784 E1.11341
G1 X105.908 Y112.852 E0.00499
G1 X105.672 Y113.009 E0.01273
G1 X105.483 Y113.12 E0.00984
G1 X88.088 Y95.725 E1.10458
G1 X88.082 Y95.733 E0.00045
G1 X87.888 Y96.024 E0.0157
G1 X87.763 Y96.249 E0.01156
G1 X104.911 Y113.396 E1.08886
G1 X104.869 Y113.414 E0.00205
G1 X104.55 Y113.525 E0.01517
G1 X104.267 Y113.6 E0.01315
G1 X87.476 Y96.81 E1.06619
G1 X87.28 Y97.217 E0.02028
G1 X87.206 Y97.389 E0.00841
G1 X103.572 Y113.755 E1.03924
G1 X102.86 Y113.891 E0.03255
G1 X86.969 Y98 E1.00908
G1 X86.92 Y98.139 E0.00662
G1 X86.778 Y98.589 E0.02119
G1 X86.764 Y98.643 E0.0025
G1 X102.148 Y114.028 E0.97691
G1 X101.437 Y114.165 E0.03251
G1 X86.612 Y99.34 E0.94139
G1 X86.602 Y99.385 E0.00207
G1 X86.556 Y99.738 E0.01598
G1 X86.543 Y100.001 E0.01182
G1 X86.544 Y100.12 E0.00534
G1 X100.677 Y114.254 E0.89748
G1 X100.576 Y114.261 E0.00455
G1 X100.283 Y114.261 E0.01316
G1 X99.965 Y114.241 E0.01431
G1 X99.794 Y114.219 E0.00774
G1 X86.617 Y101.042 E0.83674
G1 X86.754 Y102.028 E0.0447
G1 X98.877 Y114.151 E0.76981
G1 X98.135 Y114.207 E0.03341
G1 X98.091 Y114.214 E0.002
G1 X86.892 Y103.014 E0.71117
G1 X86.913 Y103.164 E0.0068
G1 X86.972 Y103.516 E0.01603
G1 X87.034 Y103.779 E0.01213
G1 X87.129 Y104.1 E0.01503
G1 X97.331 Y114.302 E0.64783
G1 X97.102 Y114.308 E0.01029
G1 X96.795 Y114.298 E0.01379
G1 X96.476 Y114.266 E0.0144
G1 X96.44 Y114.259 E0.00165
G1 X88.765 Y106.585 E0.48733
G1 X89.073 Y107.079 E0.02614
G1 X89.346 Y107.676 E0.02948
G1 X89.497 Y108.165 E0.02298
G1 X95.268 Y113.936 E0.36646
G1 X95.013 Y113.823 E0.01252
G1 X94.497 Y113.563 E0.02594
G1 X94.446 Y113.55 E0.00236
G1 X94.451 Y113.537 E0.00063
G1 X93.917 Y113.3 E0.02623
G1 X93.663 Y113.179 E0.01263
G1 X89.708 Y109.224 E0.25114
G1 X89.774 Y109.491 E0.01235
G1 X89.864 Y109.781 E0.01363
G1 X89.973 Y110.065 E0.01366
G1 X90.1 Y110.341 E0.01364
G1 X90.243 Y110.607 E0.01356
G1 X91.986 Y112.35 E0.11068
G1 X91.923 Y112.316 E0.00321
G1 X91.676 Y112.157 E0.01319
G1 X91.423 Y111.971 E0.0141
G1 X91.196 Y111.78 E0.01332
G1 X90.974 Y111.568 E0.01378
G1 X90.77 Y111.347 E0.0135
G1 X90.578 Y111.111 E0.01366
G1 X90.407 Y110.873 E0.01316
G1 X90.245 Y110.611 E0.01383
G0 F3600 X110.31 Y108.613
G1 F1350 X91.381 Y89.684 E1.20199
G1 X91.445 Y89.591 E0.00507
G1 X91.673 Y89.289 E0.01699
G1 X91.747 Y89.201 E0.00516
G0 F3600 X92.131 Y88.8
;TIME_ELAPSED:58.090226
;LAYER:-4
G0 X92.131 Y88.8 Z0.74
G1 F1800 X92.312 Y88.636 E0.01097
G1 X92.545 Y88.451 E0.01336
G1 X92.618 Y88.4 E0.004
G1 X104.071 Y88.4 E0.51425
G1 X103.253 Y88.184 E0.03799
G1 X103.018 Y88.133 E0.0108
G1 X102.466 Y88.045 E0.0251
G1 X102.36 Y88.035 E0.00478
G1 X102.163 Y88 E0.00898
G1 X93.285 Y88 E0.39863
G1 X93.315 Y87.984 E0.00153
G1 X93.597 Y87.858 E0.01387
G1 X93.879 Y87.753 E0.01351
G1 X94.334 Y87.6 E0.02155
G1 X100.679 Y87.6 E0.2849
G1 X100.491 Y87.527 E0.00906
G1 X100.178 Y87.421 E0.01484
G1 X100.051 Y87.381 E0.00598
G1 X99.449 Y87.232 E0.02785
G1 X99.228 Y87.2 E0.01003
G1 X97.529 Y87.2 E0.07629
G1 X97.741 Y87.167 E0.00963
G1 X98.048 Y87.138 E0.01385
G1 X98.361 Y87.127 E0.01406
G1 X98.652 Y87.135 E0.01307
G1 X98.971 Y87.163 E0.01438
G0 F3600 X105.299 Y88.8
G1 F1800 X92.131 Y88.8 E0.59126
G0 F3600 X91.75 Y89.2
G1 F1800 X106.012 Y89.2 E0.64038
G1 X105.777 Y89.049 E0.01254
G1 X105.515 Y88.903 E0.01347
G1 X105.299 Y88.8 E0.01074
G0 F3600 X106.585 Y89.6
G1 F1800 X107.143 Y90 E0.03083
G1 X91.175 Y90 E0.71698
G1 X91.145 Y90.048 E0.00254
G1 X90.949 Y90.4 E0.01809
G1 X107.701 Y90.4 E0.75218
G1 X108.259 Y90.8 E0.03083
G1 X90.758 Y90.8 E0.78582
G1 X90.608 Y91.2 E0.01918
G1 X108.764 Y91.2 E0.81523
G1 X108.962 Y91.384 E0.01214
G1 X109.162 Y91.594 E0.01302
G0 F3600 X109.168 Y91.6
G1 F1800 X90.478 Y91.6 E0.8392
G1 X90.418 Y91.786 E0.00878
G1 X90.36 Y92 E0.00996
G1 X109.485 Y92 E0.85874
G1 X109.51 Y92.035 E0.00193
G1 X109.709 Y92.354 E0.01688
G1 X109.734 Y92.4 E0.00235
G1 X90.246 Y92.4 E0.87503
G1 X90.126 Y92.8 E0.01875
G1 X109.949 Y92.8 E0.89008
G1 X110.005 Y92.906 E0.00538
G1 X110.109 Y93.125 E0.01089
G1 X110.141 Y93.2 E0.00366
G1 X89.961 Y93.2 E0.90611
G1 X89.826 Y93.499 E0.01473
G1 X89.765 Y93.6 E0.0053
G1 X110.312 Y93.6 E0.92258
G1 X110.326 Y93.635 E0.00169
G1 X110.403 Y93.841 E0.00987
G1 X110.456 Y94 E0.00753
G1 X89.522 Y94 E0.93996
G1 X89.484 Y94.061 E0.00323
G1 X89.213 Y94.4 E0.01949
G1 X110.589 Y94.4 E0.95981
G1 X110.721 Y94.8 E0.01891
G1 X88.869 Y94.8 E0.98118
G1 X88.506 Y95.2 E0.02425
G1 X110.853 Y95.2 E1.00341
G1 X110.893 Y95.337 E0.00641
G1 X110.962 Y95.6 E0.01221
G1 X88.187 Y95.6 E1.02262
G1 X88.083 Y95.734 E0.00762
G1 X87.906 Y96 E0.01435
G1 X111.048 Y96 E1.0391
G1 X111.085 Y96.295 E0.01335
G1 X111.092 Y96.4 E0.00473
G1 X87.682 Y96.4 E1.05114
G1 X87.638 Y96.478 E0.00402
G1 X87.483 Y96.8 E0.01605
G1 X111.106 Y96.8 E1.0607
G1 X111.106 Y96.825 E0.00112
G1 X111.141 Y97.2 E0.01691
G1 X87.29 Y97.2 E1.07094
G1 X87.28 Y97.219 E0.00096
G1 X87.119 Y97.6 E0.01857
G1 X111.177 Y97.6 E1.08023
G1 X111.187 Y97.717 E0.00527
G1 X111.22 Y97.904 E0.00853
G1 X111.244 Y98 E0.00444
G1 X86.972 Y98 E1.08984
G1 X86.92 Y98.14 E0.00671
G1 X86.839 Y98.4 E0.01223
G1 X111.344 Y98.4 E1.1003
G1 X111.378 Y98.539 E0.00643
G1 X111.487 Y98.8 E0.0127
G1 X86.726 Y98.8 E1.1118
G1 X86.643 Y99.2 E0.01834
G1 X111.654 Y99.2 E1.12302
G1 X111.733 Y99.392 E0.00932
G1 X111.843 Y99.6 E0.01057
G1 X86.576 Y99.6 E1.13452
G1 X86.557 Y99.74 E0.00634
G1 X86.544 Y100 E0.01169
G1 X112.02 Y100 E1.1439
G1 X112.091 Y100.19 E0.00911
G1 X112.155 Y100.4 E0.00986
G1 X86.551 Y100.4 E1.14965
G1 X86.574 Y100.696 E0.01333
G1 X86.585 Y100.8 E0.0047
G1 X112.253 Y100.8 E1.15252
G1 X112.322 Y101.2 E0.01823
G1 X86.639 Y101.2 E1.1532
G1 X86.695 Y101.6 E0.01814
G1 X112.398 Y101.6 E1.1541
G1 X112.483 Y102 E0.01836
G1 X86.751 Y102 E1.1554
G1 X86.806 Y102.4 E0.01813
G1 X112.545 Y102.4 E1.15571
G1 X112.548 Y102.421 E0.00095
G1 X112.584 Y102.8 E0.01709
G1 X86.862 Y102.8 E1.15495
G1 X86.913 Y103.165 E0.01655
G1 X86.918 Y103.2 E0.00159
G1 X112.602 Y103.2 E1.15324
G1 X112.603 Y103.257 E0.00256
G1 X112.589 Y103.593 E0.0151
G0 F3600 X112.588 Y103.6
G1 F1800 X86.992 Y103.6 E1.14929
G1 X87.035 Y103.78 E0.00831
